(Generated by PartKam Version 0.05)

G20 G90 G40

(pocket 2)
G0 Z0.25
T0 M6
G17
M3
G0 X5.9746 Y9.0258
G1 Z-0.1 F30
G1 X6 Y9.0258 F10
G1 X6.025 Y9.0258
G1 X6.025 Y9.0508
G1 X6.025 Y9.0758
G1 X6 Y9.0758
G1 X5.975 Y9.0758
G1 X5.975 Y9.0508
G2 X5.9746 Y9.0258 I-0.725 J0
G1 X5.875 Y9.0508 F10
G2 X5.8624 Y8.9258 I-0.625 J0 F10
G1 X6 Y8.9258
G1 X6.125 Y8.9258
G1 X6.125 Y9.0508
G1 X6.125 Y9.1758
G1 X6 Y9.1758
G1 X5.875 Y9.1758
G1 X5.875 Y9.0508
G1 X5.775 Y9.0508 F10
G2 X5.7243 Y8.8258 I-0.525 J0 F10
G1 X6 Y8.8258
G1 X6.225 Y8.8258
G1 X6.225 Y9.0508
G1 X6.225 Y9.2758
G1 X6 Y9.2758
G1 X5.775 Y9.2758
G1 X5.775 Y9.0508
G1 X5.675 Y9.0508 F10
G2 X5.5239 Y8.7258 I-0.425 J0 F10
G1 X6 Y8.7258
G1 X6.325 Y8.7258
G1 X6.325 Y9.0508
G1 X6.325 Y9.3758
G1 X6 Y9.3758
G1 X5.675 Y9.3758
G1 X5.675 Y9.0508
G0 Z0.25
G0 X4.925 Y8.5746
G1 Z-0.1 F30
G2 X4.9761 Y8.6258 I0.325 J-0.2739 F10
G1 X4.925 Y8.6258
G1 X4.925 Y8.5746
G0 Z0.25
G0 X5.125 Y7.5508
G1 Z-0.1 F30
G1 X5.125 Y8.3008 F10
G2 X5.25 Y8.4258 I0.125 J0
G1 X6 Y8.4258
G1 X6.625 Y8.4258
G1 X6.625 Y9.0508
G1 X6.625 Y9.6758
G1 X6 Y9.6758
G1 X5.375 Y9.6758
G1 X5.375 Y9.0508
G2 X5.25 Y8.9258 I-0.125 J0
G1 X4.625 Y8.9258
G1 X4.625 Y8.3008
G2 X4.5 Y8.1758 I-0.125 J0
G1 X3.875 Y8.1758
G1 X3.875 Y7.5508
G1 X3.875 Y6.9258
G1 X4.5 Y6.9258
G1 X5.125 Y6.9258
G1 X5.125 Y7.5508
G0 Z0.25
G0 X5.025 Y7.5508
G1 Z-0.1 F30
G1 X5.025 Y8.3008 F10
G2 X5.25 Y8.5258 I0.225 J0
G1 X6 Y8.5258
G1 X6.525 Y8.5258
G1 X6.525 Y9.0508
G1 X6.525 Y9.5758
G1 X6 Y9.5758
G1 X5.475 Y9.5758
G1 X5.475 Y9.0508
G2 X5.25 Y8.8258 I-0.225 J0
G1 X4.725 Y8.8258
G1 X4.725 Y8.3008
G2 X4.5 Y8.0758 I-0.225 J0
G1 X3.975 Y8.0758
G1 X3.975 Y7.5508
G1 X3.975 Y7.0258
G1 X4.5 Y7.0258
G1 X5.025 Y7.0258
G1 X5.025 Y7.5508
G0 Z0.25
G0 X4.925 Y7.5508
G1 Z-0.1 F30
G1 X4.925 Y8.3008 F10
G2 X5.25 Y8.6258 I0.325 J0
G1 X6 Y8.6258
G1 X6.425 Y8.6258
G1 X6.425 Y9.0508
G1 X6.425 Y9.4758
G1 X6 Y9.4758
G1 X5.575 Y9.4758
G1 X5.575 Y9.0508
G2 X5.25 Y8.7258 I-0.325 J0
G1 X4.825 Y8.7258
G1 X4.825 Y8.3008
G2 X4.5 Y7.9758 I-0.325 J0
G1 X4.075 Y7.9758
G1 X4.075 Y7.5508
G1 X4.075 Y7.1258
G1 X4.5 Y7.1258
G1 X4.925 Y7.1258
G1 X4.925 Y7.5508
G0 Z0.25
G0 X4.825 Y7.5508
G1 Z-0.1 F30
G1 X4.825 Y8.0269 F10
G2 X4.5 Y7.8758 I-0.325 J0.2739
G1 X4.175 Y7.8758
G1 X4.175 Y7.5508
G1 X4.175 Y7.2258
G1 X4.5 Y7.2258
G1 X4.825 Y7.2258
G1 X4.825 Y7.5508
G0 Z0.25
G0 X4.725 Y7.5508
G1 Z-0.1 F30
G1 X4.725 Y7.8264 F10
G2 X4.5 Y7.7758 I-0.225 J0.4743
G1 X4.275 Y7.7758
G1 X4.275 Y7.5508
G1 X4.275 Y7.3258
G1 X4.5 Y7.3258
G1 X4.725 Y7.3258
G1 X4.725 Y7.5508
G0 Z0.25
G0 X4.625 Y7.5508
G1 Z-0.1 F30
G1 X4.625 Y7.6884 F10
G2 X4.5 Y7.6758 I-0.125 J0.6124
G1 X4.375 Y7.6758
G1 X4.375 Y7.5508
G1 X4.375 Y7.4258
G1 X4.5 Y7.4258
G1 X4.625 Y7.4258
G1 X4.625 Y7.5508
G0 Z0.25
G0 X4.525 Y7.5508
G1 Z-0.1 F30
G1 X4.525 Y7.5762 F10
G2 X4.5 Y7.5758 I-0.025 J0.7246
G1 X4.475 Y7.5758
G1 X4.475 Y7.5508
G1 X4.475 Y7.5258
G1 X4.5 Y7.5258
G1 X4.525 Y7.5258
G1 X4.525 Y7.5508

(profile 2)
G0 Z0.25
G0 X5.9126 Y6.7102
G1 Z-0.15 F30
G1 X6.6597 Y5.9631 F10
G3 X6.707 Y5.9334 I0.0884 J0.0884
G3 X6.75 Y5.9258 I0.043 J0.1174
G1 X7.5 Y5.9258
G3 X7.625 Y6.0508 I0 J0.125
G1 X7.625 Y6.8008
G3 X7.5821 Y6.895 I-0.125 J0
G1 X6.8442 Y7.6329
G3 X6.75 Y7.6758 I-0.0942 J-0.0821
G1 X6 Y7.6758
G3 X5.875 Y7.5508 I0 J-0.125
G1 X5.875 Y6.8008
G3 X5.886 Y6.7496 I0.125 J0
G3 X5.9126 Y6.7102 I0.115 J0.049

(profile 3)
G0 Z0.25
G0 X2.875 Y8.3021
G1 Z-0.15 F30
G1 X2.875 Y6.8021 F15
G3 X3 Y6.6771 I0.125 J0
G1 X3.625 Y6.6771
G1 X3.625 Y6.0521
G3 X3.75 Y5.9271 I0.125 J0
G1 X4.375 Y5.9271
G1 X4.375 Y5.4271
G1 X3.75 Y5.4271
G3 X3.625 Y5.3021 I0 J-0.125
G1 X3.625 Y4.6771
G1 X3 Y4.6771
G3 X2.875 Y4.5521 I0 J-0.125
G1 X2.875 Y3.9271
G1 X2.25 Y3.9271
G3 X2.125 Y3.8021 I0 J-0.125
G1 X2.125 Y3.1771
G1 X1.5 Y3.1771
G3 X1.375 Y3.0521 I0 J-0.125
G1 X1.375 Y2.4271
G1 X0.75 Y2.4271
G3 X0.625 Y2.3021 I0 J-0.125
G1 X0.625 Y1.6771
G1 X0 Y1.6771
G3 X-0.125 Y1.5521 I0 J-0.125
G1 X-0.125 Y0.0521
G3 X0 Y-0.0729 I0.125 J0
G1 X0.5425 Y-0.0729
G1 X1.0425 Y-0.0729
G1 X1.5 Y-0.0729
G3 X1.625 Y0.0521 I0 J0.125
G1 X1.625 Y0.6771
G1 X2.25 Y0.6771
G3 X2.375 Y0.8021 I0 J0.125
G1 X2.375 Y1.4271
G1 X3 Y1.4271
G3 X3.125 Y1.5521 I0 J0.125
G1 X3.125 Y2.1771
G1 X3.75 Y2.1771
G3 X3.875 Y2.3021 I0 J0.125
G1 X3.875 Y2.9271
G1 X4.5 Y2.9271
G3 X4.625 Y3.0521 I0 J0.125
G1 X4.625 Y3.6771
G1 X5.25 Y3.6771
G3 X5.375 Y3.8021 I0 J0.125
G1 X5.375 Y4.4271
G1 X6 Y4.4271
G3 X6.125 Y4.5521 I0 J0.125
G1 X6.125 Y5.1771
G1 X6.625 Y5.1771
G1 X6.625 Y4.5521
G3 X6.75 Y4.4271 I0.125 J0
G1 X8.25 Y4.4271
G3 X8.375 Y4.5521 I0 J0.125
G1 X8.375 Y5.1771
G1 X9 Y5.1771
G3 X9.125 Y5.3021 I0 J0.125
G1 X9.125 Y6.8021
G3 X9 Y6.9271 I-0.125 J0
G1 X8.375 Y6.9271
G1 X8.375 Y8.3021
G3 X8.25 Y8.4271 I-0.125 J0
G1 X7.625 Y8.4271
G1 X7.625 Y9.8021
G3 X7.5 Y9.9271 I-0.125 J0
G1 X6.875 Y9.9271
G1 X6.875 Y10.5521
G3 X6.75 Y10.6771 I-0.125 J0
G1 X6.2169 Y10.6771
G1 X5.7169 Y10.6771
G1 X5.25 Y10.6771
G3 X5.125 Y10.5521 I0 J-0.125
G1 X5.125 Y9.9271
G1 X4.5 Y9.9271
G3 X4.375 Y9.8021 I0 J-0.125
G1 X4.375 Y9.1771
G1 X3.75 Y9.1771
G3 X3.625 Y9.0521 I0 J-0.125
G1 X3.625 Y8.4271
G1 X3 Y8.4271
G3 X2.875 Y8.3021 I0 J-0.125
G1 Z-0.3 F30
G1 X2.875 Y6.8021 F15
G3 X3 Y6.6771 I0.125 J0
G1 X3.625 Y6.6771
G1 X3.625 Y6.0521
G3 X3.75 Y5.9271 I0.125 J0
G1 X4.375 Y5.9271
G1 X4.375 Y5.4271
G1 X3.75 Y5.4271
G3 X3.625 Y5.3021 I0 J-0.125
G1 X3.625 Y4.6771
G1 X3 Y4.6771
G3 X2.875 Y4.5521 I0 J-0.125
G1 X2.875 Y3.9271
G1 X2.25 Y3.9271
G3 X2.125 Y3.8021 I0 J-0.125
G1 X2.125 Y3.1771
G1 X1.5 Y3.1771
G3 X1.375 Y3.0521 I0 J-0.125
G1 X1.375 Y2.4271
G1 X0.75 Y2.4271
G3 X0.625 Y2.3021 I0 J-0.125
G1 X0.625 Y1.6771
G1 X0 Y1.6771
G3 X-0.125 Y1.5521 I0 J-0.125
G1 X-0.125 Y0.0521
G3 X0 Y-0.0729 I0.125 J0
G1 X0.5425 Y-0.0729
G1 X1.0425 Y-0.0729
G1 X1.5 Y-0.0729
G3 X1.625 Y0.0521 I0 J0.125
G1 X1.625 Y0.6771
G1 X2.25 Y0.6771
G3 X2.375 Y0.8021 I0 J0.125
G1 X2.375 Y1.4271
G1 X3 Y1.4271
G3 X3.125 Y1.5521 I0 J0.125
G1 X3.125 Y2.1771
G1 X3.75 Y2.1771
G3 X3.875 Y2.3021 I0 J0.125
G1 X3.875 Y2.9271
G1 X4.5 Y2.9271
G3 X4.625 Y3.0521 I0 J0.125
G1 X4.625 Y3.6771
G1 X5.25 Y3.6771
G3 X5.375 Y3.8021 I0 J0.125
G1 X5.375 Y4.4271
G1 X6 Y4.4271
G3 X6.125 Y4.5521 I0 J0.125
G1 X6.125 Y5.1771
G1 X6.625 Y5.1771
G1 X6.625 Y4.5521
G3 X6.75 Y4.4271 I0.125 J0
G1 X8.25 Y4.4271
G3 X8.375 Y4.5521 I0 J0.125
G1 X8.375 Y5.1771
G1 X9 Y5.1771
G3 X9.125 Y5.3021 I0 J0.125
G1 X9.125 Y6.8021
G3 X9 Y6.9271 I-0.125 J0
G1 X8.375 Y6.9271
G1 X8.375 Y8.3021
G3 X8.25 Y8.4271 I-0.125 J0
G1 X7.625 Y8.4271
G1 X7.625 Y9.8021
G3 X7.5 Y9.9271 I-0.125 J0
G1 X6.875 Y9.9271
G1 X6.875 Y10.5521
G3 X6.75 Y10.6771 I-0.125 J0
G1 X6.2169 Y10.6771
G1 X5.7169 Y10.6771
G1 X5.25 Y10.6771
G3 X5.125 Y10.5521 I0 J-0.125
G1 X5.125 Y9.9271
G1 X4.5 Y9.9271
G3 X4.375 Y9.8021 I0 J-0.125
G1 X4.375 Y9.1771
G1 X3.75 Y9.1771
G3 X3.625 Y9.0521 I0 J-0.125
G1 X3.625 Y8.4271
G1 X3 Y8.4271
G3 X2.875 Y8.3021 I0 J-0.125
G1 Z-0.45 F30
G1 X2.875 Y6.8021 F15
G3 X3 Y6.6771 I0.125 J0
G1 X3.625 Y6.6771
G1 X3.625 Y6.0521
G3 X3.75 Y5.9271 I0.125 J0
G1 X4.375 Y5.9271
G1 X4.375 Y5.4271
G1 X3.75 Y5.4271
G3 X3.625 Y5.3021 I0 J-0.125
G1 X3.625 Y4.6771
G1 X3 Y4.6771
G3 X2.875 Y4.5521 I0 J-0.125
G1 X2.875 Y3.9271
G1 X2.25 Y3.9271
G3 X2.125 Y3.8021 I0 J-0.125
G1 X2.125 Y3.1771
G1 X1.5 Y3.1771
G3 X1.375 Y3.0521 I0 J-0.125
G1 X1.375 Y2.4271
G1 X0.75 Y2.4271
G3 X0.625 Y2.3021 I0 J-0.125
G1 X0.625 Y1.6771
G1 X0 Y1.6771
G3 X-0.125 Y1.5521 I0 J-0.125
G1 X-0.125 Y0.0521
G3 X0 Y-0.0729 I0.125 J0
G1 X0.5425 Y-0.0729
G1 X1.0425 Y-0.0729
G1 X1.5 Y-0.0729
G3 X1.625 Y0.0521 I0 J0.125
G1 X1.625 Y0.6771
G1 X2.25 Y0.6771
G3 X2.375 Y0.8021 I0 J0.125
G1 X2.375 Y1.4271
G1 X3 Y1.4271
G3 X3.125 Y1.5521 I0 J0.125
G1 X3.125 Y2.1771
G1 X3.75 Y2.1771
G3 X3.875 Y2.3021 I0 J0.125
G1 X3.875 Y2.9271
G1 X4.5 Y2.9271
G3 X4.625 Y3.0521 I0 J0.125
G1 X4.625 Y3.6771
G1 X5.25 Y3.6771
G3 X5.375 Y3.8021 I0 J0.125
G1 X5.375 Y4.4271
G1 X6 Y4.4271
G3 X6.125 Y4.5521 I0 J0.125
G1 X6.125 Y5.1771
G1 X6.625 Y5.1771
G1 X6.625 Y4.5521
G3 X6.75 Y4.4271 I0.125 J0
G1 X8.25 Y4.4271
G3 X8.375 Y4.5521 I0 J0.125
G1 X8.375 Y5.1771
G1 X9 Y5.1771
G3 X9.125 Y5.3021 I0 J0.125
G1 X9.125 Y6.8021
G3 X9 Y6.9271 I-0.125 J0
G1 X8.375 Y6.9271
G1 X8.375 Y8.3021
G3 X8.25 Y8.4271 I-0.125 J0
G1 X7.625 Y8.4271
G1 X7.625 Y9.8021
G3 X7.5 Y9.9271 I-0.125 J0
G1 X6.875 Y9.9271
G1 X6.875 Y10.5521
G3 X6.75 Y10.6771 I-0.125 J0
G1 X6.2169 Y10.6771
G1 X5.7169 Y10.6771
G1 X5.25 Y10.6771
G3 X5.125 Y10.5521 I0 J-0.125
G1 X5.125 Y9.9271
G1 X4.5 Y9.9271
G3 X4.375 Y9.8021 I0 J-0.125
G1 X4.375 Y9.1771
G1 X3.75 Y9.1771
G3 X3.625 Y9.0521 I0 J-0.125
G1 X3.625 Y8.4271
G1 X3 Y8.4271
G3 X2.875 Y8.3021 I0 J-0.125
G1 Z-0.6 F30
G1 X2.875 Y6.8021 F15
G3 X3 Y6.6771 I0.125 J0
G1 X3.625 Y6.6771
G1 X3.625 Y6.0521
G3 X3.75 Y5.9271 I0.125 J0
G1 X4.375 Y5.9271
G1 X4.375 Y5.4271
G1 X3.75 Y5.4271
G3 X3.625 Y5.3021 I0 J-0.125
G1 X3.625 Y4.6771
G1 X3 Y4.6771
G3 X2.875 Y4.5521 I0 J-0.125
G1 X2.875 Y3.9271
G1 X2.25 Y3.9271
G3 X2.125 Y3.8021 I0 J-0.125
G1 X2.125 Y3.1771
G1 X1.5 Y3.1771
G3 X1.375 Y3.0521 I0 J-0.125
G1 X1.375 Y2.4271
G1 X0.75 Y2.4271
G3 X0.625 Y2.3021 I0 J-0.125
G1 X0.625 Y1.6771
G1 X0 Y1.6771
G3 X-0.125 Y1.5521 I0 J-0.125
G1 X-0.125 Y0.0521
G3 X0 Y-0.0729 I0.125 J0
G1 X0.5425 Y-0.0729
G1 X1.0425 Y-0.0729
G1 X1.5 Y-0.0729
G3 X1.625 Y0.0521 I0 J0.125
G1 X1.625 Y0.6771
G1 X2.25 Y0.6771
G3 X2.375 Y0.8021 I0 J0.125
G1 X2.375 Y1.4271
G1 X3 Y1.4271
G3 X3.125 Y1.5521 I0 J0.125
G1 X3.125 Y2.1771
G1 X3.75 Y2.1771
G3 X3.875 Y2.3021 I0 J0.125
G1 X3.875 Y2.9271
G1 X4.5 Y2.9271
G3 X4.625 Y3.0521 I0 J0.125
G1 X4.625 Y3.6771
G1 X5.25 Y3.6771
G3 X5.375 Y3.8021 I0 J0.125
G1 X5.375 Y4.4271
G1 X6 Y4.4271
G3 X6.125 Y4.5521 I0 J0.125
G1 X6.125 Y5.1771
G1 X6.625 Y5.1771
G1 X6.625 Y4.5521
G3 X6.75 Y4.4271 I0.125 J0
G1 X8.25 Y4.4271
G3 X8.375 Y4.5521 I0 J0.125
G1 X8.375 Y5.1771
G1 X9 Y5.1771
G3 X9.125 Y5.3021 I0 J0.125
G1 X9.125 Y6.8021
G3 X9 Y6.9271 I-0.125 J0
G1 X8.375 Y6.9271
G1 X8.375 Y8.3021
G3 X8.25 Y8.4271 I-0.125 J0
G1 X7.625 Y8.4271
G1 X7.625 Y9.8021
G3 X7.5 Y9.9271 I-0.125 J0
G1 X6.875 Y9.9271
G1 X6.875 Y10.5521
G3 X6.75 Y10.6771 I-0.125 J0
G1 X6.2169 Y10.6771
G1 X5.7169 Y10.6771
G1 X5.25 Y10.6771
G3 X5.125 Y10.5521 I0 J-0.125
G1 X5.125 Y9.9271
G1 X4.5 Y9.9271
G3 X4.375 Y9.8021 I0 J-0.125
G1 X4.375 Y9.1771
G1 X3.75 Y9.1771
G3 X3.625 Y9.0521 I0 J-0.125
G1 X3.625 Y8.4271
G1 X3 Y8.4271
G3 X2.875 Y8.3021 I0 J-0.125
G1 Z-0.75 F30
G1 X2.875 Y6.8021 F15
G3 X3 Y6.6771 I0.125 J0
G1 X3.625 Y6.6771
G1 X3.625 Y6.0521
G3 X3.75 Y5.9271 I0.125 J0
G1 X4.375 Y5.9271
G1 X4.375 Y5.4271
G1 X3.75 Y5.4271
G3 X3.625 Y5.3021 I0 J-0.125
G1 X3.625 Y4.6771
G1 X3 Y4.6771
G3 X2.875 Y4.5521 I0 J-0.125
G1 X2.875 Y3.9271
G1 X2.25 Y3.9271
G3 X2.125 Y3.8021 I0 J-0.125
G1 X2.125 Y3.1771
G1 X1.5 Y3.1771
G3 X1.375 Y3.0521 I0 J-0.125
G1 X1.375 Y2.4271
G1 X0.75 Y2.4271
G3 X0.625 Y2.3021 I0 J-0.125
G1 X0.625 Y1.6771
G1 X0 Y1.6771
G3 X-0.125 Y1.5521 I0 J-0.125
G1 X-0.125 Y0.0521
G3 X0 Y-0.0729 I0.125 J0
G1 X0.5425 Y-0.0729
G1 Z-0.65 F30
G1 X1.0425 Y-0.0729 F15
G1 Z-0.75 F30
G1 X1.5 Y-0.0729 F15
G3 X1.625 Y0.0521 I0 J0.125
G1 X1.625 Y0.6771
G1 X2.25 Y0.6771
G3 X2.375 Y0.8021 I0 J0.125
G1 X2.375 Y1.4271
G1 X3 Y1.4271
G3 X3.125 Y1.5521 I0 J0.125
G1 X3.125 Y2.1771
G1 X3.75 Y2.1771
G3 X3.875 Y2.3021 I0 J0.125
G1 X3.875 Y2.9271
G1 X4.5 Y2.9271
G3 X4.625 Y3.0521 I0 J0.125
G1 X4.625 Y3.6771
G1 X5.25 Y3.6771
G3 X5.375 Y3.8021 I0 J0.125
G1 X5.375 Y4.4271
G1 X6 Y4.4271
G3 X6.125 Y4.5521 I0 J0.125
G1 X6.125 Y5.1771
G1 X6.625 Y5.1771
G1 X6.625 Y4.5521
G3 X6.75 Y4.4271 I0.125 J0
G1 X8.25 Y4.4271
G3 X8.375 Y4.5521 I0 J0.125
G1 X8.375 Y5.1771
G1 X9 Y5.1771
G3 X9.125 Y5.3021 I0 J0.125
G1 X9.125 Y6.8021
G3 X9 Y6.9271 I-0.125 J0
G1 X8.375 Y6.9271
G1 X8.375 Y8.3021
G3 X8.25 Y8.4271 I-0.125 J0
G1 X7.625 Y8.4271
G1 X7.625 Y9.8021
G3 X7.5 Y9.9271 I-0.125 J0
G1 X6.875 Y9.9271
G1 X6.875 Y10.5521
G3 X6.75 Y10.6771 I-0.125 J0
G1 X6.2169 Y10.6771
G1 Z-0.65 F30
G1 X5.7169 Y10.6771 F15
G1 Z-0.75 F30
G1 X5.25 Y10.6771 F15
G3 X5.125 Y10.5521 I0 J-0.125
G1 X5.125 Y9.9271
G1 X4.5 Y9.9271
G3 X4.375 Y9.8021 I0 J-0.125
G1 X4.375 Y9.1771
G1 X3.75 Y9.1771
G3 X3.625 Y9.0521 I0 J-0.125
G1 X3.625 Y8.4271
G1 X3 Y8.4271
G3 X2.875 Y8.3021 I0 J-0.125
G1 Z-0.85 F30
G1 X2.875 Y6.8021 F15
G3 X3 Y6.6771 I0.125 J0
G1 X3.625 Y6.6771
G1 X3.625 Y6.0521
G3 X3.75 Y5.9271 I0.125 J0
G1 X4.375 Y5.9271
G1 X4.375 Y5.4271
G1 X3.75 Y5.4271
G3 X3.625 Y5.3021 I0 J-0.125
G1 X3.625 Y4.6771
G1 X3 Y4.6771
G3 X2.875 Y4.5521 I0 J-0.125
G1 X2.875 Y3.9271
G1 X2.25 Y3.9271
G3 X2.125 Y3.8021 I0 J-0.125
G1 X2.125 Y3.1771
G1 X1.5 Y3.1771
G3 X1.375 Y3.0521 I0 J-0.125
G1 X1.375 Y2.4271
G1 X0.75 Y2.4271
G3 X0.625 Y2.3021 I0 J-0.125
G1 X0.625 Y1.6771
G1 X0 Y1.6771
G3 X-0.125 Y1.5521 I0 J-0.125
G1 X-0.125 Y0.0521
G3 X0 Y-0.0729 I0.125 J0
G1 X0.5425 Y-0.0729
G1 Z-0.65 F30
G1 X1.0425 Y-0.0729 F15
G1 Z-0.85 F30
G1 X1.5 Y-0.0729 F15
G3 X1.625 Y0.0521 I0 J0.125
G1 X1.625 Y0.6771
G1 X2.25 Y0.6771
G3 X2.375 Y0.8021 I0 J0.125
G1 X2.375 Y1.4271
G1 X3 Y1.4271
G3 X3.125 Y1.5521 I0 J0.125
G1 X3.125 Y2.1771
G1 X3.75 Y2.1771
G3 X3.875 Y2.3021 I0 J0.125
G1 X3.875 Y2.9271
G1 X4.5 Y2.9271
G3 X4.625 Y3.0521 I0 J0.125
G1 X4.625 Y3.6771
G1 X5.25 Y3.6771
G3 X5.375 Y3.8021 I0 J0.125
G1 X5.375 Y4.4271
G1 X6 Y4.4271
G3 X6.125 Y4.5521 I0 J0.125
G1 X6.125 Y5.1771
G1 X6.625 Y5.1771
G1 X6.625 Y4.5521
G3 X6.75 Y4.4271 I0.125 J0
G1 X8.25 Y4.4271
G3 X8.375 Y4.5521 I0 J0.125
G1 X8.375 Y5.1771
G1 X9 Y5.1771
G3 X9.125 Y5.3021 I0 J0.125
G1 X9.125 Y6.8021
G3 X9 Y6.9271 I-0.125 J0
G1 X8.375 Y6.9271
G1 X8.375 Y8.3021
G3 X8.25 Y8.4271 I-0.125 J0
G1 X7.625 Y8.4271
G1 X7.625 Y9.8021
G3 X7.5 Y9.9271 I-0.125 J0
G1 X6.875 Y9.9271
G1 X6.875 Y10.5521
G3 X6.75 Y10.6771 I-0.125 J0
G1 X6.2169 Y10.6771
G1 Z-0.65 F30
G1 X5.7169 Y10.6771 F15
G1 Z-0.85 F30
G1 X5.25 Y10.6771 F15
G3 X5.125 Y10.5521 I0 J-0.125
G1 X5.125 Y9.9271
G1 X4.5 Y9.9271
G3 X4.375 Y9.8021 I0 J-0.125
G1 X4.375 Y9.1771
G1 X3.75 Y9.1771
G3 X3.625 Y9.0521 I0 J-0.125
G1 X3.625 Y8.4271
G1 X3 Y8.4271
G3 X2.875 Y8.3021 I0 J-0.125
G0 Z0.25
M5
M30
