(Generated by PartKam Version 0.05)

G20 G90 G40

(profile 1)
G0 Z0.25
T0 M6
G17
M3
G0 X5.125 Y5.75
G1 Z-0.15 F30
G1 X5.125 Y5.25 F10
G3 X5.25 Y5.125 I0.125 J0
G1 X5.75 Y5.125
G3 X5.875 Y5.25 I0 J0.125
G1 X5.875 Y5.75
G3 X5.75 Y5.875 I-0.125 J0
G1 X5.25 Y5.875
G3 X5.125 Y5.75 I0 J-0.125
G0 Z0.25
G0 X5.875 Y6.5
G1 Z-0.15 F30
G1 X5.875 Y6 F10
G3 X6 Y5.875 I0.125 J0
G1 X6.5 Y5.875
G3 X6.625 Y6 I0 J0.125
G1 X6.625 Y6.5
G3 X6.5 Y6.625 I-0.125 J0
G1 X6 Y6.625
G3 X5.875 Y6.5 I0 J-0.125
G0 Z0.25
G0 X6.625 Y7.25
G1 Z-0.15 F30
G1 X6.625 Y6.75 F10
G3 X6.75 Y6.625 I0.125 J0
G1 X7.25 Y6.625
G3 X7.375 Y6.75 I0 J0.125
G1 X7.375 Y7.25
G3 X7.25 Y7.375 I-0.125 J0
G1 X6.75 Y7.375
G3 X6.625 Y7.25 I0 J-0.125
G0 Z0.25
G0 X7.375 Y8
G1 Z-0.15 F30
G1 X7.375 Y7.5 F10
G3 X7.5 Y7.375 I0.125 J0
G1 X8 Y7.375
G3 X8.125 Y7.5 I0 J0.125
G1 X8.125 Y8
G3 X8 Y8.125 I-0.125 J0
G1 X7.5 Y8.125
G3 X7.375 Y8 I0 J-0.125
G0 Z0.25
G0 X8.125 Y8.75
G1 Z-0.15 F30
G1 X8.125 Y8.25 F10
G3 X8.25 Y8.125 I0.125 J0
G1 X8.75 Y8.125
G3 X8.875 Y8.25 I0 J0.125
G1 X8.875 Y8.75
G3 X8.75 Y8.875 I-0.125 J0
G1 X8.25 Y8.875
G3 X8.125 Y8.75 I0 J-0.125
G0 Z0.25
M5
M30
