(Generated by PartKam Version 0.05)

G20 G90 G40

(follow path outline)
G0 Z0.15
T0 M6
G17
M3
G0 X10.0641 Y8.1292
G1 Z-0.1 F30
G1 X10.0641 Y8.1335 F20
G1 X10.0595 Y8.1335
G1 X10.0595 Y8.6659
G1 X10.0595 Y9.1994
G1 X10.0595 Y9.7347
G1 X10.0595 Y10.273
G1 X9.7873 Y10.273
G1 X9.5171 Y10.273
G1 X9.2484 Y10.273
G1 X8.9811 Y10.273
G1 X8.4495 Y10.273
G1 X7.92 Y10.273
G1 X7.92 Y10.2776
G1 X7.9157 Y10.2776
G1 X7.9157 Y10.9774
G1 X7.466 Y10.9774
G1 X7.0182 Y10.9774
G1 X6.5716 Y10.9774
G1 X6.1261 Y10.9774
G1 X5.2364 Y10.9774
G1 X4.3461 Y10.9774
G1 X4.3461 Y10.7987
G1 X4.3461 Y10.6232
G1 X4.3461 Y10.4498
G1 X4.3461 Y10.2776
G1 X4.3415 Y10.2776
G1 X4.3415 Y10.2733
G1 X3.6425 Y10.2733
G1 X3.6425 Y10.181
G1 X3.6425 Y10.0904
G1 X3.6425 Y10.0012
G1 X3.6425 Y9.9128
G1 X3.6425 Y9.7377
G1 X3.6425 Y9.5623
G1 X3.7324 Y9.5623
G1 X3.8214 Y9.5623
G1 X3.9967 Y9.5623
G1 X4.1697 Y9.5623
G1 X4.3415 Y9.5623
G1 X4.3415 Y9.5579
G1 X4.3461 Y9.5579
G1 X4.3461 Y9.3823
G1 X4.3461 Y9.2059
G1 X4.3461 Y9.0279
G1 X4.3461 Y8.8475
G1 X5.0595 Y8.8475
G1 X5.7715 Y8.8475
G1 X6.4844 Y8.8475
G1 X6.8419 Y8.8475
G1 X7.2003 Y8.8475
G1 X7.2003 Y8.8432
G1 X7.205 Y8.8432
G1 X7.205 Y8.6672
G1 X7.205 Y8.4894
G1 X7.205 Y8.3992
G1 X7.205 Y8.3079
G1 X7.205 Y8.2153
G1 X7.205 Y8.1212
G1 X7.1108 Y8.1212
G1 X7.0185 Y8.1212
G1 X6.9278 Y8.1212
G1 X6.8381 Y8.1212
G1 X6.6601 Y8.1212
G1 X6.4811 Y8.1212
G1 X6.4811 Y8.0305
G1 X6.4811 Y7.9413
G1 X6.4811 Y7.7652
G1 X6.4811 Y7.5893
G1 X6.4811 Y7.5001
G1 X6.4811 Y7.4097
G1 X6.391 Y7.4097
G1 X6.3019 Y7.4097
G1 X6.1252 Y7.4097
G1 X5.9485 Y7.4097
G1 X5.7696 Y7.4097
G1 X5.7696 Y7.3191
G1 X5.7696 Y7.2299
G1 X5.7696 Y7.0538
G1 X5.7696 Y6.8778
G1 X5.7696 Y6.7887
G1 X5.7696 Y6.6982
G1 X5.5904 Y6.6982
G1 X5.413 Y6.6982
G1 X5.2345 Y6.6982
G1 X5.1439 Y6.6982
G1 X5.0518 Y6.6982
G1 X5.0518 Y6.606
G1 X5.0518 Y6.5152
G1 X5.0518 Y6.3366
G1 X5.0518 Y6.1593
G1 X5.0518 Y5.9803
G1 X4.9612 Y5.9803
G1 X4.872 Y5.9803
G1 X4.6959 Y5.9803
G1 X4.5199 Y5.9803
G1 X4.4308 Y5.9803
G1 X4.3403 Y5.9803
G1 X4.3403 Y5.8011
G1 X4.3403 Y5.6237
G1 X4.3403 Y5.4452
G1 X4.3403 Y5.3546
G1 X4.3403 Y5.2625
G1 X4.2481 Y5.2625
G1 X4.1573 Y5.2625
G1 X3.9787 Y5.2625
G1 X3.8014 Y5.2625
G1 X3.6225 Y5.2625
G1 X3.6225 Y5.1719
G1 X3.6225 Y5.0827
G1 X3.6225 Y4.9066
G1 X3.6225 Y4.7306
G1 X3.6225 Y4.6415
G1 X3.6225 Y4.551
G1 X3.5324 Y4.551
G1 X3.4433 Y4.551
G1 X3.2666 Y4.551
G1 X3.09 Y4.551
G1 X2.911 Y4.551
G1 X2.911 Y4.4605
G1 X2.911 Y4.3713
G1 X2.911 Y4.1952
G1 X2.911 Y4.0192
G1 X2.911 Y3.93
G1 X2.911 Y3.8395
G1 X2.7317 Y3.8395
G1 X2.5544 Y3.8395
G1 X2.3758 Y3.8395
G1 X2.2852 Y3.8395
G1 X2.1932 Y3.8395
G1 X2.1932 Y3.7474
G1 X2.1932 Y3.6566
G1 X2.1932 Y3.478
G1 X2.1932 Y3.3007
G1 X2.1932 Y3.1217
G1 X2.1026 Y3.1217
G1 X2.0133 Y3.1217
G1 X1.8373 Y3.1217
G1 X1.6613 Y3.1217
G1 X1.5721 Y3.1217
G1 X1.4817 Y3.1217
G1 X1.4817 Y2.9424
G1 X1.4817 Y2.7651
G1 X1.4817 Y2.5866
G1 X1.4817 Y2.496
G1 X1.4817 Y2.4039
G1 X1.3895 Y2.4039
G1 X1.299 Y2.4039
G1 X1.2101 Y2.4039
G1 X1.1227 Y2.4039
G1 X1.0365 Y2.4039
G1 X0.9516 Y2.4039
G1 X0.7846 Y2.4039
G1 X0.7846 Y2.2241
G1 X0.7846 Y2.046
G1 X0.7846 Y1.8691
G1 X0.7846 Y1.6932
G1 X0.7846 Y1.3433
G1 X0.7846 Y0.994
G1 X0.9623 Y0.994
G1 X1.139 Y0.994
G1 X1.4915 Y0.994
G1 X1.8451 Y0.994
G1 X2.0233 Y0.994
G1 X2.2031 Y0.994
G1 X2.2031 Y1.1709
G1 X2.2031 Y1.3471
G1 X2.2031 Y1.5251
G1 X2.2031 Y1.6157
G1 X2.2031 Y1.7077
G1 X2.2953 Y1.7077
G1 X2.386 Y1.7077
G1 X2.5646 Y1.7077
G1 X2.7419 Y1.7077
G1 X2.9209 Y1.7077
G1 X2.9209 Y1.7984
G1 X2.9209 Y1.8876
G1 X2.9209 Y2.0637
G1 X2.9209 Y2.2396
G1 X2.9209 Y2.3288
G1 X2.9209 Y2.4192
G1 X3.0109 Y2.4192
G1 X3.1 Y2.4192
G1 X3.2767 Y2.4192
G1 X3.4534 Y2.4192
G1 X3.6324 Y2.4192
G1 X3.6324 Y2.5098
G1 X3.6324 Y2.599
G1 X3.6324 Y2.7751
G1 X3.6324 Y2.9511
G1 X3.6324 Y3.0402
G1 X3.6324 Y3.1307
G1 X3.8115 Y3.1307
G1 X3.9889 Y3.1307
G1 X4.1674 Y3.1307
G1 X4.2581 Y3.1307
G1 X4.3502 Y3.1307
G1 X4.3502 Y3.2229
G1 X4.3502 Y3.3136
G1 X4.3502 Y3.4922
G1 X4.3502 Y3.6695
G1 X4.3502 Y3.8486
G1 X4.4408 Y3.8486
G1 X4.53 Y3.8486
G1 X4.7061 Y3.8486
G1 X4.8821 Y3.8486
G1 X4.9712 Y3.8486
G1 X5.0617 Y3.8486
G1 X5.0617 Y4.0278
G1 X5.0617 Y4.2052
G1 X5.0617 Y4.3837
G1 X5.0617 Y4.4743
G1 X5.0617 Y4.5664
G1 X5.1539 Y4.5664
G1 X5.2446 Y4.5664
G1 X5.4232 Y4.5664
G1 X5.6005 Y4.5664
G1 X5.7795 Y4.5664
G1 X5.7795 Y4.657
G1 X5.7795 Y4.7462
G1 X5.7795 Y4.9223
G1 X5.7795 Y5.0983
G1 X5.7795 Y5.1874
G1 X5.7795 Y5.2779
G1 X5.8695 Y5.2779
G1 X5.9587 Y5.2779
G1 X6.1354 Y5.2779
G1 X6.312 Y5.2779
G1 X6.491 Y5.2779
G1 X6.491 Y5.3685
G1 X6.491 Y5.4576
G1 X6.491 Y5.6337
G1 X6.491 Y5.8097
G1 X6.491 Y5.8989
G1 X6.491 Y5.9894
G1 X6.6702 Y5.9894
G1 X6.8476 Y5.9894
G1 X7.0261 Y5.9894
G1 X7.1167 Y5.9894
G1 X7.2088 Y5.9894
G1 X7.2088 Y6.0815
G1 X7.2088 Y6.1723
G1 X7.2088 Y6.3508
G1 X7.2088 Y6.5281
G1 X7.2088 Y6.7072
G1 X7.2994 Y6.7072
G1 X7.3886 Y6.7072
G1 X7.5647 Y6.7072
G1 X7.7407 Y6.7072
G1 X7.8298 Y6.7072
G1 X7.9203 Y6.7072
G1 X7.9203 Y6.7972
G1 X7.9203 Y6.8863
G1 X7.9203 Y7.063
G1 X7.9203 Y7.2395
G1 X7.9203 Y7.4185
G1 X8.013 Y7.4185
G1 X8.1041 Y7.4185
G1 X8.1938 Y7.4185
G1 X8.2824 Y7.4185
G1 X8.457 Y7.4185
G1 X8.6297 Y7.4185
G1 X8.6297 Y7.4138
G1 X8.6341 Y7.4138
G1 X8.6341 Y6.7027
G1 X8.6341 Y5.9906
G1 X8.6341 Y5.2766
G1 X8.6341 Y4.5596
G1 X8.7272 Y4.5596
G1 X8.8187 Y4.5596
G1 X8.9086 Y4.5596
G1 X8.9973 Y4.5596
G1 X9.1719 Y4.5596
G1 X9.3445 Y4.5596
G1 X9.3445 Y4.555
G1 X9.3488 Y4.555
G1 X9.3488 Y3.856
G1 X9.441 Y3.856
G1 X9.5316 Y3.856
G1 X9.6209 Y3.856
G1 X9.7092 Y3.856
G1 X9.8844 Y3.856
G1 X10.0598 Y3.856
G1 X10.0598 Y3.9459
G1 X10.0598 Y4.0348
G1 X10.0598 Y4.2102
G1 X10.0598 Y4.3832
G1 X10.0598 Y4.555
G1 X10.0641 Y4.555
G1 X10.0641 Y4.5596
G1 X10.7638 Y4.5596
G1 X10.7638 Y5.0092
G1 X10.7638 Y5.4571
G1 X10.7638 Y5.9036
G1 X10.7638 Y6.3491
G1 X10.7638 Y7.2388
G1 X10.7638 Y8.1292
G1 X10.5851 Y8.1292
G1 X10.4096 Y8.1292
G1 X10.2363 Y8.1292
G1 X10.0641 Y8.1292

(follow path 2)
G0 Z0.25
G0 X10.0648 Y8.1268
G1 Z-0.1 F30
G1 X10.0648 Y8.1279 F20
G1 X9.3704 Y8.1279
G1 X9.3704 Y8.844
G1 X8.6339 Y8.844
G1 X8.6339 Y9.5655
G1 X7.9138 Y9.5655
G1 X7.9138 Y10.2817
G1 X4.3348 Y10.2817
G1 X4.3348 Y9.5338
G1 X7.1916 Y9.5338
G1 X7.1916 Y8.8355
G1 X7.9281 Y8.8355
G1 X7.9281 Y8.114
G1 X8.6225 Y8.114
G1 X8.6225 Y7.3978
G1 X9.3291 Y7.3978
G1 X9.343 Y4.5477
G1 X10.0631 Y4.5477
G1 X10.0648 Y8.1268
G0 Z0.25
G0 X8.63 Y10.2678
G1 Z-0.1 F30
G1 X9.36 Y10.2678 F20
G1 X9.36 Y9.5378
G1 X8.63 Y9.5378
G1 X8.63 Y10.2678
G0 Z0.25
G0 X9.3562 Y9.5316
G1 Z-0.1 F30
G1 X10.0491 Y9.5316 F20
G1 X10.0491 Y8.8388
G1 X9.3562 Y8.8388
G1 X9.3562 Y9.5316
G0 Z0.25
G0 X5.7685 Y5.9751
G1 Z-0.1 F30
G1 X5.0563 Y5.9751 F20
G1 X5.0563 Y5.2668
G1 X4.344 Y5.2668
G1 X4.344 Y4.5645
G1 X3.6179 Y4.5645
G1 X3.6179 Y3.8483
G1 X2.9156 Y3.8483
G1 X2.9156 Y3.1222
G1 X2.1934 Y3.1222
G1 X2.1934 Y2.3999
G1 X1.4772 Y2.3999
G1 X1.4772 Y1.7155
G1 X0.7867 Y1.7155
G1 X0.7867 Y0.9993
G1 X1.5168 Y0.9993
G1 X1.5168 Y1.7115
G1 X2.2073 Y1.7115
G1 X2.2073 Y2.4199
G1 X2.9234 Y2.4199
G1 X2.9234 Y3.1321
G1 X3.6318 Y3.1321
G1 X3.6318 Y3.8483
G1 X4.3618 Y3.8483
G1 X4.3618 Y4.5645
G1 X5.0602 Y4.5645
G1 X5.0602 Y5.2728
G1 X5.7863 Y5.2728
G1 X5.7863 Y5.989
G1 X6.4847 Y5.989
G1 X6.4847 Y6.7051
G1 X5.7685 Y6.7051
G1 X5.7685 Y5.9751
G0 Z0.25
G0 X7.2069 Y8.1218
G1 Z-0.1 F30
G1 X7.2069 Y7.4135 F20
G1 X6.4847 Y7.4135
G1 X6.4847 Y6.7112
G1 X7.2148 Y6.7112
G1 X7.2148 Y7.4195
G1 X7.9231 Y7.4195
G1 X7.9231 Y8.1218
G1 X7.2069 Y8.1218

(profile 1)
G0 Z0.25
G0 X10.8888 Y7.2388
G1 Z-0.15 F30
G1 X10.8888 Y7.7388 F20
G1 X10.8888 Y8.1292
G3 X10.7638 Y8.2542 I-0.125 J0
G1 X10.5851 Y8.2542
G1 X10.4096 Y8.2542
G1 X10.2363 Y8.2542
G1 X10.1845 Y8.2542
G1 X10.1845 Y8.6659
G1 X10.1845 Y9.1994
G1 X10.1845 Y9.7347
G1 X10.1845 Y10.273
G3 X10.0595 Y10.398 I-0.125 J0
G1 X9.7873 Y10.398
G1 X9.5171 Y10.398
G1 X9.2484 Y10.398
G1 X8.9811 Y10.398
G1 X8.4495 Y10.398
G1 X8.0407 Y10.398
G1 X8.0407 Y10.9774
G3 X7.9157 Y11.1024 I-0.125 J0
G1 X7.466 Y11.1024
G1 X7.0182 Y11.1024
G1 X6.5716 Y11.1024
G1 X6.1261 Y11.1024
G1 X5.2364 Y11.1024
G1 X4.3461 Y11.1024
G3 X4.2211 Y10.9774 I0 J-0.125
G1 X4.2211 Y10.7987
G1 X4.2211 Y10.6232
G1 X4.2211 Y10.4498
G1 X4.2211 Y10.3983
G1 X3.6425 Y10.3983
G3 X3.5175 Y10.2733 I0 J-0.125
G1 X3.5175 Y10.181
G1 X3.5175 Y10.0904
G1 X3.5175 Y10.0692
G1 X3.5175 Y10.0012
G1 X3.5175 Y9.9128
G1 X3.5175 Y9.7377
G1 X3.5175 Y9.5692
G1 X3.5175 Y9.5623
G3 X3.6425 Y9.4373 I0.125 J0
G1 X3.7324 Y9.4373
G1 X3.8214 Y9.4373
G1 X3.9967 Y9.4373
G1 X4.1697 Y9.4373
G1 X4.2211 Y9.4373
G1 X4.2211 Y9.3823
G1 X4.2211 Y9.2059
G1 X4.2211 Y9.0279
G1 X4.2211 Y8.8475
G3 X4.3461 Y8.7225 I0.125 J0
G1 X5.0595 Y8.7225
G1 X5.7715 Y8.7225
G1 X6.4844 Y8.7225
G1 X6.8419 Y8.7225
G1 X7.08 Y8.7225
G1 X7.08 Y8.6672
G1 X7.08 Y8.4894
G1 X7.08 Y8.3992
G1 X7.08 Y8.3079
G1 X7.08 Y8.2462
G1 X7.0185 Y8.2462
G1 X6.9278 Y8.2462
G1 X6.8381 Y8.2462
G1 X6.6601 Y8.2462
G1 X6.4811 Y8.2462
G3 X6.3561 Y8.1212 I0 J-0.125
G1 X6.3561 Y8.0305
G1 X6.3561 Y7.9413
G1 X6.3561 Y7.7652
G1 X6.3561 Y7.5893
G1 X6.3561 Y7.5347
G1 X6.3019 Y7.5347
G1 X6.1252 Y7.5347
G1 X5.9485 Y7.5347
G1 X5.7696 Y7.5347
G3 X5.6446 Y7.4097 I0 J-0.125
G1 X5.6446 Y7.3191
G1 X5.6446 Y7.2299
G1 X5.6446 Y7.0538
G1 X5.6446 Y6.8778
G1 X5.6446 Y6.8232
G1 X5.5904 Y6.8232
G1 X5.413 Y6.8232
G1 X5.2345 Y6.8232
G1 X5.1439 Y6.8232
G1 X5.0518 Y6.8232
G3 X4.9268 Y6.6982 I0 J-0.125
G1 X4.9268 Y6.606
G1 X4.9268 Y6.5152
G1 X4.9268 Y6.3366
G1 X4.9268 Y6.1593
G1 X4.9268 Y6.1053
G1 X4.872 Y6.1053
G1 X4.6959 Y6.1053
G1 X4.5199 Y6.1053
G1 X4.4308 Y6.1053
G1 X4.3403 Y6.1053
G3 X4.2153 Y5.9803 I0 J-0.125
G1 X4.2153 Y5.8011
G1 X4.2153 Y5.6237
G1 X4.2153 Y5.4452
G1 X4.2153 Y5.3875
G1 X4.1573 Y5.3875
G1 X3.9787 Y5.3875
G1 X3.8014 Y5.3875
G1 X3.6225 Y5.3875
G3 X3.4975 Y5.2625 I0 J-0.125
G1 X3.4975 Y5.1719
G1 X3.4975 Y5.0827
G1 X3.4975 Y4.9066
G1 X3.4975 Y4.8386
G1 X3.4975 Y4.7306
G1 X3.4975 Y4.676
G1 X3.4433 Y4.676
G1 X3.2666 Y4.676
G1 X3.16 Y4.676
G1 X3.09 Y4.676
G1 X2.911 Y4.676
G3 X2.786 Y4.551 I0 J-0.125
G1 X2.786 Y4.4605
G1 X2.786 Y4.3713
G1 X2.786 Y4.1952
G1 X2.786 Y4.0192
G1 X2.786 Y3.9645
G1 X2.7317 Y3.9645
G1 X2.5544 Y3.9645
G1 X2.3758 Y3.9645
G1 X2.2852 Y3.9645
G1 X2.1932 Y3.9645
G3 X2.0682 Y3.8395 I0 J-0.125
G1 X2.0682 Y3.7474
G1 X2.0682 Y3.6566
G1 X2.0682 Y3.478
G1 X2.0682 Y3.3007
G1 X2.0682 Y3.2467
G1 X2.0133 Y3.2467
G1 X1.8373 Y3.2467
G1 X1.6613 Y3.2467
G1 X1.5721 Y3.2467
G1 X1.4817 Y3.2467
G3 X1.3567 Y3.1217 I0 J-0.125
G1 X1.3567 Y2.9424
G1 X1.3567 Y2.7651
G1 X1.3567 Y2.5866
G1 X1.3567 Y2.5289
G1 X1.299 Y2.5289
G1 X1.2101 Y2.5289
G1 X1.1227 Y2.5289
G1 X1.0365 Y2.5289
G1 X0.9516 Y2.5289
G1 X0.7846 Y2.5289
G3 X0.6596 Y2.4039 I0 J-0.125
G1 X0.6596 Y2.2241
G1 X0.6596 Y2.046
G1 X0.6596 Y1.8691
G1 X0.6596 Y1.6932
G1 X0.6596 Y1.3433
G1 X0.6596 Y0.994
G3 X0.7846 Y0.869 I0.125 J0
G1 X0.9623 Y0.869
G1 X1.139 Y0.869
G1 X1.4915 Y0.869
G1 X1.8451 Y0.869
G1 X2.0233 Y0.869
G1 X2.2031 Y0.869
G3 X2.3281 Y0.994 I0 J0.125
G1 X2.3281 Y1.1709
G1 X2.3281 Y1.3471
G1 X2.3281 Y1.5251
G1 X2.3281 Y1.5827
G1 X2.386 Y1.5827
G1 X2.5646 Y1.5827
G1 X2.7419 Y1.5827
G1 X2.9209 Y1.5827
G3 X3.0459 Y1.7077 I0 J0.125
G1 X3.0459 Y1.7984
G1 X3.0459 Y1.8876
G1 X3.0459 Y2.0637
G1 X3.0459 Y2.2396
G1 X3.0459 Y2.2942
G1 X3.1 Y2.2942
G1 X3.2767 Y2.2942
G1 X3.4534 Y2.2942
G1 X3.6324 Y2.2942
G3 X3.7574 Y2.4192 I0 J0.125
G1 X3.7574 Y2.5098
G1 X3.7574 Y2.599
G1 X3.7574 Y2.7751
G1 X3.7574 Y2.9511
G1 X3.7574 Y3.0057
G1 X3.8115 Y3.0057
G1 X3.9889 Y3.0057
G1 X4.1446 Y3.0057
G1 X4.1674 Y3.0057
G1 X4.2581 Y3.0057
G1 X4.3502 Y3.0057
G3 X4.4752 Y3.1307 I0 J0.125
G1 X4.4752 Y3.2229
G1 X4.4752 Y3.2288
G1 X4.4752 Y3.3136
G1 X4.4752 Y3.4922
G1 X4.4752 Y3.6695
G1 X4.4752 Y3.7236
G1 X4.53 Y3.7236
G1 X4.7061 Y3.7236
G1 X4.8821 Y3.7236
G1 X4.9712 Y3.7236
G1 X5.0617 Y3.7236
G3 X5.1867 Y3.8486 I0 J0.125
G1 X5.1867 Y4.0278
G1 X5.1867 Y4.2052
G1 X5.1867 Y4.3837
G1 X5.1867 Y4.4414
G1 X5.2446 Y4.4414
G1 X5.4232 Y4.4414
G1 X5.6005 Y4.4414
G1 X5.7795 Y4.4414
G3 X5.9045 Y4.5664 I0 J0.125
G1 X5.9045 Y4.657
G1 X5.9045 Y4.7462
G1 X5.9045 Y4.9223
G1 X5.9045 Y5.0983
G1 X5.9045 Y5.1529
G1 X5.9587 Y5.1529
G1 X6.1354 Y5.1529
G1 X6.312 Y5.1529
G1 X6.491 Y5.1529
G3 X6.616 Y5.2779 I0 J0.125
G1 X6.616 Y5.3685
G1 X6.616 Y5.4576
G1 X6.616 Y5.6337
G1 X6.616 Y5.8097
G1 X6.616 Y5.8644
G1 X6.6702 Y5.8644
G1 X6.8476 Y5.8644
G1 X7.0261 Y5.8644
G1 X7.1167 Y5.8644
G1 X7.2088 Y5.8644
G3 X7.3338 Y5.9894 I0 J0.125
G1 X7.3338 Y6.0815
G1 X7.3338 Y6.1723
G1 X7.3338 Y6.3508
G1 X7.3338 Y6.5281
G1 X7.3338 Y6.5822
G1 X7.3886 Y6.5822
G1 X7.5647 Y6.5822
G1 X7.7407 Y6.5822
G1 X7.8298 Y6.5822
G1 X7.9203 Y6.5822
G3 X8.0453 Y6.7072 I0 J0.125
G1 X8.0453 Y6.7972
G1 X8.0453 Y6.8863
G1 X8.0453 Y7.063
G1 X8.0453 Y7.2395
G1 X8.0453 Y7.2935
G1 X8.1041 Y7.2935
G1 X8.1938 Y7.2935
G1 X8.2824 Y7.2935
G1 X8.457 Y7.2935
G1 X8.5091 Y7.2935
G1 X8.5091 Y6.7027
G1 X8.5091 Y5.9906
G1 X8.5091 Y5.2766
G1 X8.5091 Y4.5596
G3 X8.6341 Y4.4346 I0.125 J0
G1 X8.7272 Y4.4346
G1 X8.8187 Y4.4346
G1 X8.9086 Y4.4346
G1 X8.9973 Y4.4346
G1 X9.1719 Y4.4346
G1 X9.2238 Y4.4346
G1 X9.2238 Y3.856
G3 X9.3488 Y3.731 I0.125 J0
G1 X9.441 Y3.731
G1 X9.5316 Y3.731
G1 X9.6209 Y3.731
G1 X9.7092 Y3.731
G1 X9.8844 Y3.731
G1 X10.0598 Y3.731
G3 X10.1848 Y3.856 I0 J0.125
G1 X10.1848 Y3.9459
G1 X10.1848 Y4.0348
G1 X10.1848 Y4.2102
G1 X10.1848 Y4.3832
G1 X10.1848 Y4.4346
G1 X10.7638 Y4.4346
G3 X10.8888 Y4.5596 I0 J0.125
G1 X10.8888 Y5.0092
G1 X10.8888 Y5.4571
G1 X10.8888 Y5.9036
G1 X10.8888 Y6.3491
G1 X10.8888 Y7.2388
G1 Z-0.3 F30
G1 X10.8888 Y7.7388 F20
G1 X10.8888 Y8.1292
G3 X10.7638 Y8.2542 I-0.125 J0
G1 X10.5851 Y8.2542
G1 X10.4096 Y8.2542
G1 X10.2363 Y8.2542
G1 X10.1845 Y8.2542
G1 X10.1845 Y8.6659
G1 X10.1845 Y9.1994
G1 X10.1845 Y9.7347
G1 X10.1845 Y10.273
G3 X10.0595 Y10.398 I-0.125 J0
G1 X9.7873 Y10.398
G1 X9.5171 Y10.398
G1 X9.2484 Y10.398
G1 X8.9811 Y10.398
G1 X8.4495 Y10.398
G1 X8.0407 Y10.398
G1 X8.0407 Y10.9774
G3 X7.9157 Y11.1024 I-0.125 J0
G1 X7.466 Y11.1024
G1 X7.0182 Y11.1024
G1 X6.5716 Y11.1024
G1 X6.1261 Y11.1024
G1 X5.2364 Y11.1024
G1 X4.3461 Y11.1024
G3 X4.2211 Y10.9774 I0 J-0.125
G1 X4.2211 Y10.7987
G1 X4.2211 Y10.6232
G1 X4.2211 Y10.4498
G1 X4.2211 Y10.3983
G1 X3.6425 Y10.3983
G3 X3.5175 Y10.2733 I0 J-0.125
G1 X3.5175 Y10.181
G1 X3.5175 Y10.0904
G1 X3.5175 Y10.0692
G1 X3.5175 Y10.0012
G1 X3.5175 Y9.9128
G1 X3.5175 Y9.7377
G1 X3.5175 Y9.5692
G1 X3.5175 Y9.5623
G3 X3.6425 Y9.4373 I0.125 J0
G1 X3.7324 Y9.4373
G1 X3.8214 Y9.4373
G1 X3.9967 Y9.4373
G1 X4.1697 Y9.4373
G1 X4.2211 Y9.4373
G1 X4.2211 Y9.3823
G1 X4.2211 Y9.2059
G1 X4.2211 Y9.0279
G1 X4.2211 Y8.8475
G3 X4.3461 Y8.7225 I0.125 J0
G1 X5.0595 Y8.7225
G1 X5.7715 Y8.7225
G1 X6.4844 Y8.7225
G1 X6.8419 Y8.7225
G1 X7.08 Y8.7225
G1 X7.08 Y8.6672
G1 X7.08 Y8.4894
G1 X7.08 Y8.3992
G1 X7.08 Y8.3079
G1 X7.08 Y8.2462
G1 X7.0185 Y8.2462
G1 X6.9278 Y8.2462
G1 X6.8381 Y8.2462
G1 X6.6601 Y8.2462
G1 X6.4811 Y8.2462
G3 X6.3561 Y8.1212 I0 J-0.125
G1 X6.3561 Y8.0305
G1 X6.3561 Y7.9413
G1 X6.3561 Y7.7652
G1 X6.3561 Y7.5893
G1 X6.3561 Y7.5347
G1 X6.3019 Y7.5347
G1 X6.1252 Y7.5347
G1 X5.9485 Y7.5347
G1 X5.7696 Y7.5347
G3 X5.6446 Y7.4097 I0 J-0.125
G1 X5.6446 Y7.3191
G1 X5.6446 Y7.2299
G1 X5.6446 Y7.0538
G1 X5.6446 Y6.8778
G1 X5.6446 Y6.8232
G1 X5.5904 Y6.8232
G1 X5.413 Y6.8232
G1 X5.2345 Y6.8232
G1 X5.1439 Y6.8232
G1 X5.0518 Y6.8232
G3 X4.9268 Y6.6982 I0 J-0.125
G1 X4.9268 Y6.606
G1 X4.9268 Y6.5152
G1 X4.9268 Y6.3366
G1 X4.9268 Y6.1593
G1 X4.9268 Y6.1053
G1 X4.872 Y6.1053
G1 X4.6959 Y6.1053
G1 X4.5199 Y6.1053
G1 X4.4308 Y6.1053
G1 X4.3403 Y6.1053
G3 X4.2153 Y5.9803 I0 J-0.125
G1 X4.2153 Y5.8011
G1 X4.2153 Y5.6237
G1 X4.2153 Y5.4452
G1 X4.2153 Y5.3875
G1 X4.1573 Y5.3875
G1 X3.9787 Y5.3875
G1 X3.8014 Y5.3875
G1 X3.6225 Y5.3875
G3 X3.4975 Y5.2625 I0 J-0.125
G1 X3.4975 Y5.1719
G1 X3.4975 Y5.0827
G1 X3.4975 Y4.9066
G1 X3.4975 Y4.8386
G1 X3.4975 Y4.7306
G1 X3.4975 Y4.676
G1 X3.4433 Y4.676
G1 X3.2666 Y4.676
G1 X3.16 Y4.676
G1 X3.09 Y4.676
G1 X2.911 Y4.676
G3 X2.786 Y4.551 I0 J-0.125
G1 X2.786 Y4.4605
G1 X2.786 Y4.3713
G1 X2.786 Y4.1952
G1 X2.786 Y4.0192
G1 X2.786 Y3.9645
G1 X2.7317 Y3.9645
G1 X2.5544 Y3.9645
G1 X2.3758 Y3.9645
G1 X2.2852 Y3.9645
G1 X2.1932 Y3.9645
G3 X2.0682 Y3.8395 I0 J-0.125
G1 X2.0682 Y3.7474
G1 X2.0682 Y3.6566
G1 X2.0682 Y3.478
G1 X2.0682 Y3.3007
G1 X2.0682 Y3.2467
G1 X2.0133 Y3.2467
G1 X1.8373 Y3.2467
G1 X1.6613 Y3.2467
G1 X1.5721 Y3.2467
G1 X1.4817 Y3.2467
G3 X1.3567 Y3.1217 I0 J-0.125
G1 X1.3567 Y2.9424
G1 X1.3567 Y2.7651
G1 X1.3567 Y2.5866
G1 X1.3567 Y2.5289
G1 X1.299 Y2.5289
G1 X1.2101 Y2.5289
G1 X1.1227 Y2.5289
G1 X1.0365 Y2.5289
G1 X0.9516 Y2.5289
G1 X0.7846 Y2.5289
G3 X0.6596 Y2.4039 I0 J-0.125
G1 X0.6596 Y2.2241
G1 X0.6596 Y2.046
G1 X0.6596 Y1.8691
G1 X0.6596 Y1.6932
G1 X0.6596 Y1.3433
G1 X0.6596 Y0.994
G3 X0.7846 Y0.869 I0.125 J0
G1 X0.9623 Y0.869
G1 X1.139 Y0.869
G1 X1.4915 Y0.869
G1 X1.8451 Y0.869
G1 X2.0233 Y0.869
G1 X2.2031 Y0.869
G3 X2.3281 Y0.994 I0 J0.125
G1 X2.3281 Y1.1709
G1 X2.3281 Y1.3471
G1 X2.3281 Y1.5251
G1 X2.3281 Y1.5827
G1 X2.386 Y1.5827
G1 X2.5646 Y1.5827
G1 X2.7419 Y1.5827
G1 X2.9209 Y1.5827
G3 X3.0459 Y1.7077 I0 J0.125
G1 X3.0459 Y1.7984
G1 X3.0459 Y1.8876
G1 X3.0459 Y2.0637
G1 X3.0459 Y2.2396
G1 X3.0459 Y2.2942
G1 X3.1 Y2.2942
G1 X3.2767 Y2.2942
G1 X3.4534 Y2.2942
G1 X3.6324 Y2.2942
G3 X3.7574 Y2.4192 I0 J0.125
G1 X3.7574 Y2.5098
G1 X3.7574 Y2.599
G1 X3.7574 Y2.7751
G1 X3.7574 Y2.9511
G1 X3.7574 Y3.0057
G1 X3.8115 Y3.0057
G1 X3.9889 Y3.0057
G1 X4.1446 Y3.0057
G1 X4.1674 Y3.0057
G1 X4.2581 Y3.0057
G1 X4.3502 Y3.0057
G3 X4.4752 Y3.1307 I0 J0.125
G1 X4.4752 Y3.2229
G1 X4.4752 Y3.2288
G1 X4.4752 Y3.3136
G1 X4.4752 Y3.4922
G1 X4.4752 Y3.6695
G1 X4.4752 Y3.7236
G1 X4.53 Y3.7236
G1 X4.7061 Y3.7236
G1 X4.8821 Y3.7236
G1 X4.9712 Y3.7236
G1 X5.0617 Y3.7236
G3 X5.1867 Y3.8486 I0 J0.125
G1 X5.1867 Y4.0278
G1 X5.1867 Y4.2052
G1 X5.1867 Y4.3837
G1 X5.1867 Y4.4414
G1 X5.2446 Y4.4414
G1 X5.4232 Y4.4414
G1 X5.6005 Y4.4414
G1 X5.7795 Y4.4414
G3 X5.9045 Y4.5664 I0 J0.125
G1 X5.9045 Y4.657
G1 X5.9045 Y4.7462
G1 X5.9045 Y4.9223
G1 X5.9045 Y5.0983
G1 X5.9045 Y5.1529
G1 X5.9587 Y5.1529
G1 X6.1354 Y5.1529
G1 X6.312 Y5.1529
G1 X6.491 Y5.1529
G3 X6.616 Y5.2779 I0 J0.125
G1 X6.616 Y5.3685
G1 X6.616 Y5.4576
G1 X6.616 Y5.6337
G1 X6.616 Y5.8097
G1 X6.616 Y5.8644
G1 X6.6702 Y5.8644
G1 X6.8476 Y5.8644
G1 X7.0261 Y5.8644
G1 X7.1167 Y5.8644
G1 X7.2088 Y5.8644
G3 X7.3338 Y5.9894 I0 J0.125
G1 X7.3338 Y6.0815
G1 X7.3338 Y6.1723
G1 X7.3338 Y6.3508
G1 X7.3338 Y6.5281
G1 X7.3338 Y6.5822
G1 X7.3886 Y6.5822
G1 X7.5647 Y6.5822
G1 X7.7407 Y6.5822
G1 X7.8298 Y6.5822
G1 X7.9203 Y6.5822
G3 X8.0453 Y6.7072 I0 J0.125
G1 X8.0453 Y6.7972
G1 X8.0453 Y6.8863
G1 X8.0453 Y7.063
G1 X8.0453 Y7.2395
G1 X8.0453 Y7.2935
G1 X8.1041 Y7.2935
G1 X8.1938 Y7.2935
G1 X8.2824 Y7.2935
G1 X8.457 Y7.2935
G1 X8.5091 Y7.2935
G1 X8.5091 Y6.7027
G1 X8.5091 Y5.9906
G1 X8.5091 Y5.2766
G1 X8.5091 Y4.5596
G3 X8.6341 Y4.4346 I0.125 J0
G1 X8.7272 Y4.4346
G1 X8.8187 Y4.4346
G1 X8.9086 Y4.4346
G1 X8.9973 Y4.4346
G1 X9.1719 Y4.4346
G1 X9.2238 Y4.4346
G1 X9.2238 Y3.856
G3 X9.3488 Y3.731 I0.125 J0
G1 X9.441 Y3.731
G1 X9.5316 Y3.731
G1 X9.6209 Y3.731
G1 X9.7092 Y3.731
G1 X9.8844 Y3.731
G1 X10.0598 Y3.731
G3 X10.1848 Y3.856 I0 J0.125
G1 X10.1848 Y3.9459
G1 X10.1848 Y4.0348
G1 X10.1848 Y4.2102
G1 X10.1848 Y4.3832
G1 X10.1848 Y4.4346
G1 X10.7638 Y4.4346
G3 X10.8888 Y4.5596 I0 J0.125
G1 X10.8888 Y5.0092
G1 X10.8888 Y5.4571
G1 X10.8888 Y5.9036
G1 X10.8888 Y6.3491
G1 X10.8888 Y7.2388
G1 Z-0.45 F30
G1 X10.8888 Y7.7388 F20
G1 X10.8888 Y8.1292
G3 X10.7638 Y8.2542 I-0.125 J0
G1 X10.5851 Y8.2542
G1 X10.4096 Y8.2542
G1 X10.2363 Y8.2542
G1 X10.1845 Y8.2542
G1 X10.1845 Y8.6659
G1 X10.1845 Y9.1994
G1 X10.1845 Y9.7347
G1 X10.1845 Y10.273
G3 X10.0595 Y10.398 I-0.125 J0
G1 X9.7873 Y10.398
G1 X9.5171 Y10.398
G1 X9.2484 Y10.398
G1 X8.9811 Y10.398
G1 X8.4495 Y10.398
G1 X8.0407 Y10.398
G1 X8.0407 Y10.9774
G3 X7.9157 Y11.1024 I-0.125 J0
G1 X7.466 Y11.1024
G1 X7.0182 Y11.1024
G1 X6.5716 Y11.1024
G1 X6.1261 Y11.1024
G1 X5.2364 Y11.1024
G1 X4.3461 Y11.1024
G3 X4.2211 Y10.9774 I0 J-0.125
G1 X4.2211 Y10.7987
G1 X4.2211 Y10.6232
G1 X4.2211 Y10.4498
G1 X4.2211 Y10.3983
G1 X3.6425 Y10.3983
G3 X3.5175 Y10.2733 I0 J-0.125
G1 X3.5175 Y10.181
G1 X3.5175 Y10.0904
G1 X3.5175 Y10.0692
G1 X3.5175 Y10.0012
G1 X3.5175 Y9.9128
G1 X3.5175 Y9.7377
G1 X3.5175 Y9.5692
G1 X3.5175 Y9.5623
G3 X3.6425 Y9.4373 I0.125 J0
G1 X3.7324 Y9.4373
G1 X3.8214 Y9.4373
G1 X3.9967 Y9.4373
G1 X4.1697 Y9.4373
G1 X4.2211 Y9.4373
G1 X4.2211 Y9.3823
G1 X4.2211 Y9.2059
G1 X4.2211 Y9.0279
G1 X4.2211 Y8.8475
G3 X4.3461 Y8.7225 I0.125 J0
G1 X5.0595 Y8.7225
G1 X5.7715 Y8.7225
G1 X6.4844 Y8.7225
G1 X6.8419 Y8.7225
G1 X7.08 Y8.7225
G1 X7.08 Y8.6672
G1 X7.08 Y8.4894
G1 X7.08 Y8.3992
G1 X7.08 Y8.3079
G1 X7.08 Y8.2462
G1 X7.0185 Y8.2462
G1 X6.9278 Y8.2462
G1 X6.8381 Y8.2462
G1 X6.6601 Y8.2462
G1 X6.4811 Y8.2462
G3 X6.3561 Y8.1212 I0 J-0.125
G1 X6.3561 Y8.0305
G1 X6.3561 Y7.9413
G1 X6.3561 Y7.7652
G1 X6.3561 Y7.5893
G1 X6.3561 Y7.5347
G1 X6.3019 Y7.5347
G1 X6.1252 Y7.5347
G1 X5.9485 Y7.5347
G1 X5.7696 Y7.5347
G3 X5.6446 Y7.4097 I0 J-0.125
G1 X5.6446 Y7.3191
G1 X5.6446 Y7.2299
G1 X5.6446 Y7.0538
G1 X5.6446 Y6.8778
G1 X5.6446 Y6.8232
G1 X5.5904 Y6.8232
G1 X5.413 Y6.8232
G1 X5.2345 Y6.8232
G1 X5.1439 Y6.8232
G1 X5.0518 Y6.8232
G3 X4.9268 Y6.6982 I0 J-0.125
G1 X4.9268 Y6.606
G1 X4.9268 Y6.5152
G1 X4.9268 Y6.3366
G1 X4.9268 Y6.1593
G1 X4.9268 Y6.1053
G1 X4.872 Y6.1053
G1 X4.6959 Y6.1053
G1 X4.5199 Y6.1053
G1 X4.4308 Y6.1053
G1 X4.3403 Y6.1053
G3 X4.2153 Y5.9803 I0 J-0.125
G1 X4.2153 Y5.8011
G1 X4.2153 Y5.6237
G1 X4.2153 Y5.4452
G1 X4.2153 Y5.3875
G1 X4.1573 Y5.3875
G1 X3.9787 Y5.3875
G1 X3.8014 Y5.3875
G1 X3.6225 Y5.3875
G3 X3.4975 Y5.2625 I0 J-0.125
G1 X3.4975 Y5.1719
G1 X3.4975 Y5.0827
G1 X3.4975 Y4.9066
G1 X3.4975 Y4.8386
G1 X3.4975 Y4.7306
G1 X3.4975 Y4.676
G1 X3.4433 Y4.676
G1 X3.2666 Y4.676
G1 X3.16 Y4.676
G1 X3.09 Y4.676
G1 X2.911 Y4.676
G3 X2.786 Y4.551 I0 J-0.125
G1 X2.786 Y4.4605
G1 X2.786 Y4.3713
G1 X2.786 Y4.1952
G1 X2.786 Y4.0192
G1 X2.786 Y3.9645
G1 X2.7317 Y3.9645
G1 X2.5544 Y3.9645
G1 X2.3758 Y3.9645
G1 X2.2852 Y3.9645
G1 X2.1932 Y3.9645
G3 X2.0682 Y3.8395 I0 J-0.125
G1 X2.0682 Y3.7474
G1 X2.0682 Y3.6566
G1 X2.0682 Y3.478
G1 X2.0682 Y3.3007
G1 X2.0682 Y3.2467
G1 X2.0133 Y3.2467
G1 X1.8373 Y3.2467
G1 X1.6613 Y3.2467
G1 X1.5721 Y3.2467
G1 X1.4817 Y3.2467
G3 X1.3567 Y3.1217 I0 J-0.125
G1 X1.3567 Y2.9424
G1 X1.3567 Y2.7651
G1 X1.3567 Y2.5866
G1 X1.3567 Y2.5289
G1 X1.299 Y2.5289
G1 X1.2101 Y2.5289
G1 X1.1227 Y2.5289
G1 X1.0365 Y2.5289
G1 X0.9516 Y2.5289
G1 X0.7846 Y2.5289
G3 X0.6596 Y2.4039 I0 J-0.125
G1 X0.6596 Y2.2241
G1 X0.6596 Y2.046
G1 X0.6596 Y1.8691
G1 X0.6596 Y1.6932
G1 X0.6596 Y1.3433
G1 X0.6596 Y0.994
G3 X0.7846 Y0.869 I0.125 J0
G1 X0.9623 Y0.869
G1 X1.139 Y0.869
G1 X1.4915 Y0.869
G1 X1.8451 Y0.869
G1 X2.0233 Y0.869
G1 X2.2031 Y0.869
G3 X2.3281 Y0.994 I0 J0.125
G1 X2.3281 Y1.1709
G1 X2.3281 Y1.3471
G1 X2.3281 Y1.5251
G1 X2.3281 Y1.5827
G1 X2.386 Y1.5827
G1 X2.5646 Y1.5827
G1 X2.7419 Y1.5827
G1 X2.9209 Y1.5827
G3 X3.0459 Y1.7077 I0 J0.125
G1 X3.0459 Y1.7984
G1 X3.0459 Y1.8876
G1 X3.0459 Y2.0637
G1 X3.0459 Y2.2396
G1 X3.0459 Y2.2942
G1 X3.1 Y2.2942
G1 X3.2767 Y2.2942
G1 X3.4534 Y2.2942
G1 X3.6324 Y2.2942
G3 X3.7574 Y2.4192 I0 J0.125
G1 X3.7574 Y2.5098
G1 X3.7574 Y2.599
G1 X3.7574 Y2.7751
G1 X3.7574 Y2.9511
G1 X3.7574 Y3.0057
G1 X3.8115 Y3.0057
G1 X3.9889 Y3.0057
G1 X4.1446 Y3.0057
G1 X4.1674 Y3.0057
G1 X4.2581 Y3.0057
G1 X4.3502 Y3.0057
G3 X4.4752 Y3.1307 I0 J0.125
G1 X4.4752 Y3.2229
G1 X4.4752 Y3.2288
G1 X4.4752 Y3.3136
G1 X4.4752 Y3.4922
G1 X4.4752 Y3.6695
G1 X4.4752 Y3.7236
G1 X4.53 Y3.7236
G1 X4.7061 Y3.7236
G1 X4.8821 Y3.7236
G1 X4.9712 Y3.7236
G1 X5.0617 Y3.7236
G3 X5.1867 Y3.8486 I0 J0.125
G1 X5.1867 Y4.0278
G1 X5.1867 Y4.2052
G1 X5.1867 Y4.3837
G1 X5.1867 Y4.4414
G1 X5.2446 Y4.4414
G1 X5.4232 Y4.4414
G1 X5.6005 Y4.4414
G1 X5.7795 Y4.4414
G3 X5.9045 Y4.5664 I0 J0.125
G1 X5.9045 Y4.657
G1 X5.9045 Y4.7462
G1 X5.9045 Y4.9223
G1 X5.9045 Y5.0983
G1 X5.9045 Y5.1529
G1 X5.9587 Y5.1529
G1 X6.1354 Y5.1529
G1 X6.312 Y5.1529
G1 X6.491 Y5.1529
G3 X6.616 Y5.2779 I0 J0.125
G1 X6.616 Y5.3685
G1 X6.616 Y5.4576
G1 X6.616 Y5.6337
G1 X6.616 Y5.8097
G1 X6.616 Y5.8644
G1 X6.6702 Y5.8644
G1 X6.8476 Y5.8644
G1 X7.0261 Y5.8644
G1 X7.1167 Y5.8644
G1 X7.2088 Y5.8644
G3 X7.3338 Y5.9894 I0 J0.125
G1 X7.3338 Y6.0815
G1 X7.3338 Y6.1723
G1 X7.3338 Y6.3508
G1 X7.3338 Y6.5281
G1 X7.3338 Y6.5822
G1 X7.3886 Y6.5822
G1 X7.5647 Y6.5822
G1 X7.7407 Y6.5822
G1 X7.8298 Y6.5822
G1 X7.9203 Y6.5822
G3 X8.0453 Y6.7072 I0 J0.125
G1 X8.0453 Y6.7972
G1 X8.0453 Y6.8863
G1 X8.0453 Y7.063
G1 X8.0453 Y7.2395
G1 X8.0453 Y7.2935
G1 X8.1041 Y7.2935
G1 X8.1938 Y7.2935
G1 X8.2824 Y7.2935
G1 X8.457 Y7.2935
G1 X8.5091 Y7.2935
G1 X8.5091 Y6.7027
G1 X8.5091 Y5.9906
G1 X8.5091 Y5.2766
G1 X8.5091 Y4.5596
G3 X8.6341 Y4.4346 I0.125 J0
G1 X8.7272 Y4.4346
G1 X8.8187 Y4.4346
G1 X8.9086 Y4.4346
G1 X8.9973 Y4.4346
G1 X9.1719 Y4.4346
G1 X9.2238 Y4.4346
G1 X9.2238 Y3.856
G3 X9.3488 Y3.731 I0.125 J0
G1 X9.441 Y3.731
G1 X9.5316 Y3.731
G1 X9.6209 Y3.731
G1 X9.7092 Y3.731
G1 X9.8844 Y3.731
G1 X10.0598 Y3.731
G3 X10.1848 Y3.856 I0 J0.125
G1 X10.1848 Y3.9459
G1 X10.1848 Y4.0348
G1 X10.1848 Y4.2102
G1 X10.1848 Y4.3832
G1 X10.1848 Y4.4346
G1 X10.7638 Y4.4346
G3 X10.8888 Y4.5596 I0 J0.125
G1 X10.8888 Y5.0092
G1 X10.8888 Y5.4571
G1 X10.8888 Y5.9036
G1 X10.8888 Y6.3491
G1 X10.8888 Y7.2388
G1 Z-0.6 F30
G1 Z-0.5 F30
G1 X10.8888 Y7.7388 F20
G1 Z-0.6 F30
G1 X10.8888 Y8.1292 F20
G3 X10.7638 Y8.2542 I-0.125 J0
G1 X10.5851 Y8.2542
G1 X10.4096 Y8.2542
G1 X10.2363 Y8.2542
G1 X10.1845 Y8.2542
G1 X10.1845 Y8.6659
G1 X10.1845 Y9.1994
G1 X10.1845 Y9.7347
G1 X10.1845 Y10.273
G3 X10.0595 Y10.398 I-0.125 J0
G1 X9.7873 Y10.398
G1 X9.5171 Y10.398
G1 X9.2484 Y10.398
G1 X8.9811 Y10.398
G1 X8.4495 Y10.398
G1 X8.0407 Y10.398
G1 X8.0407 Y10.9774
G3 X7.9157 Y11.1024 I-0.125 J0
G1 X7.466 Y11.1024
G1 X7.0182 Y11.1024
G1 X6.5716 Y11.1024
G1 X6.1261 Y11.1024
G1 X5.2364 Y11.1024
G1 X4.3461 Y11.1024
G3 X4.2211 Y10.9774 I0 J-0.125
G1 X4.2211 Y10.7987
G1 X4.2211 Y10.6232
G1 X4.2211 Y10.4498
G1 X4.2211 Y10.3983
G1 X3.6425 Y10.3983
G3 X3.5175 Y10.2733 I0 J-0.125
G1 X3.5175 Y10.181
G1 X3.5175 Y10.0904
G1 X3.5175 Y10.0692
G1 Z-0.5 F30
G1 X3.5175 Y10.0012 F20
G1 X3.5175 Y9.9128
G1 X3.5175 Y9.7377
G1 X3.5175 Y9.5692
G1 Z-0.6 F30
G1 X3.5175 Y9.5623 F20
G3 X3.6425 Y9.4373 I0.125 J0
G1 X3.7324 Y9.4373
G1 X3.8214 Y9.4373
G1 X3.9967 Y9.4373
G1 X4.1697 Y9.4373
G1 X4.2211 Y9.4373
G1 X4.2211 Y9.3823
G1 X4.2211 Y9.2059
G1 X4.2211 Y9.0279
G1 X4.2211 Y8.8475
G3 X4.3461 Y8.7225 I0.125 J0
G1 X5.0595 Y8.7225
G1 X5.7715 Y8.7225
G1 X6.4844 Y8.7225
G1 X6.8419 Y8.7225
G1 X7.08 Y8.7225
G1 X7.08 Y8.6672
G1 X7.08 Y8.4894
G1 X7.08 Y8.3992
G1 X7.08 Y8.3079
G1 X7.08 Y8.2462
G1 X7.0185 Y8.2462
G1 X6.9278 Y8.2462
G1 X6.8381 Y8.2462
G1 X6.6601 Y8.2462
G1 X6.4811 Y8.2462
G3 X6.3561 Y8.1212 I0 J-0.125
G1 X6.3561 Y8.0305
G1 X6.3561 Y7.9413
G1 X6.3561 Y7.7652
G1 X6.3561 Y7.5893
G1 X6.3561 Y7.5347
G1 X6.3019 Y7.5347
G1 X6.1252 Y7.5347
G1 X5.9485 Y7.5347
G1 X5.7696 Y7.5347
G3 X5.6446 Y7.4097 I0 J-0.125
G1 X5.6446 Y7.3191
G1 X5.6446 Y7.2299
G1 X5.6446 Y7.0538
G1 X5.6446 Y6.8778
G1 X5.6446 Y6.8232
G1 X5.5904 Y6.8232
G1 X5.413 Y6.8232
G1 X5.2345 Y6.8232
G1 X5.1439 Y6.8232
G1 X5.0518 Y6.8232
G3 X4.9268 Y6.6982 I0 J-0.125
G1 X4.9268 Y6.606
G1 X4.9268 Y6.5152
G1 X4.9268 Y6.3366
G1 X4.9268 Y6.1593
G1 X4.9268 Y6.1053
G1 X4.872 Y6.1053
G1 X4.6959 Y6.1053
G1 X4.5199 Y6.1053
G1 X4.4308 Y6.1053
G1 X4.3403 Y6.1053
G3 X4.2153 Y5.9803 I0 J-0.125
G1 X4.2153 Y5.8011
G1 X4.2153 Y5.6237
G1 X4.2153 Y5.4452
G1 X4.2153 Y5.3875
G1 X4.1573 Y5.3875
G1 X3.9787 Y5.3875
G1 X3.8014 Y5.3875
G1 X3.6225 Y5.3875
G3 X3.4975 Y5.2625 I0 J-0.125
G1 X3.4975 Y5.1719
G1 X3.4975 Y5.0827
G1 X3.4975 Y4.9066
G1 X3.4975 Y4.8386
G1 Z-0.5 F30
G1 X3.4975 Y4.7306 F20
G1 X3.4975 Y4.676
G1 X3.4433 Y4.676
G1 X3.2666 Y4.676
G1 X3.16 Y4.676
G1 Z-0.6 F30
G1 X3.09 Y4.676 F20
G1 X2.911 Y4.676
G3 X2.786 Y4.551 I0 J-0.125
G1 X2.786 Y4.4605
G1 X2.786 Y4.3713
G1 X2.786 Y4.1952
G1 X2.786 Y4.0192
G1 X2.786 Y3.9645
G1 X2.7317 Y3.9645
G1 X2.5544 Y3.9645
G1 X2.3758 Y3.9645
G1 X2.2852 Y3.9645
G1 X2.1932 Y3.9645
G3 X2.0682 Y3.8395 I0 J-0.125
G1 X2.0682 Y3.7474
G1 X2.0682 Y3.6566
G1 X2.0682 Y3.478
G1 X2.0682 Y3.3007
G1 X2.0682 Y3.2467
G1 X2.0133 Y3.2467
G1 X1.8373 Y3.2467
G1 X1.6613 Y3.2467
G1 X1.5721 Y3.2467
G1 X1.4817 Y3.2467
G3 X1.3567 Y3.1217 I0 J-0.125
G1 X1.3567 Y2.9424
G1 X1.3567 Y2.7651
G1 X1.3567 Y2.5866
G1 X1.3567 Y2.5289
G1 X1.299 Y2.5289
G1 X1.2101 Y2.5289
G1 X1.1227 Y2.5289
G1 X1.0365 Y2.5289
G1 X0.9516 Y2.5289
G1 X0.7846 Y2.5289
G3 X0.6596 Y2.4039 I0 J-0.125
G1 X0.6596 Y2.2241
G1 X0.6596 Y2.046
G1 X0.6596 Y1.8691
G1 X0.6596 Y1.6932
G1 X0.6596 Y1.3433
G1 X0.6596 Y0.994
G3 X0.7846 Y0.869 I0.125 J0
G1 X0.9623 Y0.869
G1 X1.139 Y0.869
G1 X1.4915 Y0.869
G1 X1.8451 Y0.869
G1 X2.0233 Y0.869
G1 X2.2031 Y0.869
G3 X2.3281 Y0.994 I0 J0.125
G1 X2.3281 Y1.1709
G1 X2.3281 Y1.3471
G1 X2.3281 Y1.5251
G1 X2.3281 Y1.5827
G1 X2.386 Y1.5827
G1 X2.5646 Y1.5827
G1 X2.7419 Y1.5827
G1 X2.9209 Y1.5827
G3 X3.0459 Y1.7077 I0 J0.125
G1 X3.0459 Y1.7984
G1 X3.0459 Y1.8876
G1 X3.0459 Y2.0637
G1 X3.0459 Y2.2396
G1 X3.0459 Y2.2942
G1 X3.1 Y2.2942
G1 X3.2767 Y2.2942
G1 X3.4534 Y2.2942
G1 X3.6324 Y2.2942
G3 X3.7574 Y2.4192 I0 J0.125
G1 X3.7574 Y2.5098
G1 X3.7574 Y2.599
G1 X3.7574 Y2.7751
G1 X3.7574 Y2.9511
G1 X3.7574 Y3.0057
G1 X3.8115 Y3.0057
G1 X3.9889 Y3.0057
G1 X4.1446 Y3.0057
G1 Z-0.5 F30
G1 X4.1674 Y3.0057 F20
G1 X4.2581 Y3.0057
G1 X4.3502 Y3.0057
G3 X4.4752 Y3.1307 I0 J0.125
G1 X4.4752 Y3.2229
G1 X4.4752 Y3.2288
G1 Z-0.6 F30
G1 X4.4752 Y3.3136 F20
G1 X4.4752 Y3.4922
G1 X4.4752 Y3.6695
G1 X4.4752 Y3.7236
G1 X4.53 Y3.7236
G1 X4.7061 Y3.7236
G1 X4.8821 Y3.7236
G1 X4.9712 Y3.7236
G1 X5.0617 Y3.7236
G3 X5.1867 Y3.8486 I0 J0.125
G1 X5.1867 Y4.0278
G1 X5.1867 Y4.2052
G1 X5.1867 Y4.3837
G1 X5.1867 Y4.4414
G1 X5.2446 Y4.4414
G1 X5.4232 Y4.4414
G1 X5.6005 Y4.4414
G1 X5.7795 Y4.4414
G3 X5.9045 Y4.5664 I0 J0.125
G1 X5.9045 Y4.657
G1 X5.9045 Y4.7462
G1 X5.9045 Y4.9223
G1 X5.9045 Y5.0983
G1 X5.9045 Y5.1529
G1 X5.9587 Y5.1529
G1 X6.1354 Y5.1529
G1 X6.312 Y5.1529
G1 X6.491 Y5.1529
G3 X6.616 Y5.2779 I0 J0.125
G1 X6.616 Y5.3685
G1 X6.616 Y5.4576
G1 X6.616 Y5.6337
G1 X6.616 Y5.8097
G1 X6.616 Y5.8644
G1 X6.6702 Y5.8644
G1 X6.8476 Y5.8644
G1 X7.0261 Y5.8644
G1 X7.1167 Y5.8644
G1 X7.2088 Y5.8644
G3 X7.3338 Y5.9894 I0 J0.125
G1 X7.3338 Y6.0815
G1 X7.3338 Y6.1723
G1 X7.3338 Y6.3508
G1 X7.3338 Y6.5281
G1 X7.3338 Y6.5822
G1 X7.3886 Y6.5822
G1 X7.5647 Y6.5822
G1 X7.7407 Y6.5822
G1 X7.8298 Y6.5822
G1 X7.9203 Y6.5822
G3 X8.0453 Y6.7072 I0 J0.125
G1 X8.0453 Y6.7972
G1 X8.0453 Y6.8863
G1 X8.0453 Y7.063
G1 X8.0453 Y7.2395
G1 X8.0453 Y7.2935
G1 X8.1041 Y7.2935
G1 X8.1938 Y7.2935
G1 X8.2824 Y7.2935
G1 X8.457 Y7.2935
G1 X8.5091 Y7.2935
G1 X8.5091 Y6.7027
G1 X8.5091 Y5.9906
G1 X8.5091 Y5.2766
G1 X8.5091 Y4.5596
G3 X8.6341 Y4.4346 I0.125 J0
G1 X8.7272 Y4.4346
G1 X8.8187 Y4.4346
G1 X8.9086 Y4.4346
G1 X8.9973 Y4.4346
G1 X9.1719 Y4.4346
G1 X9.2238 Y4.4346
G1 X9.2238 Y3.856
G3 X9.3488 Y3.731 I0.125 J0
G1 X9.441 Y3.731
G1 X9.5316 Y3.731
G1 X9.6209 Y3.731
G1 X9.7092 Y3.731
G1 X9.8844 Y3.731
G1 X10.0598 Y3.731
G3 X10.1848 Y3.856 I0 J0.125
G1 X10.1848 Y3.9459
G1 X10.1848 Y4.0348
G1 X10.1848 Y4.2102
G1 X10.1848 Y4.3832
G1 X10.1848 Y4.4346
G1 X10.7638 Y4.4346
G3 X10.8888 Y4.5596 I0 J0.125
G1 X10.8888 Y5.0092
G1 X10.8888 Y5.4571
G1 X10.8888 Y5.9036
G1 X10.8888 Y6.3491
G1 X10.8888 Y7.2388
G1 Z-0.75 F30
G1 Z-0.5 F30
G1 X10.8888 Y7.7388 F20
G1 Z-0.75 F30
G1 X10.8888 Y8.1292 F20
G3 X10.7638 Y8.2542 I-0.125 J0
G1 X10.5851 Y8.2542
G1 X10.4096 Y8.2542
G1 X10.2363 Y8.2542
G1 X10.1845 Y8.2542
G1 X10.1845 Y8.6659
G1 X10.1845 Y9.1994
G1 X10.1845 Y9.7347
G1 X10.1845 Y10.273
G3 X10.0595 Y10.398 I-0.125 J0
G1 X9.7873 Y10.398
G1 X9.5171 Y10.398
G1 X9.2484 Y10.398
G1 X8.9811 Y10.398
G1 X8.4495 Y10.398
G1 X8.0407 Y10.398
G1 X8.0407 Y10.9774
G3 X7.9157 Y11.1024 I-0.125 J0
G1 X7.466 Y11.1024
G1 X7.0182 Y11.1024
G1 X6.5716 Y11.1024
G1 X6.1261 Y11.1024
G1 X5.2364 Y11.1024
G1 X4.3461 Y11.1024
G3 X4.2211 Y10.9774 I0 J-0.125
G1 X4.2211 Y10.7987
G1 X4.2211 Y10.6232
G1 X4.2211 Y10.4498
G1 X4.2211 Y10.3983
G1 X3.6425 Y10.3983
G3 X3.5175 Y10.2733 I0 J-0.125
G1 X3.5175 Y10.181
G1 X3.5175 Y10.0904
G1 X3.5175 Y10.0692
G1 Z-0.5 F30
G1 X3.5175 Y10.0012 F20
G1 X3.5175 Y9.9128
G1 X3.5175 Y9.7377
G1 X3.5175 Y9.5692
G1 Z-0.75 F30
G1 X3.5175 Y9.5623 F20
G3 X3.6425 Y9.4373 I0.125 J0
G1 X3.7324 Y9.4373
G1 X3.8214 Y9.4373
G1 X3.9967 Y9.4373
G1 X4.1697 Y9.4373
G1 X4.2211 Y9.4373
G1 X4.2211 Y9.3823
G1 X4.2211 Y9.2059
G1 X4.2211 Y9.0279
G1 X4.2211 Y8.8475
G3 X4.3461 Y8.7225 I0.125 J0
G1 X5.0595 Y8.7225
G1 X5.7715 Y8.7225
G1 X6.4844 Y8.7225
G1 X6.8419 Y8.7225
G1 X7.08 Y8.7225
G1 X7.08 Y8.6672
G1 X7.08 Y8.4894
G1 X7.08 Y8.3992
G1 X7.08 Y8.3079
G1 X7.08 Y8.2462
G1 X7.0185 Y8.2462
G1 X6.9278 Y8.2462
G1 X6.8381 Y8.2462
G1 X6.6601 Y8.2462
G1 X6.4811 Y8.2462
G3 X6.3561 Y8.1212 I0 J-0.125
G1 X6.3561 Y8.0305
G1 X6.3561 Y7.9413
G1 X6.3561 Y7.7652
G1 X6.3561 Y7.5893
G1 X6.3561 Y7.5347
G1 X6.3019 Y7.5347
G1 X6.1252 Y7.5347
G1 X5.9485 Y7.5347
G1 X5.7696 Y7.5347
G3 X5.6446 Y7.4097 I0 J-0.125
G1 X5.6446 Y7.3191
G1 X5.6446 Y7.2299
G1 X5.6446 Y7.0538
G1 X5.6446 Y6.8778
G1 X5.6446 Y6.8232
G1 X5.5904 Y6.8232
G1 X5.413 Y6.8232
G1 X5.2345 Y6.8232
G1 X5.1439 Y6.8232
G1 X5.0518 Y6.8232
G3 X4.9268 Y6.6982 I0 J-0.125
G1 X4.9268 Y6.606
G1 X4.9268 Y6.5152
G1 X4.9268 Y6.3366
G1 X4.9268 Y6.1593
G1 X4.9268 Y6.1053
G1 X4.872 Y6.1053
G1 X4.6959 Y6.1053
G1 X4.5199 Y6.1053
G1 X4.4308 Y6.1053
G1 X4.3403 Y6.1053
G3 X4.2153 Y5.9803 I0 J-0.125
G1 X4.2153 Y5.8011
G1 X4.2153 Y5.6237
G1 X4.2153 Y5.4452
G1 X4.2153 Y5.3875
G1 X4.1573 Y5.3875
G1 X3.9787 Y5.3875
G1 X3.8014 Y5.3875
G1 X3.6225 Y5.3875
G3 X3.4975 Y5.2625 I0 J-0.125
G1 X3.4975 Y5.1719
G1 X3.4975 Y5.0827
G1 X3.4975 Y4.9066
G1 X3.4975 Y4.8386
G1 Z-0.5 F30
G1 X3.4975 Y4.7306 F20
G1 X3.4975 Y4.676
G1 X3.4433 Y4.676
G1 X3.2666 Y4.676
G1 X3.16 Y4.676
G1 Z-0.75 F30
G1 X3.09 Y4.676 F20
G1 X2.911 Y4.676
G3 X2.786 Y4.551 I0 J-0.125
G1 X2.786 Y4.4605
G1 X2.786 Y4.3713
G1 X2.786 Y4.1952
G1 X2.786 Y4.0192
G1 X2.786 Y3.9645
G1 X2.7317 Y3.9645
G1 X2.5544 Y3.9645
G1 X2.3758 Y3.9645
G1 X2.2852 Y3.9645
G1 X2.1932 Y3.9645
G3 X2.0682 Y3.8395 I0 J-0.125
G1 X2.0682 Y3.7474
G1 X2.0682 Y3.6566
G1 X2.0682 Y3.478
G1 X2.0682 Y3.3007
G1 X2.0682 Y3.2467
G1 X2.0133 Y3.2467
G1 X1.8373 Y3.2467
G1 X1.6613 Y3.2467
G1 X1.5721 Y3.2467
G1 X1.4817 Y3.2467
G3 X1.3567 Y3.1217 I0 J-0.125
G1 X1.3567 Y2.9424
G1 X1.3567 Y2.7651
G1 X1.3567 Y2.5866
G1 X1.3567 Y2.5289
G1 X1.299 Y2.5289
G1 X1.2101 Y2.5289
G1 X1.1227 Y2.5289
G1 X1.0365 Y2.5289
G1 X0.9516 Y2.5289
G1 X0.7846 Y2.5289
G3 X0.6596 Y2.4039 I0 J-0.125
G1 X0.6596 Y2.2241
G1 X0.6596 Y2.046
G1 X0.6596 Y1.8691
G1 X0.6596 Y1.6932
G1 X0.6596 Y1.3433
G1 X0.6596 Y0.994
G3 X0.7846 Y0.869 I0.125 J0
G1 X0.9623 Y0.869
G1 X1.139 Y0.869
G1 X1.4915 Y0.869
G1 X1.8451 Y0.869
G1 X2.0233 Y0.869
G1 X2.2031 Y0.869
G3 X2.3281 Y0.994 I0 J0.125
G1 X2.3281 Y1.1709
G1 X2.3281 Y1.3471
G1 X2.3281 Y1.5251
G1 X2.3281 Y1.5827
G1 X2.386 Y1.5827
G1 X2.5646 Y1.5827
G1 X2.7419 Y1.5827
G1 X2.9209 Y1.5827
G3 X3.0459 Y1.7077 I0 J0.125
G1 X3.0459 Y1.7984
G1 X3.0459 Y1.8876
G1 X3.0459 Y2.0637
G1 X3.0459 Y2.2396
G1 X3.0459 Y2.2942
G1 X3.1 Y2.2942
G1 X3.2767 Y2.2942
G1 X3.4534 Y2.2942
G1 X3.6324 Y2.2942
G3 X3.7574 Y2.4192 I0 J0.125
G1 X3.7574 Y2.5098
G1 X3.7574 Y2.599
G1 X3.7574 Y2.7751
G1 X3.7574 Y2.9511
G1 X3.7574 Y3.0057
G1 X3.8115 Y3.0057
G1 X3.9889 Y3.0057
G1 X4.1446 Y3.0057
G1 Z-0.5 F30
G1 X4.1674 Y3.0057 F20
G1 X4.2581 Y3.0057
G1 X4.3502 Y3.0057
G3 X4.4752 Y3.1307 I0 J0.125
G1 X4.4752 Y3.2229
G1 X4.4752 Y3.2288
G1 Z-0.75 F30
G1 X4.4752 Y3.3136 F20
G1 X4.4752 Y3.4922
G1 X4.4752 Y3.6695
G1 X4.4752 Y3.7236
G1 X4.53 Y3.7236
G1 X4.7061 Y3.7236
G1 X4.8821 Y3.7236
G1 X4.9712 Y3.7236
G1 X5.0617 Y3.7236
G3 X5.1867 Y3.8486 I0 J0.125
G1 X5.1867 Y4.0278
G1 X5.1867 Y4.2052
G1 X5.1867 Y4.3837
G1 X5.1867 Y4.4414
G1 X5.2446 Y4.4414
G1 X5.4232 Y4.4414
G1 X5.6005 Y4.4414
G1 X5.7795 Y4.4414
G3 X5.9045 Y4.5664 I0 J0.125
G1 X5.9045 Y4.657
G1 X5.9045 Y4.7462
G1 X5.9045 Y4.9223
G1 X5.9045 Y5.0983
G1 X5.9045 Y5.1529
G1 X5.9587 Y5.1529
G1 X6.1354 Y5.1529
G1 X6.312 Y5.1529
G1 X6.491 Y5.1529
G3 X6.616 Y5.2779 I0 J0.125
G1 X6.616 Y5.3685
G1 X6.616 Y5.4576
G1 X6.616 Y5.6337
G1 X6.616 Y5.8097
G1 X6.616 Y5.8644
G1 X6.6702 Y5.8644
G1 X6.8476 Y5.8644
G1 X7.0261 Y5.8644
G1 X7.1167 Y5.8644
G1 X7.2088 Y5.8644
G3 X7.3338 Y5.9894 I0 J0.125
G1 X7.3338 Y6.0815
G1 X7.3338 Y6.1723
G1 X7.3338 Y6.3508
G1 X7.3338 Y6.5281
G1 X7.3338 Y6.5822
G1 X7.3886 Y6.5822
G1 X7.5647 Y6.5822
G1 X7.7407 Y6.5822
G1 X7.8298 Y6.5822
G1 X7.9203 Y6.5822
G3 X8.0453 Y6.7072 I0 J0.125
G1 X8.0453 Y6.7972
G1 X8.0453 Y6.8863
G1 X8.0453 Y7.063
G1 X8.0453 Y7.2395
G1 X8.0453 Y7.2935
G1 X8.1041 Y7.2935
G1 X8.1938 Y7.2935
G1 X8.2824 Y7.2935
G1 X8.457 Y7.2935
G1 X8.5091 Y7.2935
G1 X8.5091 Y6.7027
G1 X8.5091 Y5.9906
G1 X8.5091 Y5.2766
G1 X8.5091 Y4.5596
G3 X8.6341 Y4.4346 I0.125 J0
G1 X8.7272 Y4.4346
G1 X8.8187 Y4.4346
G1 X8.9086 Y4.4346
G1 X8.9973 Y4.4346
G1 X9.1719 Y4.4346
G1 X9.2238 Y4.4346
G1 X9.2238 Y3.856
G3 X9.3488 Y3.731 I0.125 J0
G1 X9.441 Y3.731
G1 X9.5316 Y3.731
G1 X9.6209 Y3.731
G1 X9.7092 Y3.731
G1 X9.8844 Y3.731
G1 X10.0598 Y3.731
G3 X10.1848 Y3.856 I0 J0.125
G1 X10.1848 Y3.9459
G1 X10.1848 Y4.0348
G1 X10.1848 Y4.2102
G1 X10.1848 Y4.3832
G1 X10.1848 Y4.4346
G1 X10.7638 Y4.4346
G3 X10.8888 Y4.5596 I0 J0.125
G1 X10.8888 Y5.0092
G1 X10.8888 Y5.4571
G1 X10.8888 Y5.9036
G1 X10.8888 Y6.3491
G1 X10.8888 Y7.2388
G1 Z-0.8 F30
G1 Z-0.5 F30
G1 X10.8888 Y7.7388 F20
G1 Z-0.8 F30
G1 X10.8888 Y8.1292 F20
G3 X10.7638 Y8.2542 I-0.125 J0
G1 X10.5851 Y8.2542
G1 X10.4096 Y8.2542
G1 X10.2363 Y8.2542
G1 X10.1845 Y8.2542
G1 X10.1845 Y8.6659
G1 X10.1845 Y9.1994
G1 X10.1845 Y9.7347
G1 X10.1845 Y10.273
G3 X10.0595 Y10.398 I-0.125 J0
G1 X9.7873 Y10.398
G1 X9.5171 Y10.398
G1 X9.2484 Y10.398
G1 X8.9811 Y10.398
G1 X8.4495 Y10.398
G1 X8.0407 Y10.398
G1 X8.0407 Y10.9774
G3 X7.9157 Y11.1024 I-0.125 J0
G1 X7.466 Y11.1024
G1 X7.0182 Y11.1024
G1 X6.5716 Y11.1024
G1 X6.1261 Y11.1024
G1 X5.2364 Y11.1024
G1 X4.3461 Y11.1024
G3 X4.2211 Y10.9774 I0 J-0.125
G1 X4.2211 Y10.7987
G1 X4.2211 Y10.6232
G1 X4.2211 Y10.4498
G1 X4.2211 Y10.3983
G1 X3.6425 Y10.3983
G3 X3.5175 Y10.2733 I0 J-0.125
G1 X3.5175 Y10.181
G1 X3.5175 Y10.0904
G1 X3.5175 Y10.0692
G1 Z-0.5 F30
G1 X3.5175 Y10.0012 F20
G1 X3.5175 Y9.9128
G1 X3.5175 Y9.7377
G1 X3.5175 Y9.5692
G1 Z-0.8 F30
G1 X3.5175 Y9.5623 F20
G3 X3.6425 Y9.4373 I0.125 J0
G1 X3.7324 Y9.4373
G1 X3.8214 Y9.4373
G1 X3.9967 Y9.4373
G1 X4.1697 Y9.4373
G1 X4.2211 Y9.4373
G1 X4.2211 Y9.3823
G1 X4.2211 Y9.2059
G1 X4.2211 Y9.0279
G1 X4.2211 Y8.8475
G3 X4.3461 Y8.7225 I0.125 J0
G1 X5.0595 Y8.7225
G1 X5.7715 Y8.7225
G1 X6.4844 Y8.7225
G1 X6.8419 Y8.7225
G1 X7.08 Y8.7225
G1 X7.08 Y8.6672
G1 X7.08 Y8.4894
G1 X7.08 Y8.3992
G1 X7.08 Y8.3079
G1 X7.08 Y8.2462
G1 X7.0185 Y8.2462
G1 X6.9278 Y8.2462
G1 X6.8381 Y8.2462
G1 X6.6601 Y8.2462
G1 X6.4811 Y8.2462
G3 X6.3561 Y8.1212 I0 J-0.125
G1 X6.3561 Y8.0305
G1 X6.3561 Y7.9413
G1 X6.3561 Y7.7652
G1 X6.3561 Y7.5893
G1 X6.3561 Y7.5347
G1 X6.3019 Y7.5347
G1 X6.1252 Y7.5347
G1 X5.9485 Y7.5347
G1 X5.7696 Y7.5347
G3 X5.6446 Y7.4097 I0 J-0.125
G1 X5.6446 Y7.3191
G1 X5.6446 Y7.2299
G1 X5.6446 Y7.0538
G1 X5.6446 Y6.8778
G1 X5.6446 Y6.8232
G1 X5.5904 Y6.8232
G1 X5.413 Y6.8232
G1 X5.2345 Y6.8232
G1 X5.1439 Y6.8232
G1 X5.0518 Y6.8232
G3 X4.9268 Y6.6982 I0 J-0.125
G1 X4.9268 Y6.606
G1 X4.9268 Y6.5152
G1 X4.9268 Y6.3366
G1 X4.9268 Y6.1593
G1 X4.9268 Y6.1053
G1 X4.872 Y6.1053
G1 X4.6959 Y6.1053
G1 X4.5199 Y6.1053
G1 X4.4308 Y6.1053
G1 X4.3403 Y6.1053
G3 X4.2153 Y5.9803 I0 J-0.125
G1 X4.2153 Y5.8011
G1 X4.2153 Y5.6237
G1 X4.2153 Y5.4452
G1 X4.2153 Y5.3875
G1 X4.1573 Y5.3875
G1 X3.9787 Y5.3875
G1 X3.8014 Y5.3875
G1 X3.6225 Y5.3875
G3 X3.4975 Y5.2625 I0 J-0.125
G1 X3.4975 Y5.1719
G1 X3.4975 Y5.0827
G1 X3.4975 Y4.9066
G1 X3.4975 Y4.8386
G1 Z-0.5 F30
G1 X3.4975 Y4.7306 F20
G1 X3.4975 Y4.676
G1 X3.4433 Y4.676
G1 X3.2666 Y4.676
G1 X3.16 Y4.676
G1 Z-0.8 F30
G1 X3.09 Y4.676 F20
G1 X2.911 Y4.676
G3 X2.786 Y4.551 I0 J-0.125
G1 X2.786 Y4.4605
G1 X2.786 Y4.3713
G1 X2.786 Y4.1952
G1 X2.786 Y4.0192
G1 X2.786 Y3.9645
G1 X2.7317 Y3.9645
G1 X2.5544 Y3.9645
G1 X2.3758 Y3.9645
G1 X2.2852 Y3.9645
G1 X2.1932 Y3.9645
G3 X2.0682 Y3.8395 I0 J-0.125
G1 X2.0682 Y3.7474
G1 X2.0682 Y3.6566
G1 X2.0682 Y3.478
G1 X2.0682 Y3.3007
G1 X2.0682 Y3.2467
G1 X2.0133 Y3.2467
G1 X1.8373 Y3.2467
G1 X1.6613 Y3.2467
G1 X1.5721 Y3.2467
G1 X1.4817 Y3.2467
G3 X1.3567 Y3.1217 I0 J-0.125
G1 X1.3567 Y2.9424
G1 X1.3567 Y2.7651
G1 X1.3567 Y2.5866
G1 X1.3567 Y2.5289
G1 X1.299 Y2.5289
G1 X1.2101 Y2.5289
G1 X1.1227 Y2.5289
G1 X1.0365 Y2.5289
G1 X0.9516 Y2.5289
G1 X0.7846 Y2.5289
G3 X0.6596 Y2.4039 I0 J-0.125
G1 X0.6596 Y2.2241
G1 X0.6596 Y2.046
G1 X0.6596 Y1.8691
G1 X0.6596 Y1.6932
G1 X0.6596 Y1.3433
G1 X0.6596 Y0.994
G3 X0.7846 Y0.869 I0.125 J0
G1 X0.9623 Y0.869
G1 X1.139 Y0.869
G1 X1.4915 Y0.869
G1 X1.8451 Y0.869
G1 X2.0233 Y0.869
G1 X2.2031 Y0.869
G3 X2.3281 Y0.994 I0 J0.125
G1 X2.3281 Y1.1709
G1 X2.3281 Y1.3471
G1 X2.3281 Y1.5251
G1 X2.3281 Y1.5827
G1 X2.386 Y1.5827
G1 X2.5646 Y1.5827
G1 X2.7419 Y1.5827
G1 X2.9209 Y1.5827
G3 X3.0459 Y1.7077 I0 J0.125
G1 X3.0459 Y1.7984
G1 X3.0459 Y1.8876
G1 X3.0459 Y2.0637
G1 X3.0459 Y2.2396
G1 X3.0459 Y2.2942
G1 X3.1 Y2.2942
G1 X3.2767 Y2.2942
G1 X3.4534 Y2.2942
G1 X3.6324 Y2.2942
G3 X3.7574 Y2.4192 I0 J0.125
G1 X3.7574 Y2.5098
G1 X3.7574 Y2.599
G1 X3.7574 Y2.7751
G1 X3.7574 Y2.9511
G1 X3.7574 Y3.0057
G1 X3.8115 Y3.0057
G1 X3.9889 Y3.0057
G1 X4.1446 Y3.0057
G1 Z-0.5 F30
G1 X4.1674 Y3.0057 F20
G1 X4.2581 Y3.0057
G1 X4.3502 Y3.0057
G3 X4.4752 Y3.1307 I0 J0.125
G1 X4.4752 Y3.2229
G1 X4.4752 Y3.2288
G1 Z-0.8 F30
G1 X4.4752 Y3.3136 F20
G1 X4.4752 Y3.4922
G1 X4.4752 Y3.6695
G1 X4.4752 Y3.7236
G1 X4.53 Y3.7236
G1 X4.7061 Y3.7236
G1 X4.8821 Y3.7236
G1 X4.9712 Y3.7236
G1 X5.0617 Y3.7236
G3 X5.1867 Y3.8486 I0 J0.125
G1 X5.1867 Y4.0278
G1 X5.1867 Y4.2052
G1 X5.1867 Y4.3837
G1 X5.1867 Y4.4414
G1 X5.2446 Y4.4414
G1 X5.4232 Y4.4414
G1 X5.6005 Y4.4414
G1 X5.7795 Y4.4414
G3 X5.9045 Y4.5664 I0 J0.125
G1 X5.9045 Y4.657
G1 X5.9045 Y4.7462
G1 X5.9045 Y4.9223
G1 X5.9045 Y5.0983
G1 X5.9045 Y5.1529
G1 X5.9587 Y5.1529
G1 X6.1354 Y5.1529
G1 X6.312 Y5.1529
G1 X6.491 Y5.1529
G3 X6.616 Y5.2779 I0 J0.125
G1 X6.616 Y5.3685
G1 X6.616 Y5.4576
G1 X6.616 Y5.6337
G1 X6.616 Y5.8097
G1 X6.616 Y5.8644
G1 X6.6702 Y5.8644
G1 X6.8476 Y5.8644
G1 X7.0261 Y5.8644
G1 X7.1167 Y5.8644
G1 X7.2088 Y5.8644
G3 X7.3338 Y5.9894 I0 J0.125
G1 X7.3338 Y6.0815
G1 X7.3338 Y6.1723
G1 X7.3338 Y6.3508
G1 X7.3338 Y6.5281
G1 X7.3338 Y6.5822
G1 X7.3886 Y6.5822
G1 X7.5647 Y6.5822
G1 X7.7407 Y6.5822
G1 X7.8298 Y6.5822
G1 X7.9203 Y6.5822
G3 X8.0453 Y6.7072 I0 J0.125
G1 X8.0453 Y6.7972
G1 X8.0453 Y6.8863
G1 X8.0453 Y7.063
G1 X8.0453 Y7.2395
G1 X8.0453 Y7.2935
G1 X8.1041 Y7.2935
G1 X8.1938 Y7.2935
G1 X8.2824 Y7.2935
G1 X8.457 Y7.2935
G1 X8.5091 Y7.2935
G1 X8.5091 Y6.7027
G1 X8.5091 Y5.9906
G1 X8.5091 Y5.2766
G1 X8.5091 Y4.5596
G3 X8.6341 Y4.4346 I0.125 J0
G1 X8.7272 Y4.4346
G1 X8.8187 Y4.4346
G1 X8.9086 Y4.4346
G1 X8.9973 Y4.4346
G1 X9.1719 Y4.4346
G1 X9.2238 Y4.4346
G1 X9.2238 Y3.856
G3 X9.3488 Y3.731 I0.125 J0
G1 X9.441 Y3.731
G1 X9.5316 Y3.731
G1 X9.6209 Y3.731
G1 X9.7092 Y3.731
G1 X9.8844 Y3.731
G1 X10.0598 Y3.731
G3 X10.1848 Y3.856 I0 J0.125
G1 X10.1848 Y3.9459
G1 X10.1848 Y4.0348
G1 X10.1848 Y4.2102
G1 X10.1848 Y4.3832
G1 X10.1848 Y4.4346
G1 X10.7638 Y4.4346
G3 X10.8888 Y4.5596 I0 J0.125
G1 X10.8888 Y5.0092
G1 X10.8888 Y5.4571
G1 X10.8888 Y5.9036
G1 X10.8888 Y6.3491
G1 X10.8888 Y7.2388
G0 Z0.25
M5
M30
