%
(Letterbox back)
(T1  D=0.125 CR=0 - ZMIN=-1.01 - flat end mill)
G90 G94
G17
G20
G28 G91 Z0
G90

(Back)
M9
T1 M6
S10000 M3
G54
M9
G0 X0.8435 Y5.8036
Z0.4
Z0.2
G1 Z-0.2 F20
X0.5335
G3 Y5.6186 J-0.0925
G2 X0.596 Y5.5561 J-0.0625
G1 Y4.6875
G2 X0.5335 Y4.625 I-0.0625
G3 Y4.44 J-0.0925
G1 X1.4137
G2 X1.4762 Y4.3775 J-0.0625
G1 Y3.0089
G2 X1.4137 Y2.9464 I-0.0625
G1 X0.5335
G3 Y2.7614 J-0.0925
G2 X0.596 Y2.6989 J-0.0625
G1 Y1.8304
G2 X0.5335 Y1.7679 I-0.0625
G3 Y1.5829 J-0.0925
G1 X1.4137
G2 X1.4762 Y1.5204 J-0.0625
G1 Y0.1518
G2 X1.4137 Y0.0893 I-0.0625
G1 X0.6431
G2 X0.5842 Y0.131 J0.0625
G3 X0.4663 Y0.0894 I-0.0589 J-0.0208
X0.517 Y0.0482 I0.0589 J0.0208
G2 X0.5712 Y-0.0137 I-0.0083 J-0.0619
G1 Y-0.7532
G2 X0.5087 Y-0.8157 I-0.0625
G1 X-1.0793
G2 X-1.1418 Y-0.7532 J0.0625
G1 Y0.1218
G3 X-1.3268 I-0.0925
G2 X-1.3893 Y0.0593 I-0.0625
G1 X-2.4773
G2 X-2.5398 Y0.1218 J0.0625
G3 X-2.7248 I-0.0925
G1 Y-0.7532
G2 X-2.7873 Y-0.8157 I-0.0625
G1 X-4.3753
G2 X-4.4378 Y-0.7532 J0.0625
G1 Y0.1218
G3 X-4.6228 I-0.0925
G2 X-4.6853 Y0.0593 I-0.0625
G1 X-5.7733
G2 X-5.8358 Y0.1218 J0.0625
G3 X-6.0208 I-0.0925
G1 Y-0.7532
G2 X-6.0833 Y-0.8157 I-0.0625
G1 X-7.6713
G2 X-7.7338 Y-0.7532 J0.0625
G1 Y-0.012
G2 X-7.6846 Y0.0491 I0.0625
G3 X-7.7113 Y0.1712 I-0.0133 J0.0611
X-7.7569 Y0.131 I0.0133 J-0.0611
G2 X-7.8158 Y0.0893 I-0.0589 J0.0208
G1 X-8.5863
G2 X-8.6488 Y0.1518 J0.0625
G1 Y1.5204
G2 X-8.5863 Y1.5829 I0.0625
G1 X-7.7113
G3 Y1.7679 J0.0925
G2 X-7.7738 Y1.8304 J0.0625
G1 Y2.6989
G2 X-7.7113 Y2.7614 I0.0625
G3 Y2.9464 J0.0925
G1 X-8.5863
G2 X-8.6488 Y3.0089 J0.0625
G1 Y4.3775
G2 X-8.5863 Y4.44 I0.0625
G1 X-7.7113
G3 Y4.625 J0.0925
G2 X-7.7738 Y4.6875 J0.0625
G1 Y5.5561
G2 X-7.7113 Y5.6186 I0.0625
G3 Y5.8036 J0.0925
G1 X-8.5863
G2 X-8.6488 Y5.8661 J0.0625
G1 Y7.2346
G2 X-8.5863 Y7.2971 I0.0625
G1 X-7.7113
G3 Y7.4821 J0.0925
G2 X-7.7738 Y7.5446 J0.0625
G1 Y8.4132
G2 X-7.7113 Y8.4757 I0.0625
G3 Y8.6607 J0.0925
G1 X-8.5863
G2 X-8.6488 Y8.7232 J0.0625
G1 Y11.3718
G2 X-7.8363 Y12.1843 I0.8125
G1 X0.6637
G2 X1.4762 Y11.3718 J-0.8125
G1 Y8.7232
G2 X1.4137 Y8.6607 I-0.0625
G1 X0.5335
G3 Y8.4757 J-0.0925
G2 X0.596 Y8.4132 J-0.0625
G1 Y7.5446
G2 X0.5335 Y7.4821 I-0.0625
G3 Y7.2971 J-0.0925
G1 X1.4137
G2 X1.4762 Y7.2346 J-0.0625
G1 Y5.8661
G2 X1.4137 Y5.8036 I-0.0625
G1 X0.8435
Z-0.4
X0.5335
G3 Y5.6186 J-0.0925
G2 X0.596 Y5.5561 J-0.0625
G1 Y4.6875
G2 X0.5335 Y4.625 I-0.0625
G3 Y4.44 J-0.0925
G1 X1.4137
G2 X1.4762 Y4.3775 J-0.0625
G1 Y3.0089
G2 X1.4137 Y2.9464 I-0.0625
G1 X0.5335
G3 Y2.7614 J-0.0925
G2 X0.596 Y2.6989 J-0.0625
G1 Y1.8304
G2 X0.5335 Y1.7679 I-0.0625
G3 Y1.5829 J-0.0925
G1 X1.4137
G2 X1.4762 Y1.5204 J-0.0625
G1 Y0.1518
G2 X1.4137 Y0.0893 I-0.0625
G1 X0.6431
G2 X0.5842 Y0.131 J0.0625
G3 X0.4663 Y0.0894 I-0.0589 J-0.0208
X0.517 Y0.0482 I0.0589 J0.0208
G2 X0.5712 Y-0.0137 I-0.0083 J-0.0619
G1 Y-0.7532
G2 X0.5087 Y-0.8157 I-0.0625
G1 X-1.0793
G2 X-1.1418 Y-0.7532 J0.0625
G1 Y0.1218
G3 X-1.3268 I-0.0925
G2 X-1.3893 Y0.0593 I-0.0625
G1 X-2.4773
G2 X-2.5398 Y0.1218 J0.0625
G3 X-2.7248 I-0.0925
G1 Y-0.7532
G2 X-2.7873 Y-0.8157 I-0.0625
G1 X-4.3753
G2 X-4.4378 Y-0.7532 J0.0625
G1 Y0.1218
G3 X-4.6228 I-0.0925
G2 X-4.6853 Y0.0593 I-0.0625
G1 X-5.7733
G2 X-5.8358 Y0.1218 J0.0625
G3 X-6.0208 I-0.0925
G1 Y-0.7532
G2 X-6.0833 Y-0.8157 I-0.0625
G1 X-7.6713
G2 X-7.7338 Y-0.7532 J0.0625
G1 Y-0.012
G2 X-7.6846 Y0.0491 I0.0625
G3 X-7.7113 Y0.1712 I-0.0133 J0.0611
X-7.7569 Y0.131 I0.0133 J-0.0611
G2 X-7.8158 Y0.0893 I-0.0589 J0.0208
G1 X-8.5863
G2 X-8.6488 Y0.1518 J0.0625
G1 Y1.5204
G2 X-8.5863 Y1.5829 I0.0625
G1 X-7.7113
G3 Y1.7679 J0.0925
G2 X-7.7738 Y1.8304 J0.0625
G1 Y2.6989
G2 X-7.7113 Y2.7614 I0.0625
G3 Y2.9464 J0.0925
G1 X-8.5863
G2 X-8.6488 Y3.0089 J0.0625
G1 Y4.3775
G2 X-8.5863 Y4.44 I0.0625
G1 X-7.7113
G3 Y4.625 J0.0925
G2 X-7.7738 Y4.6875 J0.0625
G1 Y5.5561
G2 X-7.7113 Y5.6186 I0.0625
G3 Y5.8036 J0.0925
G1 X-8.5863
G2 X-8.6488 Y5.8661 J0.0625
G1 Y7.2346
G2 X-8.5863 Y7.2971 I0.0625
G1 X-7.7113
G3 Y7.4821 J0.0925
G2 X-7.7738 Y7.5446 J0.0625
G1 Y8.4132
G2 X-7.7113 Y8.4757 I0.0625
G3 Y8.6607 J0.0925
G1 X-8.5863
G2 X-8.6488 Y8.7232 J0.0625
G1 Y11.3718
G2 X-7.8363 Y12.1843 I0.8125
G1 X0.6637
G2 X1.4762 Y11.3718 J-0.8125
G1 Y8.7232
G2 X1.4137 Y8.6607 I-0.0625
G1 X0.5335
G3 Y8.4757 J-0.0925
G2 X0.596 Y8.4132 J-0.0625
G1 Y7.5446
G2 X0.5335 Y7.4821 I-0.0625
G3 Y7.2971 J-0.0925
G1 X1.4137
G2 X1.4762 Y7.2346 J-0.0625
G1 Y5.8661
G2 X1.4137 Y5.8036 I-0.0625
G1 X0.8435
Z-0.6
X0.5335
G3 Y5.6186 J-0.0925
G2 X0.596 Y5.5561 J-0.0625
G1 Y4.6875
G2 X0.5335 Y4.625 I-0.0625
G3 Y4.44 J-0.0925
G1 X1.4137
G2 X1.4762 Y4.3775 J-0.0625
G1 Y3.0089
G2 X1.4137 Y2.9464 I-0.0625
G1 X0.5335
G3 Y2.7614 J-0.0925
G2 X0.596 Y2.6989 J-0.0625
G1 Y1.8304
G2 X0.5335 Y1.7679 I-0.0625
G3 Y1.5829 J-0.0925
G1 X1.4137
G2 X1.4762 Y1.5204 J-0.0625
G1 Y0.1518
G2 X1.4137 Y0.0893 I-0.0625
G1 X0.6431
G2 X0.5842 Y0.131 J0.0625
G3 X0.4663 Y0.0894 I-0.0589 J-0.0208
X0.517 Y0.0482 I0.0589 J0.0208
G2 X0.5712 Y-0.0137 I-0.0083 J-0.0619
G1 Y-0.7532
G2 X0.5087 Y-0.8157 I-0.0625
G1 X-1.0793
G2 X-1.1418 Y-0.7532 J0.0625
G1 Y0.1218
G3 X-1.3268 I-0.0925
G2 X-1.3893 Y0.0593 I-0.0625
G1 X-2.4773
G2 X-2.5398 Y0.1218 J0.0625
G3 X-2.7248 I-0.0925
G1 Y-0.7532
G2 X-2.7873 Y-0.8157 I-0.0625
G1 X-4.3753
G2 X-4.4378 Y-0.7532 J0.0625
G1 Y0.1218
G3 X-4.6228 I-0.0925
G2 X-4.6853 Y0.0593 I-0.0625
G1 X-5.7733
G2 X-5.8358 Y0.1218 J0.0625
G3 X-6.0208 I-0.0925
G1 Y-0.7532
G2 X-6.0833 Y-0.8157 I-0.0625
G1 X-7.6713
G2 X-7.7338 Y-0.7532 J0.0625
G1 Y-0.012
G2 X-7.6846 Y0.0491 I0.0625
G3 X-7.7113 Y0.1712 I-0.0133 J0.0611
X-7.7569 Y0.131 I0.0133 J-0.0611
G2 X-7.8158 Y0.0893 I-0.0589 J0.0208
G1 X-8.5863
G2 X-8.6488 Y0.1518 J0.0625
G1 Y1.5204
G2 X-8.5863 Y1.5829 I0.0625
G1 X-7.7113
G3 Y1.7679 J0.0925
G2 X-7.7738 Y1.8304 J0.0625
G1 Y2.6989
G2 X-7.7113 Y2.7614 I0.0625
G3 Y2.9464 J0.0925
G1 X-8.5863
G2 X-8.6488 Y3.0089 J0.0625
G1 Y4.3775
G2 X-8.5863 Y4.44 I0.0625
G1 X-7.7113
G3 Y4.625 J0.0925
G2 X-7.7738 Y4.6875 J0.0625
G1 Y5.5561
G2 X-7.7113 Y5.6186 I0.0625
G3 Y5.8036 J0.0925
G1 X-8.5863
G2 X-8.6488 Y5.8661 J0.0625
G1 Y7.2346
G2 X-8.5863 Y7.2971 I0.0625
G1 X-7.7113
G3 Y7.4821 J0.0925
G2 X-7.7738 Y7.5446 J0.0625
G1 Y8.4132
G2 X-7.7113 Y8.4757 I0.0625
G3 Y8.6607 J0.0925
G1 X-8.5863
G2 X-8.6488 Y8.7232 J0.0625
G1 Y11.3718
G2 X-7.8363 Y12.1843 I0.8125
G1 X0.6637
G2 X1.4762 Y11.3718 J-0.8125
G1 Y8.7232
G2 X1.4137 Y8.6607 I-0.0625
G1 X0.5335
G3 Y8.4757 J-0.0925
G2 X0.596 Y8.4132 J-0.0625
G1 Y7.5446
G2 X0.5335 Y7.4821 I-0.0625
G3 Y7.2971 J-0.0925
G1 X1.4137
G2 X1.4762 Y7.2346 J-0.0625
G1 Y5.8661
G2 X1.4137 Y5.8036 I-0.0625
G1 X0.8435
Z-0.8
X0.5335
G3 Y5.6186 J-0.0925
G2 X0.596 Y5.5561 J-0.0625
G1 Y4.6875
G2 X0.5335 Y4.625 I-0.0625
G3 Y4.44 J-0.0925
G1 X1.4137
G2 X1.4762 Y4.3775 J-0.0625
G1 Y3.0089
G2 X1.4137 Y2.9464 I-0.0625
G1 X0.5335
G3 Y2.7614 J-0.0925
G2 X0.596 Y2.6989 J-0.0625
G1 Y1.8304
G2 X0.5335 Y1.7679 I-0.0625
G3 Y1.5829 J-0.0925
G1 X1.4137
G2 X1.4762 Y1.5204 J-0.0625
G1 Y0.1518
G2 X1.4137 Y0.0893 I-0.0625
G1 X0.6431
G2 X0.5842 Y0.131 J0.0625
G3 X0.4663 Y0.0894 I-0.0589 J-0.0208
X0.517 Y0.0482 I0.0589 J0.0208
G2 X0.5712 Y-0.0137 I-0.0083 J-0.0619
G1 Y-0.7532
G2 X0.5087 Y-0.8157 I-0.0625
G1 X-1.0793
G2 X-1.1418 Y-0.7532 J0.0625
G1 Y0.1218
G3 X-1.3268 I-0.0925
G2 X-1.3893 Y0.0593 I-0.0625
G1 X-2.4773
G2 X-2.5398 Y0.1218 J0.0625
G3 X-2.7248 I-0.0925
G1 Y-0.7532
G2 X-2.7873 Y-0.8157 I-0.0625
G1 X-4.3753
G2 X-4.4378 Y-0.7532 J0.0625
G1 Y0.1218
G3 X-4.6228 I-0.0925
G2 X-4.6853 Y0.0593 I-0.0625
G1 X-5.7733
G2 X-5.8358 Y0.1218 J0.0625
G3 X-6.0208 I-0.0925
G1 Y-0.7532
G2 X-6.0833 Y-0.8157 I-0.0625
G1 X-7.6713
G2 X-7.7338 Y-0.7532 J0.0625
G1 Y-0.012
G2 X-7.6846 Y0.0491 I0.0625
G3 X-7.7113 Y0.1712 I-0.0133 J0.0611
X-7.7569 Y0.131 I0.0133 J-0.0611
G2 X-7.8158 Y0.0893 I-0.0589 J0.0208
G1 X-8.5863
G2 X-8.6488 Y0.1518 J0.0625
G1 Y1.5204
G2 X-8.5863 Y1.5829 I0.0625
G1 X-7.7113
G3 Y1.7679 J0.0925
G2 X-7.7738 Y1.8304 J0.0625
G1 Y2.6989
G2 X-7.7113 Y2.7614 I0.0625
G3 Y2.9464 J0.0925
G1 X-8.5863
G2 X-8.6488 Y3.0089 J0.0625
G1 Y4.3775
G2 X-8.5863 Y4.44 I0.0625
G1 X-7.7113
G3 Y4.625 J0.0925
G2 X-7.7738 Y4.6875 J0.0625
G1 Y5.5561
G2 X-7.7113 Y5.6186 I0.0625
G3 Y5.8036 J0.0925
G1 X-8.5863
G2 X-8.6488 Y5.8661 J0.0625
G1 Y7.2346
G2 X-8.5863 Y7.2971 I0.0625
G1 X-7.7113
G3 Y7.4821 J0.0925
G2 X-7.7738 Y7.5446 J0.0625
G1 Y8.4132
G2 X-7.7113 Y8.4757 I0.0625
G3 Y8.6607 J0.0925
G1 X-8.5863
G2 X-8.6488 Y8.7232 J0.0625
G1 Y11.3718
G2 X-7.8363 Y12.1843 I0.8125
G1 X0.6637
G2 X1.4762 Y11.3718 J-0.8125
G1 Y8.7232
G2 X1.4137 Y8.6607 I-0.0625
G1 X0.5335
G3 Y8.4757 J-0.0925
G2 X0.596 Y8.4132 J-0.0625
G1 Y7.5446
G2 X0.5335 Y7.4821 I-0.0625
G3 Y7.2971 J-0.0925
G1 X1.4137
G2 X1.4762 Y7.2346 J-0.0625
G1 Y5.8661
G2 X1.4137 Y5.8036 I-0.0625
G1 X0.8435
Z-0.905
X0.5335
G3 Y5.6186 J-0.0925
G2 X0.596 Y5.5561 J-0.0625
G1 Y4.6875
G2 X0.5335 Y4.625 I-0.0625
G3 Y4.44 J-0.0925
G1 X1.4137
G2 X1.4762 Y4.3775 J-0.0625
G1 Y3.0089
G2 X1.4137 Y2.9464 I-0.0625
G1 X0.5335
G3 Y2.7614 J-0.0925
G2 X0.596 Y2.6989 J-0.0625
G1 Y1.8304
G2 X0.5335 Y1.7679 I-0.0625
G3 Y1.5829 J-0.0925
G1 X1.4137
G2 X1.4762 Y1.5204 J-0.0625
G1 Y0.1518
G2 X1.4137 Y0.0893 I-0.0625
G1 X0.6431
G2 X0.5842 Y0.131 J0.0625
G3 X0.4663 Y0.0894 I-0.0589 J-0.0208
X0.517 Y0.0482 I0.0589 J0.0208
G2 X0.5712 Y-0.0137 I-0.0083 J-0.0619
G1 Y-0.7532
G2 X0.5087 Y-0.8157 I-0.0625
G1 X-1.0793
G2 X-1.1418 Y-0.7532 J0.0625
G1 Y0.1218
G3 X-1.3268 I-0.0925
G2 X-1.3893 Y0.0593 I-0.0625
G1 X-2.4773
G2 X-2.5398 Y0.1218 J0.0625
G3 X-2.7248 I-0.0925
G1 Y-0.7532
G2 X-2.7873 Y-0.8157 I-0.0625
G1 X-4.3753
G2 X-4.4378 Y-0.7532 J0.0625
G1 Y0.1218
G3 X-4.6228 I-0.0925
G2 X-4.6853 Y0.0593 I-0.0625
G1 X-5.7733
G2 X-5.8358 Y0.1218 J0.0625
G3 X-6.0208 I-0.0925
G1 Y-0.7532
G2 X-6.0833 Y-0.8157 I-0.0625
G1 X-7.6713
G2 X-7.7338 Y-0.7532 J0.0625
G1 Y-0.012
G2 X-7.6846 Y0.0491 I0.0625
G3 X-7.7113 Y0.1712 I-0.0133 J0.0611
X-7.7569 Y0.131 I0.0133 J-0.0611
G2 X-7.8158 Y0.0893 I-0.0589 J0.0208
G1 X-8.5863
G2 X-8.6488 Y0.1518 J0.0625
G1 Y1.5204
G2 X-8.5863 Y1.5829 I0.0625
G1 X-7.7113
G3 Y1.7679 J0.0925
G2 X-7.7738 Y1.8304 J0.0625
G1 Y2.6989
G2 X-7.7113 Y2.7614 I0.0625
G3 Y2.9464 J0.0925
G1 X-8.5863
G2 X-8.6488 Y3.0089 J0.0625
G1 Y4.3775
G2 X-8.5863 Y4.44 I0.0625
G1 X-7.7113
G3 Y4.625 J0.0925
G2 X-7.7738 Y4.6875 J0.0625
G1 Y5.5561
G2 X-7.7113 Y5.6186 I0.0625
G3 Y5.8036 J0.0925
G1 X-8.5863
G2 X-8.6488 Y5.8661 J0.0625
G1 Y7.2346
G2 X-8.5863 Y7.2971 I0.0625
G1 X-7.7113
G3 Y7.4821 J0.0925
G2 X-7.7738 Y7.5446 J0.0625
G1 Y8.4132
G2 X-7.7113 Y8.4757 I0.0625
G3 Y8.6607 J0.0925
G1 X-8.5863
G2 X-8.6488 Y8.7232 J0.0625
G1 Y11.3718
G2 X-7.8363 Y12.1843 I0.8125
G1 X0.6637
G2 X1.4762 Y11.3718 J-0.8125
G1 Y8.7232
G2 X1.4137 Y8.6607 I-0.0625
G1 X0.5335
G3 Y8.4757 J-0.0925
G2 X0.596 Y8.4132 J-0.0625
G1 Y7.5446
G2 X0.5335 Y7.4821 I-0.0625
G3 Y7.2971 J-0.0925
G1 X1.4137
G2 X1.4762 Y7.2346 J-0.0625
G1 Y5.8661
G2 X1.4137 Y5.8036 I-0.0625
G1 X0.8435
Z-1.01
X0.5335
G3 Y5.6186 J-0.0925
G2 X0.596 Y5.5561 J-0.0625
G1 Y4.6875
G2 X0.5335 Y4.625 I-0.0625
G3 Y4.44 J-0.0925
G1 X1.4137
G2 X1.4762 Y4.3775 J-0.0625
G1 Y3.0089
G2 X1.4137 Y2.9464 I-0.0625
G1 X0.5335
G3 Y2.7614 J-0.0925
G2 X0.596 Y2.6989 J-0.0625
G1 Y1.8304
G2 X0.5335 Y1.7679 I-0.0625
G3 Y1.5829 J-0.0925
G1 X1.4137
G2 X1.4762 Y1.5204 J-0.0625
G1 Y0.1518
G2 X1.4137 Y0.0893 I-0.0625
G1 X0.6431
G2 X0.5842 Y0.131 J0.0625
G3 X0.4663 Y0.0894 I-0.0589 J-0.0208
X0.517 Y0.0482 I0.0589 J0.0208
G2 X0.5712 Y-0.0137 I-0.0083 J-0.0619
G1 Y-0.7532
G2 X0.5087 Y-0.8157 I-0.0625
G1 X-0.1603
Z-0.9787
X-0.4103
Z-1.01
X-1.0793
G2 X-1.1418 Y-0.7532 J0.0625
G1 Y0.1218
G3 X-1.3268 I-0.0925
G2 X-1.3893 Y0.0593 I-0.0625
G1 X-2.4773
G2 X-2.5398 Y0.1218 J0.0625
G3 X-2.7248 I-0.0925
G1 Y-0.7532
G2 X-2.7873 Y-0.8157 I-0.0625
G1 X-3.4563
Z-0.9787
X-3.7063
Z-1.01
X-4.3753
G2 X-4.4378 Y-0.7532 J0.0625
G1 Y0.1218
G3 X-4.6228 I-0.0925
G2 X-4.6853 Y0.0593 I-0.0625
G1 X-5.7733
G2 X-5.8358 Y0.1218 J0.0625
G3 X-6.0208 I-0.0925
G1 Y-0.7532
G2 X-6.0833 Y-0.8157 I-0.0625
G1 X-6.7523
Z-0.9787
X-7.0023
Z-1.01
X-7.6713
G2 X-7.7338 Y-0.7532 J0.0625
G1 Y-0.012
G2 X-7.6846 Y0.0491 I0.0625
G3 X-7.7113 Y0.1712 I-0.0133 J0.0611
X-7.7569 Y0.131 I0.0133 J-0.0611
G2 X-7.8158 Y0.0893 I-0.0589 J0.0208
G1 X-8.5863
G2 X-8.6488 Y0.1518 J0.0625
G1 Y1.5204
G2 X-8.5863 Y1.5829 I0.0625
G1 X-7.7113
G3 Y1.7679 J0.0925
G2 X-7.7738 Y1.8304 J0.0625
G1 Y2.6989
G2 X-7.7113 Y2.7614 I0.0625
G3 Y2.9464 J0.0925
G1 X-8.5863
G2 X-8.6488 Y3.0089 J0.0625
G1 Y4.3775
G2 X-8.5863 Y4.44 I0.0625
G1 X-7.7113
G3 Y4.625 J0.0925
G2 X-7.7738 Y4.6875 J0.0625
G1 Y5.5561
G2 X-7.7113 Y5.6186 I0.0625
G3 Y5.8036 J0.0925
G1 X-8.5863
G2 X-8.6488 Y5.8661 J0.0625
G1 Y7.2346
G2 X-8.5863 Y7.2971 I0.0625
G1 X-7.7113
G3 Y7.4821 J0.0925
G2 X-7.7738 Y7.5446 J0.0625
G1 Y8.4132
G2 X-7.7113 Y8.4757 I0.0625
G3 Y8.6607 J0.0925
G1 X-8.5863
G2 X-8.6488 Y8.7232 J0.0625
G1 Y9.9225
Z-0.9787
Y10.1725
Z-1.01
Y11.3718
G2 X-7.8363 Y12.1843 I0.8125
G1 X-7.1113
Z-0.9787
X-6.8613
Z-1.01
X-5.4113
Z-0.9787
X-5.1613
Z-1.01
X-3.7113
Z-0.9787
X-3.4613
Z-1.01
X-2.0113
Z-0.9787
X-1.7613
Z-1.01
X-0.3113
Z-0.9787
X-0.0613
Z-1.01
X0.6637
G2 X1.4762 Y11.3718 J-0.8125
G1 Y10.1725
Z-0.9787
Y9.9225
Z-1.01
Y8.7232
G2 X1.4137 Y8.6607 I-0.0625
G1 X0.5335
G3 Y8.4757 J-0.0925
G2 X0.596 Y8.4132 J-0.0625
G1 Y7.5446
G2 X0.5335 Y7.4821 I-0.0625
G3 Y7.2971 J-0.0925
G1 X1.4137
G2 X1.4762 Y7.2346 J-0.0625
G1 Y5.8661
G2 X1.4137 Y5.8036 I-0.0625
G1 X0.8435
G0 Z0.2
X-3.5863 Y11.3093
G1 Z-0.2 F20
G3 X-3.2738 Y11.6218 J0.3125
X-3.5863 Y11.9343 I-0.3125
X-3.8988 Y11.6218 J-0.3125
X-3.5863 Y11.3093 I0.3125
G1 Z-0.4
G3 X-3.2738 Y11.6218 J0.3125
X-3.5863 Y11.9343 I-0.3125
X-3.8988 Y11.6218 J-0.3125
X-3.5863 Y11.3093 I0.3125
G1 Z-0.6
G3 X-3.2738 Y11.6218 J0.3125
X-3.5863 Y11.9343 I-0.3125
X-3.8988 Y11.6218 J-0.3125
X-3.5863 Y11.3093 I0.3125
G1 Z-0.8
G3 X-3.2738 Y11.6218 J0.3125
X-3.5863 Y11.9343 I-0.3125
X-3.8988 Y11.6218 J-0.3125
X-3.5863 Y11.3093 I0.3125
G1 Z-0.905
G3 X-3.2738 Y11.6218 J0.3125
X-3.5863 Y11.9343 I-0.3125
X-3.8988 Y11.6218 J-0.3125
X-3.5863 Y11.3093 I0.3125
G1 Z-1.01
G3 X-3.2999 Y11.4968 J0.3125
G1 Z-0.9787
G3 X-3.2738 Y11.6218 I-0.2864 J0.125
X-3.2999 Y11.7468 I-0.3125
G1 Z-1.01
G3 X-3.8988 Y11.6218 I-0.2864 J-0.125
X-3.5863 Y11.3093 I0.3125
G0 Z0.4
M9
G28 G91 Z0
G28 X0 Y0
M30
%
