%
(Letterbox side)
(T1  D=0.125 CR=0 - ZMIN=-1.01 - flat end mill)
G90 G94
G17
G20
G28 G91 Z0
G90

(Side)
M9
T1 M6
S10000 M3
G54
M9
G0 X2.9797 Y5.7754
Z0.2
G1 Z-0.12 F20
Y6.644
G2 X3.0422 Y6.7065 I0.0625
G3 Y6.8915 J0.0925
G1 X2.1672
G2 X2.1047 Y6.954 J0.0625
G1 Y8.3226
G2 X2.1672 Y8.3851 I0.0625
G1 X3.0422
G3 Y8.5701 J0.0925
G2 X2.9797 Y8.6326 J0.0625
G1 Y9.7811
G2 X3.0422 Y9.8436 I0.0625
G1 X3.5622
G2 X3.6247 Y9.7811 J-0.0625
G3 X3.7172 Y9.6886 I0.0925
X3.8097 Y9.7811 J0.0925
G1 Y10.6561
G2 X3.8722 Y10.7186 I0.0625
G1 X4.6122
G2 X4.6747 Y10.6561 J-0.0625
G1 Y9.7811
G3 X4.7672 Y9.6886 I0.0925
X4.8597 Y9.7811 J0.0925
G2 X4.9222 Y9.8436 I0.0625
G1 X5.1622
G2 X5.2247 Y9.7811 J-0.0625
G3 X5.3172 Y9.6886 I0.0925
X5.4097 Y9.7811 J0.0925
G1 Y10.6561
G2 X5.4722 Y10.7186 I0.0625
G1 X6.2122
G2 X6.2747 Y10.6561 J-0.0625
G1 Y9.7811
G3 X6.4597 I0.0925
G2 X6.5222 Y9.8436 I0.0625
G1 X7.0422
G2 X7.1047 Y9.7811 J-0.0625
G1 Y8.6326
G2 X7.0422 Y8.5701 I-0.0625
G3 Y8.3851 J-0.0925
G1 X7.9172
G2 X7.9797 Y8.3226 J-0.0625
G1 Y6.954
G2 X7.9172 Y6.8915 I-0.0625
G1 X7.0422
G3 Y6.7065 J-0.0925
G2 X7.1047 Y6.644 J-0.0625
G1 Y5.7754
G2 X7.0422 Y5.7129 I-0.0625
G3 Y5.5279 J-0.0925
G1 X7.9172
G2 X7.9797 Y5.4654 J-0.0625
G1 Y4.0969
G2 X7.9172 Y4.0344 I-0.0625
G1 X7.0422
G3 Y3.8494 J-0.0925
G2 X7.1047 Y3.7869 J-0.0625
G1 Y2.9183
G2 X7.0422 Y2.8558 I-0.0625
G3 Y2.6708 J-0.0925
G1 X7.9172
G2 X7.9797 Y2.6083 J-0.0625
G1 Y1.2397
G2 X7.9172 Y1.1772 I-0.0625
G1 X7.0422
G3 Y0.9922 J-0.0925
G2 X7.1047 Y0.9297 J-0.0625
G1 Y-0.2189
G2 X7.0422 Y-0.2814 I-0.0625
G1 X3.0422
G2 X2.9797 Y-0.2189 J0.0625
G1 Y0.9297
G2 X3.0422 Y0.9922 I0.0625
G3 Y1.1772 J0.0925
G1 X2.1672
G2 X2.1047 Y1.2397 J0.0625
G1 Y2.6083
G2 X2.1672 Y2.6708 I0.0625
G1 X3.0422
G3 Y2.8558 J0.0925
G2 X2.9797 Y2.9183 J0.0625
G1 Y3.7869
G2 X3.0422 Y3.8494 I0.0625
G3 Y4.0344 J0.0925
G1 X2.1672
G2 X2.1047 Y4.0969 J0.0625
G1 Y5.4654
G2 X2.1672 Y5.5279 I0.0625
G1 X3.0422
G3 Y5.7129 J0.0925
G2 X2.9797 Y5.7754 J0.0625
G1 Z-0.24
Y6.644
G2 X3.0422 Y6.7065 I0.0625
G3 Y6.8915 J0.0925
G1 X2.1672
G2 X2.1047 Y6.954 J0.0625
G1 Y8.3226
G2 X2.1672 Y8.3851 I0.0625
G1 X3.0422
G3 Y8.5701 J0.0925
G2 X2.9797 Y8.6326 J0.0625
G1 Y9.7811
G2 X3.0422 Y9.8436 I0.0625
G1 X3.5622
G2 X3.6247 Y9.7811 J-0.0625
G3 X3.7172 Y9.6886 I0.0925
X3.8097 Y9.7811 J0.0925
G1 Y10.6561
G2 X3.8722 Y10.7186 I0.0625
G1 X4.6122
G2 X4.6747 Y10.6561 J-0.0625
G1 Y9.7811
G3 X4.7672 Y9.6886 I0.0925
X4.8597 Y9.7811 J0.0925
G2 X4.9222 Y9.8436 I0.0625
G1 X5.1622
G2 X5.2247 Y9.7811 J-0.0625
G3 X5.3172 Y9.6886 I0.0925
X5.4097 Y9.7811 J0.0925
G1 Y10.6561
G2 X5.4722 Y10.7186 I0.0625
G1 X6.2122
G2 X6.2747 Y10.6561 J-0.0625
G1 Y9.7811
G3 X6.4597 I0.0925
G2 X6.5222 Y9.8436 I0.0625
G1 X7.0422
G2 X7.1047 Y9.7811 J-0.0625
G1 Y8.6326
G2 X7.0422 Y8.5701 I-0.0625
G3 Y8.3851 J-0.0925
G1 X7.9172
G2 X7.9797 Y8.3226 J-0.0625
G1 Y6.954
G2 X7.9172 Y6.8915 I-0.0625
G1 X7.0422
G3 Y6.7065 J-0.0925
G2 X7.1047 Y6.644 J-0.0625
G1 Y5.7754
G2 X7.0422 Y5.7129 I-0.0625
G3 Y5.5279 J-0.0925
G1 X7.9172
G2 X7.9797 Y5.4654 J-0.0625
G1 Y4.0969
G2 X7.9172 Y4.0344 I-0.0625
G1 X7.0422
G3 Y3.8494 J-0.0925
G2 X7.1047 Y3.7869 J-0.0625
G1 Y2.9183
G2 X7.0422 Y2.8558 I-0.0625
G3 Y2.6708 J-0.0925
G1 X7.9172
G2 X7.9797 Y2.6083 J-0.0625
G1 Y1.2397
G2 X7.9172 Y1.1772 I-0.0625
G1 X7.0422
G3 Y0.9922 J-0.0925
G2 X7.1047 Y0.9297 J-0.0625
G1 Y-0.2189
G2 X7.0422 Y-0.2814 I-0.0625
G1 X3.0422
G2 X2.9797 Y-0.2189 J0.0625
G1 Y0.9297
G2 X3.0422 Y0.9922 I0.0625
G3 Y1.1772 J0.0925
G1 X2.1672
G2 X2.1047 Y1.2397 J0.0625
G1 Y2.6083
G2 X2.1672 Y2.6708 I0.0625
G1 X3.0422
G3 Y2.8558 J0.0925
G2 X2.9797 Y2.9183 J0.0625
G1 Y3.7869
G2 X3.0422 Y3.8494 I0.0625
G3 Y4.0344 J0.0925
G1 X2.1672
G2 X2.1047 Y4.0969 J0.0625
G1 Y5.4654
G2 X2.1672 Y5.5279 I0.0625
G1 X3.0422
G3 Y5.7129 J0.0925
G2 X2.9797 Y5.7754 J0.0625
G1 Z-0.36
Y6.644
G2 X3.0422 Y6.7065 I0.0625
G3 Y6.8915 J0.0925
G1 X2.1672
G2 X2.1047 Y6.954 J0.0625
G1 Y8.3226
G2 X2.1672 Y8.3851 I0.0625
G1 X3.0422
G3 Y8.5701 J0.0925
G2 X2.9797 Y8.6326 J0.0625
G1 Y9.7811
G2 X3.0422 Y9.8436 I0.0625
G1 X3.5622
G2 X3.6247 Y9.7811 J-0.0625
G3 X3.7172 Y9.6886 I0.0925
X3.8097 Y9.7811 J0.0925
G1 Y10.6561
G2 X3.8722 Y10.7186 I0.0625
G1 X4.6122
G2 X4.6747 Y10.6561 J-0.0625
G1 Y9.7811
G3 X4.7672 Y9.6886 I0.0925
X4.8597 Y9.7811 J0.0925
G2 X4.9222 Y9.8436 I0.0625
G1 X5.1622
G2 X5.2247 Y9.7811 J-0.0625
G3 X5.3172 Y9.6886 I0.0925
X5.4097 Y9.7811 J0.0925
G1 Y10.6561
G2 X5.4722 Y10.7186 I0.0625
G1 X6.2122
G2 X6.2747 Y10.6561 J-0.0625
G1 Y9.7811
G3 X6.4597 I0.0925
G2 X6.5222 Y9.8436 I0.0625
G1 X7.0422
G2 X7.1047 Y9.7811 J-0.0625
G1 Y8.6326
G2 X7.0422 Y8.5701 I-0.0625
G3 Y8.3851 J-0.0925
G1 X7.9172
G2 X7.9797 Y8.3226 J-0.0625
G1 Y6.954
G2 X7.9172 Y6.8915 I-0.0625
G1 X7.0422
G3 Y6.7065 J-0.0925
G2 X7.1047 Y6.644 J-0.0625
G1 Y5.7754
G2 X7.0422 Y5.7129 I-0.0625
G3 Y5.5279 J-0.0925
G1 X7.9172
G2 X7.9797 Y5.4654 J-0.0625
G1 Y4.0969
G2 X7.9172 Y4.0344 I-0.0625
G1 X7.0422
G3 Y3.8494 J-0.0925
G2 X7.1047 Y3.7869 J-0.0625
G1 Y2.9183
G2 X7.0422 Y2.8558 I-0.0625
G3 Y2.6708 J-0.0925
G1 X7.9172
G2 X7.9797 Y2.6083 J-0.0625
G1 Y1.2397
G2 X7.9172 Y1.1772 I-0.0625
G1 X7.0422
G3 Y0.9922 J-0.0925
G2 X7.1047 Y0.9297 J-0.0625
G1 Y-0.2189
G2 X7.0422 Y-0.2814 I-0.0625
G1 X3.0422
G2 X2.9797 Y-0.2189 J0.0625
G1 Y0.9297
G2 X3.0422 Y0.9922 I0.0625
G3 Y1.1772 J0.0925
G1 X2.1672
G2 X2.1047 Y1.2397 J0.0625
G1 Y2.6083
G2 X2.1672 Y2.6708 I0.0625
G1 X3.0422
G3 Y2.8558 J0.0925
G2 X2.9797 Y2.9183 J0.0625
G1 Y3.7869
G2 X3.0422 Y3.8494 I0.0625
G3 Y4.0344 J0.0925
G1 X2.1672
G2 X2.1047 Y4.0969 J0.0625
G1 Y5.4654
G2 X2.1672 Y5.5279 I0.0625
G1 X3.0422
G3 Y5.7129 J0.0925
G2 X2.9797 Y5.7754 J0.0625
G1 Z-0.48
Y6.644
G2 X3.0422 Y6.7065 I0.0625
G3 Y6.8915 J0.0925
G1 X2.1672
G2 X2.1047 Y6.954 J0.0625
G1 Y8.3226
G2 X2.1672 Y8.3851 I0.0625
G1 X3.0422
G3 Y8.5701 J0.0925
G2 X2.9797 Y8.6326 J0.0625
G1 Y9.7811
G2 X3.0422 Y9.8436 I0.0625
G1 X3.5622
G2 X3.6247 Y9.7811 J-0.0625
G3 X3.7172 Y9.6886 I0.0925
X3.8097 Y9.7811 J0.0925
G1 Y10.6561
G2 X3.8722 Y10.7186 I0.0625
G1 X4.6122
G2 X4.6747 Y10.6561 J-0.0625
G1 Y9.7811
G3 X4.7672 Y9.6886 I0.0925
X4.8597 Y9.7811 J0.0925
G2 X4.9222 Y9.8436 I0.0625
G1 X5.1622
G2 X5.2247 Y9.7811 J-0.0625
G3 X5.3172 Y9.6886 I0.0925
X5.4097 Y9.7811 J0.0925
G1 Y10.6561
G2 X5.4722 Y10.7186 I0.0625
G1 X6.2122
G2 X6.2747 Y10.6561 J-0.0625
G1 Y9.7811
G3 X6.4597 I0.0925
G2 X6.5222 Y9.8436 I0.0625
G1 X7.0422
G2 X7.1047 Y9.7811 J-0.0625
G1 Y8.6326
G2 X7.0422 Y8.5701 I-0.0625
G3 Y8.3851 J-0.0925
G1 X7.9172
G2 X7.9797 Y8.3226 J-0.0625
G1 Y6.954
G2 X7.9172 Y6.8915 I-0.0625
G1 X7.0422
G3 Y6.7065 J-0.0925
G2 X7.1047 Y6.644 J-0.0625
G1 Y5.7754
G2 X7.0422 Y5.7129 I-0.0625
G3 Y5.5279 J-0.0925
G1 X7.9172
G2 X7.9797 Y5.4654 J-0.0625
G1 Y4.0969
G2 X7.9172 Y4.0344 I-0.0625
G1 X7.0422
G3 Y3.8494 J-0.0925
G2 X7.1047 Y3.7869 J-0.0625
G1 Y2.9183
G2 X7.0422 Y2.8558 I-0.0625
G3 Y2.6708 J-0.0925
G1 X7.9172
G2 X7.9797 Y2.6083 J-0.0625
G1 Y1.2397
G2 X7.9172 Y1.1772 I-0.0625
G1 X7.0422
G3 Y0.9922 J-0.0925
G2 X7.1047 Y0.9297 J-0.0625
G1 Y-0.2189
G2 X7.0422 Y-0.2814 I-0.0625
G1 X3.0422
G2 X2.9797 Y-0.2189 J0.0625
G1 Y0.9297
G2 X3.0422 Y0.9922 I0.0625
G3 Y1.1772 J0.0925
G1 X2.1672
G2 X2.1047 Y1.2397 J0.0625
G1 Y2.6083
G2 X2.1672 Y2.6708 I0.0625
G1 X3.0422
G3 Y2.8558 J0.0925
G2 X2.9797 Y2.9183 J0.0625
G1 Y3.7869
G2 X3.0422 Y3.8494 I0.0625
G3 Y4.0344 J0.0925
G1 X2.1672
G2 X2.1047 Y4.0969 J0.0625
G1 Y5.4654
G2 X2.1672 Y5.5279 I0.0625
G1 X3.0422
G3 Y5.7129 J0.0925
G2 X2.9797 Y5.7754 J0.0625
G1 Z-0.6
Y6.644
G2 X3.0422 Y6.7065 I0.0625
G3 Y6.8915 J0.0925
G1 X2.1672
G2 X2.1047 Y6.954 J0.0625
G1 Y8.3226
G2 X2.1672 Y8.3851 I0.0625
G1 X3.0422
G3 Y8.5701 J0.0925
G2 X2.9797 Y8.6326 J0.0625
G1 Y9.7811
G2 X3.0422 Y9.8436 I0.0625
G1 X3.5622
G2 X3.6247 Y9.7811 J-0.0625
G3 X3.7172 Y9.6886 I0.0925
X3.8097 Y9.7811 J0.0925
G1 Y10.6561
G2 X3.8722 Y10.7186 I0.0625
G1 X4.6122
G2 X4.6747 Y10.6561 J-0.0625
G1 Y9.7811
G3 X4.7672 Y9.6886 I0.0925
X4.8597 Y9.7811 J0.0925
G2 X4.9222 Y9.8436 I0.0625
G1 X5.1622
G2 X5.2247 Y9.7811 J-0.0625
G3 X5.3172 Y9.6886 I0.0925
X5.4097 Y9.7811 J0.0925
G1 Y10.6561
G2 X5.4722 Y10.7186 I0.0625
G1 X6.2122
G2 X6.2747 Y10.6561 J-0.0625
G1 Y9.7811
G3 X6.4597 I0.0925
G2 X6.5222 Y9.8436 I0.0625
G1 X7.0422
G2 X7.1047 Y9.7811 J-0.0625
G1 Y8.6326
G2 X7.0422 Y8.5701 I-0.0625
G3 Y8.3851 J-0.0925
G1 X7.9172
G2 X7.9797 Y8.3226 J-0.0625
G1 Y6.954
G2 X7.9172 Y6.8915 I-0.0625
G1 X7.0422
G3 Y6.7065 J-0.0925
G2 X7.1047 Y6.644 J-0.0625
G1 Y5.7754
G2 X7.0422 Y5.7129 I-0.0625
G3 Y5.5279 J-0.0925
G1 X7.9172
G2 X7.9797 Y5.4654 J-0.0625
G1 Y4.0969
G2 X7.9172 Y4.0344 I-0.0625
G1 X7.0422
G3 Y3.8494 J-0.0925
G2 X7.1047 Y3.7869 J-0.0625
G1 Y2.9183
G2 X7.0422 Y2.8558 I-0.0625
G3 Y2.6708 J-0.0925
G1 X7.9172
G2 X7.9797 Y2.6083 J-0.0625
G1 Y1.2397
G2 X7.9172 Y1.1772 I-0.0625
G1 X7.0422
G3 Y0.9922 J-0.0925
G2 X7.1047 Y0.9297 J-0.0625
G1 Y-0.2189
G2 X7.0422 Y-0.2814 I-0.0625
G1 X3.0422
G2 X2.9797 Y-0.2189 J0.0625
G1 Y0.9297
G2 X3.0422 Y0.9922 I0.0625
G3 Y1.1772 J0.0925
G1 X2.1672
G2 X2.1047 Y1.2397 J0.0625
G1 Y2.6083
G2 X2.1672 Y2.6708 I0.0625
G1 X3.0422
G3 Y2.8558 J0.0925
G2 X2.9797 Y2.9183 J0.0625
G1 Y3.7869
G2 X3.0422 Y3.8494 I0.0625
G3 Y4.0344 J0.0925
G1 X2.1672
G2 X2.1047 Y4.0969 J0.0625
G1 Y5.4654
G2 X2.1672 Y5.5279 I0.0625
G1 X3.0422
G3 Y5.7129 J0.0925
G2 X2.9797 Y5.7754 J0.0625
G1 Z-0.72
Y6.644
G2 X3.0422 Y6.7065 I0.0625
G3 Y6.8915 J0.0925
G1 X2.1672
G2 X2.1047 Y6.954 J0.0625
G1 Y8.3226
G2 X2.1672 Y8.3851 I0.0625
G1 X3.0422
G3 Y8.5701 J0.0925
G2 X2.9797 Y8.6326 J0.0625
G1 Y9.7811
G2 X3.0422 Y9.8436 I0.0625
G1 X3.5622
G2 X3.6247 Y9.7811 J-0.0625
G3 X3.7172 Y9.6886 I0.0925
X3.8097 Y9.7811 J0.0925
G1 Y10.6561
G2 X3.8722 Y10.7186 I0.0625
G1 X4.6122
G2 X4.6747 Y10.6561 J-0.0625
G1 Y9.7811
G3 X4.7672 Y9.6886 I0.0925
X4.8597 Y9.7811 J0.0925
G2 X4.9222 Y9.8436 I0.0625
G1 X5.1622
G2 X5.2247 Y9.7811 J-0.0625
G3 X5.3172 Y9.6886 I0.0925
X5.4097 Y9.7811 J0.0925
G1 Y10.6561
G2 X5.4722 Y10.7186 I0.0625
G1 X6.2122
G2 X6.2747 Y10.6561 J-0.0625
G1 Y9.7811
G3 X6.4597 I0.0925
G2 X6.5222 Y9.8436 I0.0625
G1 X7.0422
G2 X7.1047 Y9.7811 J-0.0625
G1 Y8.6326
G2 X7.0422 Y8.5701 I-0.0625
G3 Y8.3851 J-0.0925
G1 X7.9172
G2 X7.9797 Y8.3226 J-0.0625
G1 Y6.954
G2 X7.9172 Y6.8915 I-0.0625
G1 X7.0422
G3 Y6.7065 J-0.0925
G2 X7.1047 Y6.644 J-0.0625
G1 Y5.7754
G2 X7.0422 Y5.7129 I-0.0625
G3 Y5.5279 J-0.0925
G1 X7.9172
G2 X7.9797 Y5.4654 J-0.0625
G1 Y4.0969
G2 X7.9172 Y4.0344 I-0.0625
G1 X7.0422
G3 Y3.8494 J-0.0925
G2 X7.1047 Y3.7869 J-0.0625
G1 Y2.9183
G2 X7.0422 Y2.8558 I-0.0625
G3 Y2.6708 J-0.0925
G1 X7.9172
G2 X7.9797 Y2.6083 J-0.0625
G1 Y1.2397
G2 X7.9172 Y1.1772 I-0.0625
G1 X7.0422
G3 Y0.9922 J-0.0925
G2 X7.1047 Y0.9297 J-0.0625
G1 Y-0.2189
G2 X7.0422 Y-0.2814 I-0.0625
G1 X3.0422
G2 X2.9797 Y-0.2189 J0.0625
G1 Y0.9297
G2 X3.0422 Y0.9922 I0.0625
G3 Y1.1772 J0.0925
G1 X2.1672
G2 X2.1047 Y1.2397 J0.0625
G1 Y2.6083
G2 X2.1672 Y2.6708 I0.0625
G1 X3.0422
G3 Y2.8558 J0.0925
G2 X2.9797 Y2.9183 J0.0625
G1 Y3.7869
G2 X3.0422 Y3.8494 I0.0625
G3 Y4.0344 J0.0925
G1 X2.1672
G2 X2.1047 Y4.0969 J0.0625
G1 Y5.4654
G2 X2.1672 Y5.5279 I0.0625
G1 X3.0422
G3 Y5.7129 J0.0925
G2 X2.9797 Y5.7754 J0.0625
G1 Z-0.84
Y6.644
G2 X3.0422 Y6.7065 I0.0625
G3 Y6.8915 J0.0925
G1 X2.1672
G2 X2.1047 Y6.954 J0.0625
G1 Y8.3226
G2 X2.1672 Y8.3851 I0.0625
G1 X3.0422
G3 Y8.5701 J0.0925
G2 X2.9797 Y8.6326 J0.0625
G1 Y9.7811
G2 X3.0422 Y9.8436 I0.0625
G1 X3.5622
G2 X3.6247 Y9.7811 J-0.0625
G3 X3.7172 Y9.6886 I0.0925
X3.8097 Y9.7811 J0.0925
G1 Y10.6561
G2 X3.8722 Y10.7186 I0.0625
G1 X4.6122
G2 X4.6747 Y10.6561 J-0.0625
G1 Y9.7811
G3 X4.7672 Y9.6886 I0.0925
X4.8597 Y9.7811 J0.0925
G2 X4.9222 Y9.8436 I0.0625
G1 X5.1622
G2 X5.2247 Y9.7811 J-0.0625
G3 X5.3172 Y9.6886 I0.0925
X5.4097 Y9.7811 J0.0925
G1 Y10.6561
G2 X5.4722 Y10.7186 I0.0625
G1 X6.2122
G2 X6.2747 Y10.6561 J-0.0625
G1 Y9.7811
G3 X6.4597 I0.0925
G2 X6.5222 Y9.8436 I0.0625
G1 X7.0422
G2 X7.1047 Y9.7811 J-0.0625
G1 Y8.6326
G2 X7.0422 Y8.5701 I-0.0625
G3 Y8.3851 J-0.0925
G1 X7.9172
G2 X7.9797 Y8.3226 J-0.0625
G1 Y6.954
G2 X7.9172 Y6.8915 I-0.0625
G1 X7.0422
G3 Y6.7065 J-0.0925
G2 X7.1047 Y6.644 J-0.0625
G1 Y5.7754
G2 X7.0422 Y5.7129 I-0.0625
G3 Y5.5279 J-0.0925
G1 X7.9172
G2 X7.9797 Y5.4654 J-0.0625
G1 Y4.0969
G2 X7.9172 Y4.0344 I-0.0625
G1 X7.0422
G3 Y3.8494 J-0.0925
G2 X7.1047 Y3.7869 J-0.0625
G1 Y2.9183
G2 X7.0422 Y2.8558 I-0.0625
G3 Y2.6708 J-0.0925
G1 X7.9172
G2 X7.9797 Y2.6083 J-0.0625
G1 Y1.2397
G2 X7.9172 Y1.1772 I-0.0625
G1 X7.0422
G3 Y0.9922 J-0.0925
G2 X7.1047 Y0.9297 J-0.0625
G1 Y-0.2189
G2 X7.0422 Y-0.2814 I-0.0625
G1 X3.0422
G2 X2.9797 Y-0.2189 J0.0625
G1 Y0.9297
G2 X3.0422 Y0.9922 I0.0625
G3 Y1.1772 J0.0925
G1 X2.1672
G2 X2.1047 Y1.2397 J0.0625
G1 Y2.6083
G2 X2.1672 Y2.6708 I0.0625
G1 X3.0422
G3 Y2.8558 J0.0925
G2 X2.9797 Y2.9183 J0.0625
G1 Y3.7869
G2 X3.0422 Y3.8494 I0.0625
G3 Y4.0344 J0.0925
G1 X2.1672
G2 X2.1047 Y4.0969 J0.0625
G1 Y5.4654
G2 X2.1672 Y5.5279 I0.0625
G1 X3.0422
G3 Y5.7129 J0.0925
G2 X2.9797 Y5.7754 J0.0625
G1 Z-0.96
Y6.644
G2 X3.0422 Y6.7065 I0.0625
G3 Y6.8915 J0.0925
G1 X2.1672
G2 X2.1047 Y6.954 J0.0625
G1 Y8.3226
G2 X2.1672 Y8.3851 I0.0625
G1 X3.0422
G3 Y8.5701 J0.0925
G2 X2.9797 Y8.6326 J0.0625
G1 Y9.7811
G2 X3.0422 Y9.8436 I0.0625
G1 X3.5622
G2 X3.6247 Y9.7811 J-0.0625
G3 X3.7172 Y9.6886 I0.0925
X3.8097 Y9.7811 J0.0925
G1 Y10.6561
G2 X3.8722 Y10.7186 I0.0625
G1 X4.6122
G2 X4.6747 Y10.6561 J-0.0625
G1 Y9.7811
G3 X4.7672 Y9.6886 I0.0925
X4.8597 Y9.7811 J0.0925
G2 X4.9222 Y9.8436 I0.0625
G1 X5.1622
G2 X5.2247 Y9.7811 J-0.0625
G3 X5.3172 Y9.6886 I0.0925
X5.4097 Y9.7811 J0.0925
G1 Y10.6561
G2 X5.4722 Y10.7186 I0.0625
G1 X6.2122
G2 X6.2747 Y10.6561 J-0.0625
G1 Y9.7811
G3 X6.4597 I0.0925
G2 X6.5222 Y9.8436 I0.0625
G1 X7.0422
G2 X7.1047 Y9.7811 J-0.0625
G1 Y8.6326
G2 X7.0422 Y8.5701 I-0.0625
G3 Y8.3851 J-0.0925
G1 X7.9172
G2 X7.9797 Y8.3226 J-0.0625
G1 Y6.954
G2 X7.9172 Y6.8915 I-0.0625
G1 X7.0422
G3 Y6.7065 J-0.0925
G2 X7.1047 Y6.644 J-0.0625
G1 Y5.7754
G2 X7.0422 Y5.7129 I-0.0625
G3 Y5.5279 J-0.0925
G1 X7.9172
G2 X7.9797 Y5.4654 J-0.0625
G1 Y4.0969
G2 X7.9172 Y4.0344 I-0.0625
G1 X7.0422
G3 Y3.8494 J-0.0925
G2 X7.1047 Y3.7869 J-0.0625
G1 Y2.9183
G2 X7.0422 Y2.8558 I-0.0625
G3 Y2.6708 J-0.0925
G1 X7.9172
G2 X7.9797 Y2.6083 J-0.0625
G1 Y1.2397
G2 X7.9172 Y1.1772 I-0.0625
G1 X7.0422
G3 Y0.9922 J-0.0925
G2 X7.1047 Y0.9297 J-0.0625
G1 Y-0.2189
G2 X7.0422 Y-0.2814 I-0.0625
G1 X3.0422
G2 X2.9797 Y-0.2189 J0.0625
G1 Y0.9297
G2 X3.0422 Y0.9922 I0.0625
G3 Y1.1772 J0.0925
G1 X2.1672
G2 X2.1047 Y1.2397 J0.0625
G1 Y2.6083
G2 X2.1672 Y2.6708 I0.0625
G1 X3.0422
G3 Y2.8558 J0.0925
G2 X2.9797 Y2.9183 J0.0625
G1 Y3.7869
G2 X3.0422 Y3.8494 I0.0625
G3 Y4.0344 J0.0925
G1 X2.1672
G2 X2.1047 Y4.0969 J0.0625
G1 Y5.4654
G2 X2.1672 Y5.5279 I0.0625
G1 X3.0422
G3 Y5.7129 J0.0925
G2 X2.9797 Y5.7754 J0.0625
G1 Z-1.01
Y6.644
G2 X3.0422 Y6.7065 I0.0625
G3 Y6.8915 J0.0925
G1 X2.1672
G2 X2.1047 Y6.954 J0.0625
G1 Y7.5133
Z-0.9787
Y7.7633
Z-1.01
Y8.3226
G2 X2.1672 Y8.3851 I0.0625
G1 X3.0422
G3 Y8.5701 J0.0925
G2 X2.9797 Y8.6326 J0.0625
G1 Y9.0819
Z-0.9787
Y9.3319
Z-1.01
Y9.7811
G2 X3.0422 Y9.8436 I0.0625
G1 X3.5622
G2 X3.6247 Y9.7811 J-0.0625
G3 X3.7172 Y9.6886 I0.0925
X3.8097 Y9.7811 J0.0925
G1 Y10.6561
G2 X3.8722 Y10.7186 I0.0625
G1 X4.6122
G2 X4.6747 Y10.6561 J-0.0625
G1 Y9.7811
G3 X4.7672 Y9.6886 I0.0925
X4.8597 Y9.7811 J0.0925
G2 X4.9222 Y9.8436 I0.0625
G1 X5.1622
G2 X5.2247 Y9.7811 J-0.0625
G3 X5.3172 Y9.6886 I0.0925
X5.4097 Y9.7811 J0.0925
G1 Y10.6561
G2 X5.4722 Y10.7186 I0.0625
G1 X6.2122
G2 X6.2747 Y10.6561 J-0.0625
G1 Y9.7811
G3 X6.4597 I0.0925
G2 X6.5222 Y9.8436 I0.0625
G1 X7.0422
G2 X7.1047 Y9.7811 J-0.0625
G1 Y9.3319
Z-0.9787
Y9.0819
Z-1.01
Y8.6326
G2 X7.0422 Y8.5701 I-0.0625
G3 Y8.3851 J-0.0925
G1 X7.9172
G2 X7.9797 Y8.3226 J-0.0625
G1 Y7.7633
Z-0.9787
Y7.5133
Z-1.01
Y6.954
G2 X7.9172 Y6.8915 I-0.0625
G1 X7.0422
G3 Y6.7065 J-0.0925
G2 X7.1047 Y6.644 J-0.0625
G1 Y5.7754
G2 X7.0422 Y5.7129 I-0.0625
G3 Y5.5279 J-0.0925
G1 X7.9172
G2 X7.9797 Y5.4654 J-0.0625
G1 Y4.9061
Z-0.9787
Y4.6561
Z-1.01
Y4.0969
G2 X7.9172 Y4.0344 I-0.0625
G1 X7.0422
G3 Y3.8494 J-0.0925
G2 X7.1047 Y3.7869 J-0.0625
G1 Y2.9183
G2 X7.0422 Y2.8558 I-0.0625
G3 Y2.6708 J-0.0925
G1 X7.9172
G2 X7.9797 Y2.6083 J-0.0625
G1 Y2.049
Z-0.9787
Y1.799
Z-1.01
Y1.2397
G2 X7.9172 Y1.1772 I-0.0625
G1 X7.0422
G3 Y0.9922 J-0.0925
G2 X7.1047 Y0.9297 J-0.0625
G1 Y0.4804
Z-0.9787
Y0.2304
Z-1.01
Y-0.2189
G2 X7.0422 Y-0.2814 I-0.0625
G1 X6.6672
Z-0.9787
X6.4172
Z-1.01
X5.6672
Z-0.9787
X5.4172
Z-1.01
X4.6672
Z-0.9787
X4.4172
Z-1.01
X3.6672
Z-0.9787
X3.4172
Z-1.01
X3.0422
G2 X2.9797 Y-0.2189 J0.0625
G1 Y0.2304
Z-0.9787
Y0.4804
Z-1.01
Y0.9297
G2 X3.0422 Y0.9922 I0.0625
G3 Y1.1772 J0.0925
G1 X2.1672
G2 X2.1047 Y1.2397 J0.0625
G1 Y1.799
Z-0.9787
Y2.049
Z-1.01
Y2.6083
G2 X2.1672 Y2.6708 I0.0625
G1 X3.0422
G3 Y2.8558 J0.0925
G2 X2.9797 Y2.9183 J0.0625
G1 Y3.7869
G2 X3.0422 Y3.8494 I0.0625
G3 Y4.0344 J0.0925
G1 X2.1672
G2 X2.1047 Y4.0969 J0.0625
G1 Y4.6561
Z-0.9787
Y4.9061
Z-1.01
Y5.4654
G2 X2.1672 Y5.5279 I0.0625
G1 X3.0422
G3 Y5.7129 J0.0925
G2 X2.9797 Y5.7754 J0.0625
G0 Z0.2
M9
G28 G91 Z0
G28 X0 Y0
M30
%
