%
(Letterbox base)
(T1  D=0.125 CR=0 - ZMIN=-1.01 - flat end mill)
G90 G94
G17
G20
G28 G91 Z0
G90

(Base)
M9
T1 M6
S10000 M3
G54
M9
G0 X7.9752 Y-5.4691
Z0.2
G1 Z-0.2 F20
X7.7252
G3 Y-5.5941 J-0.0625
G2 X7.7877 Y-5.6566 J-0.0625
G1 Y-6.7446
G2 X7.7252 Y-6.8071 I-0.0625
G3 Y-7.0521 J-0.1225
G1 X8.5976
G2 X8.6601 Y-7.1146 J-0.0625
G1 Y-8.7026
G2 X8.5976 Y-8.7651 I-0.0625
G1 X7.7252
G3 Y-8.8901 J-0.0625
G2 X7.7877 Y-8.9526 J-0.0625
G1 Y-10.0406
G2 X7.7252 Y-10.1031 I-0.0625
G3 Y-10.3481 J-0.1225
G1 X8.5976
G2 X8.6601 Y-10.4106 J-0.0625
G1 Y-11.2207
G2 X8.5976 Y-11.2832 I-0.0625
G1 X6.9576
G2 X6.8951 Y-11.2207 J0.0625
G1 Y-10.3363
G3 X6.7101 I-0.0925
G2 X6.6476 Y-10.3988 I-0.0625
G1 X6.4076
G2 X6.3451 Y-10.3363 J0.0625
G3 X6.2526 Y-10.2438 I-0.0925
X6.1601 Y-10.3363 J-0.0925
G1 Y-11.2207
G2 X6.0976 Y-11.2832 I-0.0625
G1 X5.3576
G2 X5.2951 Y-11.2207 J0.0625
G1 Y-10.3363
G3 X5.1101 I-0.0925
G2 X5.0476 Y-10.3988 I-0.0625
G1 X4.8076
G2 X4.7451 Y-10.3363 J0.0625
G3 X4.5601 I-0.0925
G1 Y-11.2207
G2 X4.4976 Y-11.2832 I-0.0625
G1 X2.8476
G2 X2.7851 Y-11.2207 J0.0625
G1 Y-10.3893
G2 X2.8476 Y-10.3268 I0.0625
G1 X3.7258
G3 Y-10.0818 J0.1225
G2 X3.6633 Y-10.0193 J0.0625
G1 Y-8.9313
G2 X3.7258 Y-8.8688 I0.0625
G3 Y-8.7438 J0.0625
G1 X2.8476
G2 X2.7851 Y-8.6813 J0.0625
G1 Y-7.0933
G2 X2.8476 Y-7.0308 I0.0625
G1 X3.7258
G3 Y-6.7858 J0.1225
G2 X3.6633 Y-6.7233 J0.0625
G1 Y-5.6353
G2 X3.7258 Y-5.5728 I0.0625
G3 Y-5.4478 J0.0625
G1 X2.8476
G2 X2.7851 Y-5.3853 J0.0625
G1 Y-3.7973
G2 X2.8476 Y-3.7348 I0.0625
G1 X3.7258
G3 Y-3.4898 J0.1225
G2 X3.6633 Y-3.4273 J0.0625
G1 Y-2.3393
G2 X3.7258 Y-2.2768 I0.0625
G3 Y-2.1518 J0.0625
G1 X2.8476
G2 X2.7851 Y-2.0893 J0.0625
G1 Y-1.2207
G2 X2.8476 Y-1.1582 I0.0625
G1 X4.4976
G2 X4.5601 Y-1.2207 J-0.0625
G1 Y-2.0914
G3 X4.7451 I0.0925
G2 X4.8076 Y-2.0289 I0.0625
G1 X5.0476
G2 X5.1101 Y-2.0914 J-0.0625
G3 X5.2951 I0.0925
G1 Y-1.2207
G2 X5.3576 Y-1.1582 I0.0625
G1 X6.0976
G2 X6.1601 Y-1.2207 J-0.0625
G1 Y-2.0914
G3 X6.3451 I0.0925
G2 X6.4076 Y-2.0289 I0.0625
G1 X6.6476
G2 X6.7101 Y-2.0914 J-0.0625
G3 X6.8951 I0.0925
G1 Y-1.2207
G2 X6.9576 Y-1.1582 I0.0625
G1 X8.5976
G2 X8.6601 Y-1.2207 J-0.0625
G1 Y-2.1106
G2 X8.5976 Y-2.1731 I-0.0625
G1 X7.7252
G3 Y-2.2981 J-0.0625
G2 X7.7877 Y-2.3606 J-0.0625
G1 Y-3.4486
G2 X7.7252 Y-3.5111 I-0.0625
G3 Y-3.7561 J-0.1225
G1 X8.5976
G2 X8.6601 Y-3.8186 J-0.0625
G1 Y-5.4066
G2 X8.5976 Y-5.4691 I-0.0625
G1 X7.9752
Z-0.4
X7.7252
G3 Y-5.5941 J-0.0625
G2 X7.7877 Y-5.6566 J-0.0625
G1 Y-6.7446
G2 X7.7252 Y-6.8071 I-0.0625
G3 Y-7.0521 J-0.1225
G1 X8.5976
G2 X8.6601 Y-7.1146 J-0.0625
G1 Y-8.7026
G2 X8.5976 Y-8.7651 I-0.0625
G1 X7.7252
G3 Y-8.8901 J-0.0625
G2 X7.7877 Y-8.9526 J-0.0625
G1 Y-10.0406
G2 X7.7252 Y-10.1031 I-0.0625
G3 Y-10.3481 J-0.1225
G1 X8.5976
G2 X8.6601 Y-10.4106 J-0.0625
G1 Y-11.2207
G2 X8.5976 Y-11.2832 I-0.0625
G1 X6.9576
G2 X6.8951 Y-11.2207 J0.0625
G1 Y-10.3363
G3 X6.7101 I-0.0925
G2 X6.6476 Y-10.3988 I-0.0625
G1 X6.4076
G2 X6.3451 Y-10.3363 J0.0625
G3 X6.2526 Y-10.2438 I-0.0925
X6.1601 Y-10.3363 J-0.0925
G1 Y-11.2207
G2 X6.0976 Y-11.2832 I-0.0625
G1 X5.3576
G2 X5.2951 Y-11.2207 J0.0625
G1 Y-10.3363
G3 X5.1101 I-0.0925
G2 X5.0476 Y-10.3988 I-0.0625
G1 X4.8076
G2 X4.7451 Y-10.3363 J0.0625
G3 X4.5601 I-0.0925
G1 Y-11.2207
G2 X4.4976 Y-11.2832 I-0.0625
G1 X2.8476
G2 X2.7851 Y-11.2207 J0.0625
G1 Y-10.3893
G2 X2.8476 Y-10.3268 I0.0625
G1 X3.7258
G3 Y-10.0818 J0.1225
G2 X3.6633 Y-10.0193 J0.0625
G1 Y-8.9313
G2 X3.7258 Y-8.8688 I0.0625
G3 Y-8.7438 J0.0625
G1 X2.8476
G2 X2.7851 Y-8.6813 J0.0625
G1 Y-7.0933
G2 X2.8476 Y-7.0308 I0.0625
G1 X3.7258
G3 Y-6.7858 J0.1225
G2 X3.6633 Y-6.7233 J0.0625
G1 Y-5.6353
G2 X3.7258 Y-5.5728 I0.0625
G3 Y-5.4478 J0.0625
G1 X2.8476
G2 X2.7851 Y-5.3853 J0.0625
G1 Y-3.7973
G2 X2.8476 Y-3.7348 I0.0625
G1 X3.7258
G3 Y-3.4898 J0.1225
G2 X3.6633 Y-3.4273 J0.0625
G1 Y-2.3393
G2 X3.7258 Y-2.2768 I0.0625
G3 Y-2.1518 J0.0625
G1 X2.8476
G2 X2.7851 Y-2.0893 J0.0625
G1 Y-1.2207
G2 X2.8476 Y-1.1582 I0.0625
G1 X4.4976
G2 X4.5601 Y-1.2207 J-0.0625
G1 Y-2.0914
G3 X4.7451 I0.0925
G2 X4.8076 Y-2.0289 I0.0625
G1 X5.0476
G2 X5.1101 Y-2.0914 J-0.0625
G3 X5.2951 I0.0925
G1 Y-1.2207
G2 X5.3576 Y-1.1582 I0.0625
G1 X6.0976
G2 X6.1601 Y-1.2207 J-0.0625
G1 Y-2.0914
G3 X6.3451 I0.0925
G2 X6.4076 Y-2.0289 I0.0625
G1 X6.6476
G2 X6.7101 Y-2.0914 J-0.0625
G3 X6.8951 I0.0925
G1 Y-1.2207
G2 X6.9576 Y-1.1582 I0.0625
G1 X8.5976
G2 X8.6601 Y-1.2207 J-0.0625
G1 Y-2.1106
G2 X8.5976 Y-2.1731 I-0.0625
G1 X7.7252
G3 Y-2.2981 J-0.0625
G2 X7.7877 Y-2.3606 J-0.0625
G1 Y-3.4486
G2 X7.7252 Y-3.5111 I-0.0625
G3 Y-3.7561 J-0.1225
G1 X8.5976
G2 X8.6601 Y-3.8186 J-0.0625
G1 Y-5.4066
G2 X8.5976 Y-5.4691 I-0.0625
G1 X7.9752
Z-0.6
X7.7252
G3 Y-5.5941 J-0.0625
G2 X7.7877 Y-5.6566 J-0.0625
G1 Y-6.7446
G2 X7.7252 Y-6.8071 I-0.0625
G3 Y-7.0521 J-0.1225
G1 X8.5976
G2 X8.6601 Y-7.1146 J-0.0625
G1 Y-8.7026
G2 X8.5976 Y-8.7651 I-0.0625
G1 X7.7252
G3 Y-8.8901 J-0.0625
G2 X7.7877 Y-8.9526 J-0.0625
G1 Y-10.0406
G2 X7.7252 Y-10.1031 I-0.0625
G3 Y-10.3481 J-0.1225
G1 X8.5976
G2 X8.6601 Y-10.4106 J-0.0625
G1 Y-11.2207
G2 X8.5976 Y-11.2832 I-0.0625
G1 X6.9576
G2 X6.8951 Y-11.2207 J0.0625
G1 Y-10.3363
G3 X6.7101 I-0.0925
G2 X6.6476 Y-10.3988 I-0.0625
G1 X6.4076
G2 X6.3451 Y-10.3363 J0.0625
G3 X6.2526 Y-10.2438 I-0.0925
X6.1601 Y-10.3363 J-0.0925
G1 Y-11.2207
G2 X6.0976 Y-11.2832 I-0.0625
G1 X5.3576
G2 X5.2951 Y-11.2207 J0.0625
G1 Y-10.3363
G3 X5.1101 I-0.0925
G2 X5.0476 Y-10.3988 I-0.0625
G1 X4.8076
G2 X4.7451 Y-10.3363 J0.0625
G3 X4.5601 I-0.0925
G1 Y-11.2207
G2 X4.4976 Y-11.2832 I-0.0625
G1 X2.8476
G2 X2.7851 Y-11.2207 J0.0625
G1 Y-10.3893
G2 X2.8476 Y-10.3268 I0.0625
G1 X3.7258
G3 Y-10.0818 J0.1225
G2 X3.6633 Y-10.0193 J0.0625
G1 Y-8.9313
G2 X3.7258 Y-8.8688 I0.0625
G3 Y-8.7438 J0.0625
G1 X2.8476
G2 X2.7851 Y-8.6813 J0.0625
G1 Y-7.0933
G2 X2.8476 Y-7.0308 I0.0625
G1 X3.7258
G3 Y-6.7858 J0.1225
G2 X3.6633 Y-6.7233 J0.0625
G1 Y-5.6353
G2 X3.7258 Y-5.5728 I0.0625
G3 Y-5.4478 J0.0625
G1 X2.8476
G2 X2.7851 Y-5.3853 J0.0625
G1 Y-3.7973
G2 X2.8476 Y-3.7348 I0.0625
G1 X3.7258
G3 Y-3.4898 J0.1225
G2 X3.6633 Y-3.4273 J0.0625
G1 Y-2.3393
G2 X3.7258 Y-2.2768 I0.0625
G3 Y-2.1518 J0.0625
G1 X2.8476
G2 X2.7851 Y-2.0893 J0.0625
G1 Y-1.2207
G2 X2.8476 Y-1.1582 I0.0625
G1 X4.4976
G2 X4.5601 Y-1.2207 J-0.0625
G1 Y-2.0914
G3 X4.7451 I0.0925
G2 X4.8076 Y-2.0289 I0.0625
G1 X5.0476
G2 X5.1101 Y-2.0914 J-0.0625
G3 X5.2951 I0.0925
G1 Y-1.2207
G2 X5.3576 Y-1.1582 I0.0625
G1 X6.0976
G2 X6.1601 Y-1.2207 J-0.0625
G1 Y-2.0914
G3 X6.3451 I0.0925
G2 X6.4076 Y-2.0289 I0.0625
G1 X6.6476
G2 X6.7101 Y-2.0914 J-0.0625
G3 X6.8951 I0.0925
G1 Y-1.2207
G2 X6.9576 Y-1.1582 I0.0625
G1 X8.5976
G2 X8.6601 Y-1.2207 J-0.0625
G1 Y-2.1106
G2 X8.5976 Y-2.1731 I-0.0625
G1 X7.7252
G3 Y-2.2981 J-0.0625
G2 X7.7877 Y-2.3606 J-0.0625
G1 Y-3.4486
G2 X7.7252 Y-3.5111 I-0.0625
G3 Y-3.7561 J-0.1225
G1 X8.5976
G2 X8.6601 Y-3.8186 J-0.0625
G1 Y-5.4066
G2 X8.5976 Y-5.4691 I-0.0625
G1 X7.9752
Z-0.8
X7.7252
G3 Y-5.5941 J-0.0625
G2 X7.7877 Y-5.6566 J-0.0625
G1 Y-6.7446
G2 X7.7252 Y-6.8071 I-0.0625
G3 Y-7.0521 J-0.1225
G1 X8.5976
G2 X8.6601 Y-7.1146 J-0.0625
G1 Y-8.7026
G2 X8.5976 Y-8.7651 I-0.0625
G1 X7.7252
G3 Y-8.8901 J-0.0625
G2 X7.7877 Y-8.9526 J-0.0625
G1 Y-10.0406
G2 X7.7252 Y-10.1031 I-0.0625
G3 Y-10.3481 J-0.1225
G1 X8.5976
G2 X8.6601 Y-10.4106 J-0.0625
G1 Y-11.2207
G2 X8.5976 Y-11.2832 I-0.0625
G1 X6.9576
G2 X6.8951 Y-11.2207 J0.0625
G1 Y-10.3363
G3 X6.7101 I-0.0925
G2 X6.6476 Y-10.3988 I-0.0625
G1 X6.4076
G2 X6.3451 Y-10.3363 J0.0625
G3 X6.2526 Y-10.2438 I-0.0925
X6.1601 Y-10.3363 J-0.0925
G1 Y-11.2207
G2 X6.0976 Y-11.2832 I-0.0625
G1 X5.3576
G2 X5.2951 Y-11.2207 J0.0625
G1 Y-10.3363
G3 X5.1101 I-0.0925
G2 X5.0476 Y-10.3988 I-0.0625
G1 X4.8076
G2 X4.7451 Y-10.3363 J0.0625
G3 X4.5601 I-0.0925
G1 Y-11.2207
G2 X4.4976 Y-11.2832 I-0.0625
G1 X2.8476
G2 X2.7851 Y-11.2207 J0.0625
G1 Y-10.3893
G2 X2.8476 Y-10.3268 I0.0625
G1 X3.7258
G3 Y-10.0818 J0.1225
G2 X3.6633 Y-10.0193 J0.0625
G1 Y-8.9313
G2 X3.7258 Y-8.8688 I0.0625
G3 Y-8.7438 J0.0625
G1 X2.8476
G2 X2.7851 Y-8.6813 J0.0625
G1 Y-7.0933
G2 X2.8476 Y-7.0308 I0.0625
G1 X3.7258
G3 Y-6.7858 J0.1225
G2 X3.6633 Y-6.7233 J0.0625
G1 Y-5.6353
G2 X3.7258 Y-5.5728 I0.0625
G3 Y-5.4478 J0.0625
G1 X2.8476
G2 X2.7851 Y-5.3853 J0.0625
G1 Y-3.7973
G2 X2.8476 Y-3.7348 I0.0625
G1 X3.7258
G3 Y-3.4898 J0.1225
G2 X3.6633 Y-3.4273 J0.0625
G1 Y-2.3393
G2 X3.7258 Y-2.2768 I0.0625
G3 Y-2.1518 J0.0625
G1 X2.8476
G2 X2.7851 Y-2.0893 J0.0625
G1 Y-1.2207
G2 X2.8476 Y-1.1582 I0.0625
G1 X4.4976
G2 X4.5601 Y-1.2207 J-0.0625
G1 Y-2.0914
G3 X4.7451 I0.0925
G2 X4.8076 Y-2.0289 I0.0625
G1 X5.0476
G2 X5.1101 Y-2.0914 J-0.0625
G3 X5.2951 I0.0925
G1 Y-1.2207
G2 X5.3576 Y-1.1582 I0.0625
G1 X6.0976
G2 X6.1601 Y-1.2207 J-0.0625
G1 Y-2.0914
G3 X6.3451 I0.0925
G2 X6.4076 Y-2.0289 I0.0625
G1 X6.6476
G2 X6.7101 Y-2.0914 J-0.0625
G3 X6.8951 I0.0925
G1 Y-1.2207
G2 X6.9576 Y-1.1582 I0.0625
G1 X8.5976
G2 X8.6601 Y-1.2207 J-0.0625
G1 Y-2.1106
G2 X8.5976 Y-2.1731 I-0.0625
G1 X7.7252
G3 Y-2.2981 J-0.0625
G2 X7.7877 Y-2.3606 J-0.0625
G1 Y-3.4486
G2 X7.7252 Y-3.5111 I-0.0625
G3 Y-3.7561 J-0.1225
G1 X8.5976
G2 X8.6601 Y-3.8186 J-0.0625
G1 Y-5.4066
G2 X8.5976 Y-5.4691 I-0.0625
G1 X7.9752
Z-0.905
X7.7252
G3 Y-5.5941 J-0.0625
G2 X7.7877 Y-5.6566 J-0.0625
G1 Y-6.7446
G2 X7.7252 Y-6.8071 I-0.0625
G3 Y-7.0521 J-0.1225
G1 X8.5976
G2 X8.6601 Y-7.1146 J-0.0625
G1 Y-8.7026
G2 X8.5976 Y-8.7651 I-0.0625
G1 X7.7252
G3 Y-8.8901 J-0.0625
G2 X7.7877 Y-8.9526 J-0.0625
G1 Y-10.0406
G2 X7.7252 Y-10.1031 I-0.0625
G3 Y-10.3481 J-0.1225
G1 X8.5976
G2 X8.6601 Y-10.4106 J-0.0625
G1 Y-11.2207
G2 X8.5976 Y-11.2832 I-0.0625
G1 X6.9576
G2 X6.8951 Y-11.2207 J0.0625
G1 Y-10.3363
G3 X6.7101 I-0.0925
G2 X6.6476 Y-10.3988 I-0.0625
G1 X6.4076
G2 X6.3451 Y-10.3363 J0.0625
G3 X6.2526 Y-10.2438 I-0.0925
X6.1601 Y-10.3363 J-0.0925
G1 Y-11.2207
G2 X6.0976 Y-11.2832 I-0.0625
G1 X5.3576
G2 X5.2951 Y-11.2207 J0.0625
G1 Y-10.3363
G3 X5.1101 I-0.0925
G2 X5.0476 Y-10.3988 I-0.0625
G1 X4.8076
G2 X4.7451 Y-10.3363 J0.0625
G3 X4.5601 I-0.0925
G1 Y-11.2207
G2 X4.4976 Y-11.2832 I-0.0625
G1 X2.8476
G2 X2.7851 Y-11.2207 J0.0625
G1 Y-10.3893
G2 X2.8476 Y-10.3268 I0.0625
G1 X3.7258
G3 Y-10.0818 J0.1225
G2 X3.6633 Y-10.0193 J0.0625
G1 Y-8.9313
G2 X3.7258 Y-8.8688 I0.0625
G3 Y-8.7438 J0.0625
G1 X2.8476
G2 X2.7851 Y-8.6813 J0.0625
G1 Y-7.0933
G2 X2.8476 Y-7.0308 I0.0625
G1 X3.7258
G3 Y-6.7858 J0.1225
G2 X3.6633 Y-6.7233 J0.0625
G1 Y-5.6353
G2 X3.7258 Y-5.5728 I0.0625
G3 Y-5.4478 J0.0625
G1 X2.8476
G2 X2.7851 Y-5.3853 J0.0625
G1 Y-3.7973
G2 X2.8476 Y-3.7348 I0.0625
G1 X3.7258
G3 Y-3.4898 J0.1225
G2 X3.6633 Y-3.4273 J0.0625
G1 Y-2.3393
G2 X3.7258 Y-2.2768 I0.0625
G3 Y-2.1518 J0.0625
G1 X2.8476
G2 X2.7851 Y-2.0893 J0.0625
G1 Y-1.2207
G2 X2.8476 Y-1.1582 I0.0625
G1 X4.4976
G2 X4.5601 Y-1.2207 J-0.0625
G1 Y-2.0914
G3 X4.7451 I0.0925
G2 X4.8076 Y-2.0289 I0.0625
G1 X5.0476
G2 X5.1101 Y-2.0914 J-0.0625
G3 X5.2951 I0.0925
G1 Y-1.2207
G2 X5.3576 Y-1.1582 I0.0625
G1 X6.0976
G2 X6.1601 Y-1.2207 J-0.0625
G1 Y-2.0914
G3 X6.3451 I0.0925
G2 X6.4076 Y-2.0289 I0.0625
G1 X6.6476
G2 X6.7101 Y-2.0914 J-0.0625
G3 X6.8951 I0.0925
G1 Y-1.2207
G2 X6.9576 Y-1.1582 I0.0625
G1 X8.5976
G2 X8.6601 Y-1.2207 J-0.0625
G1 Y-2.1106
G2 X8.5976 Y-2.1731 I-0.0625
G1 X7.7252
G3 Y-2.2981 J-0.0625
G2 X7.7877 Y-2.3606 J-0.0625
G1 Y-3.4486
G2 X7.7252 Y-3.5111 I-0.0625
G3 Y-3.7561 J-0.1225
G1 X8.5976
G2 X8.6601 Y-3.8186 J-0.0625
G1 Y-5.4066
G2 X8.5976 Y-5.4691 I-0.0625
G1 X7.9752
Z-1.01
X7.7252
G3 Y-5.5941 J-0.0625
G2 X7.7877 Y-5.6566 J-0.0625
G1 Y-6.0756
Z-0.9787
Y-6.3256
Z-1.01
Y-6.7446
G2 X7.7252 Y-6.8071 I-0.0625
G3 Y-7.0521 J-0.1225
G1 X8.5976
G2 X8.6601 Y-7.1146 J-0.0625
G1 Y-7.7836
Z-0.9787
Y-8.0336
Z-1.01
Y-8.7026
G2 X8.5976 Y-8.7651 I-0.0625
G1 X7.7252
G3 Y-8.8901 J-0.0625
G2 X7.7877 Y-8.9526 J-0.0625
G1 Y-9.3716
Z-0.9787
Y-9.6216
Z-1.01
Y-10.0406
G2 X7.7252 Y-10.1031 I-0.0625
G3 Y-10.3481 J-0.1225
G1 X8.5976
G2 X8.6601 Y-10.4106 J-0.0625
G1 Y-11.2207
G2 X8.5976 Y-11.2832 I-0.0625
G1 X7.9026
Z-0.9787
X7.6526
Z-1.01
X6.9576
G2 X6.8951 Y-11.2207 J0.0625
G1 Y-10.3363
G3 X6.7101 I-0.0925
G2 X6.6476 Y-10.3988 I-0.0625
G1 X6.4076
G2 X6.3451 Y-10.3363 J0.0625
G3 X6.2526 Y-10.2438 I-0.0925
X6.1601 Y-10.3363 J-0.0925
G1 Y-11.2207
G2 X6.0976 Y-11.2832 I-0.0625
G1 X5.3576
G2 X5.2951 Y-11.2207 J0.0625
G1 Y-10.3363
G3 X5.2026 Y-10.2438 I-0.0925
X5.1101 Y-10.3363 J-0.0925
G2 X5.0476 Y-10.3988 I-0.0625
G1 X4.8076
G2 X4.7451 Y-10.3363 J0.0625
G3 X4.5601 I-0.0925
G1 Y-11.2207
G2 X4.4976 Y-11.2832 I-0.0625
G1 X3.7976
Z-0.9787
X3.5476
Z-1.01
X2.8476
G2 X2.7851 Y-11.2207 J0.0625
G1 Y-10.3893
G2 X2.8476 Y-10.3268 I0.0625
G1 X3.7258
G3 Y-10.0818 J0.1225
G2 X3.6633 Y-10.0193 J0.0625
G1 Y-9.6003
Z-0.9787
Y-9.3503
Z-1.01
Y-8.9313
G2 X3.7258 Y-8.8688 I0.0625
G3 Y-8.7438 J0.0625
G1 X2.8476
G2 X2.7851 Y-8.6813 J0.0625
G1 Y-8.0123
Z-0.9787
Y-7.7623
Z-1.01
Y-7.0933
G2 X2.8476 Y-7.0308 I0.0625
G1 X3.7258
G3 Y-6.7858 J0.1225
G2 X3.6633 Y-6.7233 J0.0625
G1 Y-6.3043
Z-0.9787
Y-6.0543
Z-1.01
Y-5.6353
G2 X3.7258 Y-5.5728 I0.0625
G3 Y-5.4478 J0.0625
G1 X2.8476
G2 X2.7851 Y-5.3853 J0.0625
G1 Y-4.7163
Z-0.9787
Y-4.4663
Z-1.01
Y-3.7973
G2 X2.8476 Y-3.7348 I0.0625
G1 X3.7258
G3 Y-3.4898 J0.1225
G2 X3.6633 Y-3.4273 J0.0625
G1 Y-3.0083
Z-0.9787
Y-2.7583
Z-1.01
Y-2.3393
G2 X3.7258 Y-2.2768 I0.0625
G3 Y-2.1518 J0.0625
G1 X2.8476
G2 X2.7851 Y-2.0893 J0.0625
G1 Y-1.2207
G2 X2.8476 Y-1.1582 I0.0625
G1 X3.5476
Z-0.9787
X3.7976
Z-1.01
X4.4976
G2 X4.5601 Y-1.2207 J-0.0625
G1 Y-2.0914
G3 X4.7451 I0.0925
G2 X4.8076 Y-2.0289 I0.0625
G1 X5.0476
G2 X5.1101 Y-2.0914 J-0.0625
G3 X5.2951 I0.0925
G1 Y-1.2207
G2 X5.3576 Y-1.1582 I0.0625
G1 X6.0976
G2 X6.1601 Y-1.2207 J-0.0625
G1 Y-2.0914
G3 X6.3451 I0.0925
G2 X6.4076 Y-2.0289 I0.0625
G1 X6.6476
G2 X6.7101 Y-2.0914 J-0.0625
G3 X6.8951 I0.0925
G1 Y-1.2207
G2 X6.9576 Y-1.1582 I0.0625
G1 X7.6526
Z-0.9787
X7.9026
Z-1.01
X8.5976
G2 X8.6601 Y-1.2207 J-0.0625
G1 Y-2.1106
G2 X8.5976 Y-2.1731 I-0.0625
G1 X7.7252
G3 Y-2.2981 J-0.0625
G2 X7.7877 Y-2.3606 J-0.0625
G1 Y-2.7796
Z-0.9787
Y-3.0296
Z-1.01
Y-3.4486
G2 X7.7252 Y-3.5111 I-0.0625
G3 Y-3.7561 J-0.1225
G1 X8.5976
G2 X8.6601 Y-3.8186 J-0.0625
G1 Y-4.4876
Z-0.9787
Y-4.7376
Z-1.01
Y-5.4066
G2 X8.5976 Y-5.4691 I-0.0625
G1 X7.9752
G0 Z0.2
M9
G28 G91 Z0
G28 X0 Y0
M30
%
