%
(Letterbox front)
(T3  D=0.125 CR=0 - ZMIN=-1.01 - flat end mill)
G90 G94
G17
G20
G28 G91 Z0
G90

(front)
M9
T3 M6
S10000 M3
G54
M9
G0 X-7.7851 Y-6.6714
Z0.2
G1 Z-0.2 F20
Y-5.8028
G2 X-7.7226 Y-5.7403 I0.0625
G3 Y-5.5553 J0.0925
G1 X-8.5976
G2 X-8.6601 Y-5.4928 J0.0625
G1 Y-4.1243
G2 X-8.5976 Y-4.0618 I0.0625
G1 X-7.7226
G3 Y-3.8767 J0.0925
G2 X-7.7851 Y-3.8142 J0.0625
G1 Y-2.9457
G2 X-7.7226 Y-2.8832 I0.0625
G3 Y-2.6982 J0.0925
G1 X-8.5976
G2 X-8.6601 Y-2.6357 J0.0625
G1 Y-1.2473
G2 X-8.5976 Y-1.1848 I0.0625
G1 X-7.5316
G2 X-6.8532 Y-1.5502 J-0.8125
G3 X-0.3557 I3.2488 J2.1411
G2 X0.3227 Y-1.1848 I0.6784 J-0.4471
G1 X1.4024
G2 X1.4649 Y-1.2473 J-0.0625
G1 Y-2.6357
G2 X1.4024 Y-2.6982 I-0.0625
G1 X0.5223
G3 Y-2.8832 J-0.0925
G2 X0.5848 Y-2.9457 J-0.0625
G1 Y-3.8142
G2 X0.5223 Y-3.8767 I-0.0625
G3 Y-4.0618 J-0.0925
G1 X1.4024
G2 X1.4649 Y-4.1243 J-0.0625
G1 Y-5.4928
G2 X1.4024 Y-5.5553 I-0.0625
G1 X0.5223
G3 Y-5.7403 J-0.0925
G2 X0.5848 Y-5.8028 J-0.0625
G1 Y-6.6714
G2 X0.5223 Y-6.7339 I-0.0625
G3 Y-6.9189 J-0.0925
G1 X1.4024
G2 X1.4649 Y-6.9814 J-0.0625
G1 Y-8.35
G2 X1.4024 Y-8.4125 I-0.0625
G1 X0.5223
G3 Y-8.5975 J-0.0925
G2 X0.5848 Y-8.66 J-0.0625
G1 Y-9.5285
G2 X0.5223 Y-9.591 I-0.0625
G3 Y-9.776 J-0.0925
G1 X1.4024
G2 X1.4649 Y-9.8385 J-0.0625
G1 Y-11.2168
G2 X1.4024 Y-11.2793 I-0.0625
G1 X0.6387
G2 X0.578 Y-11.2318 J0.0625
G3 X0.4732 Y-11.2026 I-0.0607 J-0.015
X0.5024 Y-11.3075 I0.0442 J-0.0442
G2 X0.5499 Y-11.3681 I-0.015 J-0.0607
G1 Y-12.1218
G2 X0.4874 Y-12.1843 I-0.0625
G1 X-1.1006
G2 X-1.1631 Y-12.1218 J0.0625
G1 Y-11.2468
G3 X-1.3481 I-0.0925
G2 X-1.4106 Y-11.3093 I-0.0625
G1 X-2.5286
G2 X-2.5911 Y-11.2468 J0.0625
G3 X-2.7161 I-0.0625
G1 Y-12.1218
G2 X-2.7786 Y-12.1843 I-0.0625
G1 X-4.3966
G2 X-4.4591 Y-12.1218 J0.0625
G1 Y-11.2468
G3 X-4.5516 Y-11.1543 I-0.0925
X-4.6441 Y-11.2468 J-0.0925
G2 X-4.7066 Y-11.3093 I-0.0625
G1 X-5.8246
G2 X-5.8871 Y-11.2468 J0.0625
G3 X-6.0121 I-0.0625
G1 Y-12.1218
G2 X-6.0746 Y-12.1843 I-0.0625
G1 X-7.6926
G2 X-7.7551 Y-12.1218 J0.0625
G1 Y-11.3681
G2 X-7.7076 Y-11.3075 I0.0625
G3 X-7.7376 Y-11.1861 I-0.015 J0.0607
X-7.7833 Y-11.2318 I0.015 J-0.0607
G2 X-7.844 Y-11.2793 I-0.0607 J0.015
G1 X-8.5976
G2 X-8.6601 Y-11.2168 J0.0625
G1 Y-9.8385
G2 X-8.5976 Y-9.776 I0.0625
G1 X-7.7226
G3 Y-9.591 J0.0925
G2 X-7.7851 Y-9.5285 J0.0625
G1 Y-8.66
G2 X-7.7226 Y-8.5975 I0.0625
G3 Y-8.4125 J0.0925
G1 X-8.5976
G2 X-8.6601 Y-8.35 J0.0625
G1 Y-6.9814
G2 X-8.5976 Y-6.9189 I0.0625
G1 X-7.7226
G3 Y-6.7339 J0.0925
G2 X-7.7851 Y-6.6714 J0.0625
G1 Z-0.4
Y-5.8028
G2 X-7.7226 Y-5.7403 I0.0625
G3 Y-5.5553 J0.0925
G1 X-8.5976
G2 X-8.6601 Y-5.4928 J0.0625
G1 Y-4.1243
G2 X-8.5976 Y-4.0618 I0.0625
G1 X-7.7226
G3 Y-3.8767 J0.0925
G2 X-7.7851 Y-3.8142 J0.0625
G1 Y-2.9457
G2 X-7.7226 Y-2.8832 I0.0625
G3 Y-2.6982 J0.0925
G1 X-8.5976
G2 X-8.6601 Y-2.6357 J0.0625
G1 Y-1.2473
G2 X-8.5976 Y-1.1848 I0.0625
G1 X-7.5316
G2 X-6.8532 Y-1.5502 J-0.8125
G3 X-0.3557 I3.2488 J2.1411
G2 X0.3227 Y-1.1848 I0.6784 J-0.4471
G1 X1.4024
G2 X1.4649 Y-1.2473 J-0.0625
G1 Y-2.6357
G2 X1.4024 Y-2.6982 I-0.0625
G1 X0.5223
G3 Y-2.8832 J-0.0925
G2 X0.5848 Y-2.9457 J-0.0625
G1 Y-3.8142
G2 X0.5223 Y-3.8767 I-0.0625
G3 Y-4.0618 J-0.0925
G1 X1.4024
G2 X1.4649 Y-4.1243 J-0.0625
G1 Y-5.4928
G2 X1.4024 Y-5.5553 I-0.0625
G1 X0.5223
G3 Y-5.7403 J-0.0925
G2 X0.5848 Y-5.8028 J-0.0625
G1 Y-6.6714
G2 X0.5223 Y-6.7339 I-0.0625
G3 Y-6.9189 J-0.0925
G1 X1.4024
G2 X1.4649 Y-6.9814 J-0.0625
G1 Y-8.35
G2 X1.4024 Y-8.4125 I-0.0625
G1 X0.5223
G3 Y-8.5975 J-0.0925
G2 X0.5848 Y-8.66 J-0.0625
G1 Y-9.5285
G2 X0.5223 Y-9.591 I-0.0625
G3 Y-9.776 J-0.0925
G1 X1.4024
G2 X1.4649 Y-9.8385 J-0.0625
G1 Y-11.2168
G2 X1.4024 Y-11.2793 I-0.0625
G1 X0.6387
G2 X0.578 Y-11.2318 J0.0625
G3 X0.4732 Y-11.2026 I-0.0607 J-0.015
X0.5024 Y-11.3075 I0.0442 J-0.0442
G2 X0.5499 Y-11.3681 I-0.015 J-0.0607
G1 Y-12.1218
G2 X0.4874 Y-12.1843 I-0.0625
G1 X-1.1006
G2 X-1.1631 Y-12.1218 J0.0625
G1 Y-11.2468
G3 X-1.3481 I-0.0925
G2 X-1.4106 Y-11.3093 I-0.0625
G1 X-2.5286
G2 X-2.5911 Y-11.2468 J0.0625
G3 X-2.7161 I-0.0625
G1 Y-12.1218
G2 X-2.7786 Y-12.1843 I-0.0625
G1 X-4.3966
G2 X-4.4591 Y-12.1218 J0.0625
G1 Y-11.2468
G3 X-4.5516 Y-11.1543 I-0.0925
X-4.6441 Y-11.2468 J-0.0925
G2 X-4.7066 Y-11.3093 I-0.0625
G1 X-5.8246
G2 X-5.8871 Y-11.2468 J0.0625
G3 X-6.0121 I-0.0625
G1 Y-12.1218
G2 X-6.0746 Y-12.1843 I-0.0625
G1 X-7.6926
G2 X-7.7551 Y-12.1218 J0.0625
G1 Y-11.3681
G2 X-7.7076 Y-11.3075 I0.0625
G3 X-7.7376 Y-11.1861 I-0.015 J0.0607
X-7.7833 Y-11.2318 I0.015 J-0.0607
G2 X-7.844 Y-11.2793 I-0.0607 J0.015
G1 X-8.5976
G2 X-8.6601 Y-11.2168 J0.0625
G1 Y-9.8385
G2 X-8.5976 Y-9.776 I0.0625
G1 X-7.7226
G3 Y-9.591 J0.0925
G2 X-7.7851 Y-9.5285 J0.0625
G1 Y-8.66
G2 X-7.7226 Y-8.5975 I0.0625
G3 Y-8.4125 J0.0925
G1 X-8.5976
G2 X-8.6601 Y-8.35 J0.0625
G1 Y-6.9814
G2 X-8.5976 Y-6.9189 I0.0625
G1 X-7.7226
G3 Y-6.7339 J0.0925
G2 X-7.7851 Y-6.6714 J0.0625
G1 Z-0.6
Y-5.8028
G2 X-7.7226 Y-5.7403 I0.0625
G3 Y-5.5553 J0.0925
G1 X-8.5976
G2 X-8.6601 Y-5.4928 J0.0625
G1 Y-4.1243
G2 X-8.5976 Y-4.0618 I0.0625
G1 X-7.7226
G3 Y-3.8767 J0.0925
G2 X-7.7851 Y-3.8142 J0.0625
G1 Y-2.9457
G2 X-7.7226 Y-2.8832 I0.0625
G3 Y-2.6982 J0.0925
G1 X-8.5976
G2 X-8.6601 Y-2.6357 J0.0625
G1 Y-1.2473
G2 X-8.5976 Y-1.1848 I0.0625
G1 X-7.5316
G2 X-6.8532 Y-1.5502 J-0.8125
G3 X-0.3557 I3.2488 J2.1411
G2 X0.3227 Y-1.1848 I0.6784 J-0.4471
G1 X1.4024
G2 X1.4649 Y-1.2473 J-0.0625
G1 Y-2.6357
G2 X1.4024 Y-2.6982 I-0.0625
G1 X0.5223
G3 Y-2.8832 J-0.0925
G2 X0.5848 Y-2.9457 J-0.0625
G1 Y-3.8142
G2 X0.5223 Y-3.8767 I-0.0625
G3 Y-4.0618 J-0.0925
G1 X1.4024
G2 X1.4649 Y-4.1243 J-0.0625
G1 Y-5.4928
G2 X1.4024 Y-5.5553 I-0.0625
G1 X0.5223
G3 Y-5.7403 J-0.0925
G2 X0.5848 Y-5.8028 J-0.0625
G1 Y-6.6714
G2 X0.5223 Y-6.7339 I-0.0625
G3 Y-6.9189 J-0.0925
G1 X1.4024
G2 X1.4649 Y-6.9814 J-0.0625
G1 Y-8.35
G2 X1.4024 Y-8.4125 I-0.0625
G1 X0.5223
G3 Y-8.5975 J-0.0925
G2 X0.5848 Y-8.66 J-0.0625
G1 Y-9.5285
G2 X0.5223 Y-9.591 I-0.0625
G3 Y-9.776 J-0.0925
G1 X1.4024
G2 X1.4649 Y-9.8385 J-0.0625
G1 Y-11.2168
G2 X1.4024 Y-11.2793 I-0.0625
G1 X0.6387
G2 X0.578 Y-11.2318 J0.0625
G3 X0.4732 Y-11.2026 I-0.0607 J-0.015
X0.5024 Y-11.3075 I0.0442 J-0.0442
G2 X0.5499 Y-11.3681 I-0.015 J-0.0607
G1 Y-12.1218
G2 X0.4874 Y-12.1843 I-0.0625
G1 X-1.1006
G2 X-1.1631 Y-12.1218 J0.0625
G1 Y-11.2468
G3 X-1.3481 I-0.0925
G2 X-1.4106 Y-11.3093 I-0.0625
G1 X-2.5286
G2 X-2.5911 Y-11.2468 J0.0625
G3 X-2.7161 I-0.0625
G1 Y-12.1218
G2 X-2.7786 Y-12.1843 I-0.0625
G1 X-4.3966
G2 X-4.4591 Y-12.1218 J0.0625
G1 Y-11.2468
G3 X-4.5516 Y-11.1543 I-0.0925
X-4.6441 Y-11.2468 J-0.0925
G2 X-4.7066 Y-11.3093 I-0.0625
G1 X-5.8246
G2 X-5.8871 Y-11.2468 J0.0625
G3 X-6.0121 I-0.0625
G1 Y-12.1218
G2 X-6.0746 Y-12.1843 I-0.0625
G1 X-7.6926
G2 X-7.7551 Y-12.1218 J0.0625
G1 Y-11.3681
G2 X-7.7076 Y-11.3075 I0.0625
G3 X-7.7376 Y-11.1861 I-0.015 J0.0607
X-7.7833 Y-11.2318 I0.015 J-0.0607
G2 X-7.844 Y-11.2793 I-0.0607 J0.015
G1 X-8.5976
G2 X-8.6601 Y-11.2168 J0.0625
G1 Y-9.8385
G2 X-8.5976 Y-9.776 I0.0625
G1 X-7.7226
G3 Y-9.591 J0.0925
G2 X-7.7851 Y-9.5285 J0.0625
G1 Y-8.66
G2 X-7.7226 Y-8.5975 I0.0625
G3 Y-8.4125 J0.0925
G1 X-8.5976
G2 X-8.6601 Y-8.35 J0.0625
G1 Y-6.9814
G2 X-8.5976 Y-6.9189 I0.0625
G1 X-7.7226
G3 Y-6.7339 J0.0925
G2 X-7.7851 Y-6.6714 J0.0625
G1 Z-0.8
Y-5.8028
G2 X-7.7226 Y-5.7403 I0.0625
G3 Y-5.5553 J0.0925
G1 X-8.5976
G2 X-8.6601 Y-5.4928 J0.0625
G1 Y-4.1243
G2 X-8.5976 Y-4.0618 I0.0625
G1 X-7.7226
G3 Y-3.8767 J0.0925
G2 X-7.7851 Y-3.8142 J0.0625
G1 Y-2.9457
G2 X-7.7226 Y-2.8832 I0.0625
G3 Y-2.6982 J0.0925
G1 X-8.5976
G2 X-8.6601 Y-2.6357 J0.0625
G1 Y-1.2473
G2 X-8.5976 Y-1.1848 I0.0625
G1 X-7.5316
G2 X-6.8532 Y-1.5502 J-0.8125
G3 X-0.3557 I3.2488 J2.1411
G2 X0.3227 Y-1.1848 I0.6784 J-0.4471
G1 X1.4024
G2 X1.4649 Y-1.2473 J-0.0625
G1 Y-2.6357
G2 X1.4024 Y-2.6982 I-0.0625
G1 X0.5223
G3 Y-2.8832 J-0.0925
G2 X0.5848 Y-2.9457 J-0.0625
G1 Y-3.8142
G2 X0.5223 Y-3.8767 I-0.0625
G3 Y-4.0618 J-0.0925
G1 X1.4024
G2 X1.4649 Y-4.1243 J-0.0625
G1 Y-5.4928
G2 X1.4024 Y-5.5553 I-0.0625
G1 X0.5223
G3 Y-5.7403 J-0.0925
G2 X0.5848 Y-5.8028 J-0.0625
G1 Y-6.6714
G2 X0.5223 Y-6.7339 I-0.0625
G3 Y-6.9189 J-0.0925
G1 X1.4024
G2 X1.4649 Y-6.9814 J-0.0625
G1 Y-8.35
G2 X1.4024 Y-8.4125 I-0.0625
G1 X0.5223
G3 Y-8.5975 J-0.0925
G2 X0.5848 Y-8.66 J-0.0625
G1 Y-9.5285
G2 X0.5223 Y-9.591 I-0.0625
G3 Y-9.776 J-0.0925
G1 X1.4024
G2 X1.4649 Y-9.8385 J-0.0625
G1 Y-11.2168
G2 X1.4024 Y-11.2793 I-0.0625
G1 X0.6387
G2 X0.578 Y-11.2318 J0.0625
G3 X0.4732 Y-11.2026 I-0.0607 J-0.015
X0.5024 Y-11.3075 I0.0442 J-0.0442
G2 X0.5499 Y-11.3681 I-0.015 J-0.0607
G1 Y-12.1218
G2 X0.4874 Y-12.1843 I-0.0625
G1 X-1.1006
G2 X-1.1631 Y-12.1218 J0.0625
G1 Y-11.2468
G3 X-1.3481 I-0.0925
G2 X-1.4106 Y-11.3093 I-0.0625
G1 X-2.5286
G2 X-2.5911 Y-11.2468 J0.0625
G3 X-2.7161 I-0.0625
G1 Y-12.1218
G2 X-2.7786 Y-12.1843 I-0.0625
G1 X-4.3966
G2 X-4.4591 Y-12.1218 J0.0625
G1 Y-11.2468
G3 X-4.5516 Y-11.1543 I-0.0925
X-4.6441 Y-11.2468 J-0.0925
G2 X-4.7066 Y-11.3093 I-0.0625
G1 X-5.8246
G2 X-5.8871 Y-11.2468 J0.0625
G3 X-6.0121 I-0.0625
G1 Y-12.1218
G2 X-6.0746 Y-12.1843 I-0.0625
G1 X-7.6926
G2 X-7.7551 Y-12.1218 J0.0625
G1 Y-11.3681
G2 X-7.7076 Y-11.3075 I0.0625
G3 X-7.7376 Y-11.1861 I-0.015 J0.0607
X-7.7833 Y-11.2318 I0.015 J-0.0607
G2 X-7.844 Y-11.2793 I-0.0607 J0.015
G1 X-8.5976
G2 X-8.6601 Y-11.2168 J0.0625
G1 Y-9.8385
G2 X-8.5976 Y-9.776 I0.0625
G1 X-7.7226
G3 Y-9.591 J0.0925
G2 X-7.7851 Y-9.5285 J0.0625
G1 Y-8.66
G2 X-7.7226 Y-8.5975 I0.0625
G3 Y-8.4125 J0.0925
G1 X-8.5976
G2 X-8.6601 Y-8.35 J0.0625
G1 Y-6.9814
G2 X-8.5976 Y-6.9189 I0.0625
G1 X-7.7226
G3 Y-6.7339 J0.0925
G2 X-7.7851 Y-6.6714 J0.0625
G1 Z-0.905
Y-5.8028
G2 X-7.7226 Y-5.7403 I0.0625
G3 Y-5.5553 J0.0925
G1 X-8.5976
G2 X-8.6601 Y-5.4928 J0.0625
G1 Y-4.1243
G2 X-8.5976 Y-4.0618 I0.0625
G1 X-7.7226
G3 Y-3.8767 J0.0925
G2 X-7.7851 Y-3.8142 J0.0625
G1 Y-2.9457
G2 X-7.7226 Y-2.8832 I0.0625
G3 Y-2.6982 J0.0925
G1 X-8.5976
G2 X-8.6601 Y-2.6357 J0.0625
G1 Y-1.2473
G2 X-8.5976 Y-1.1848 I0.0625
G1 X-7.5316
G2 X-6.8532 Y-1.5502 J-0.8125
G3 X-0.3557 I3.2488 J2.1411
G2 X0.3227 Y-1.1848 I0.6784 J-0.4471
G1 X1.4024
G2 X1.4649 Y-1.2473 J-0.0625
G1 Y-2.6357
G2 X1.4024 Y-2.6982 I-0.0625
G1 X0.5223
G3 Y-2.8832 J-0.0925
G2 X0.5848 Y-2.9457 J-0.0625
G1 Y-3.8142
G2 X0.5223 Y-3.8767 I-0.0625
G3 Y-4.0618 J-0.0925
G1 X1.4024
G2 X1.4649 Y-4.1243 J-0.0625
G1 Y-5.4928
G2 X1.4024 Y-5.5553 I-0.0625
G1 X0.5223
G3 Y-5.7403 J-0.0925
G2 X0.5848 Y-5.8028 J-0.0625
G1 Y-6.6714
G2 X0.5223 Y-6.7339 I-0.0625
G3 Y-6.9189 J-0.0925
G1 X1.4024
G2 X1.4649 Y-6.9814 J-0.0625
G1 Y-8.35
G2 X1.4024 Y-8.4125 I-0.0625
G1 X0.5223
G3 Y-8.5975 J-0.0925
G2 X0.5848 Y-8.66 J-0.0625
G1 Y-9.5285
G2 X0.5223 Y-9.591 I-0.0625
G3 Y-9.776 J-0.0925
G1 X1.4024
G2 X1.4649 Y-9.8385 J-0.0625
G1 Y-11.2168
G2 X1.4024 Y-11.2793 I-0.0625
G1 X0.6387
G2 X0.578 Y-11.2318 J0.0625
G3 X0.4732 Y-11.2026 I-0.0607 J-0.015
X0.5024 Y-11.3075 I0.0442 J-0.0442
G2 X0.5499 Y-11.3681 I-0.015 J-0.0607
G1 Y-12.1218
G2 X0.4874 Y-12.1843 I-0.0625
G1 X-1.1006
G2 X-1.1631 Y-12.1218 J0.0625
G1 Y-11.2468
G3 X-1.3481 I-0.0925
G2 X-1.4106 Y-11.3093 I-0.0625
G1 X-2.5286
G2 X-2.5911 Y-11.2468 J0.0625
G3 X-2.7161 I-0.0625
G1 Y-12.1218
G2 X-2.7786 Y-12.1843 I-0.0625
G1 X-4.3966
G2 X-4.4591 Y-12.1218 J0.0625
G1 Y-11.2468
G3 X-4.5516 Y-11.1543 I-0.0925
X-4.6441 Y-11.2468 J-0.0925
G2 X-4.7066 Y-11.3093 I-0.0625
G1 X-5.8246
G2 X-5.8871 Y-11.2468 J0.0625
G3 X-6.0121 I-0.0625
G1 Y-12.1218
G2 X-6.0746 Y-12.1843 I-0.0625
G1 X-7.6926
G2 X-7.7551 Y-12.1218 J0.0625
G1 Y-11.3681
G2 X-7.7076 Y-11.3075 I0.0625
G3 X-7.7376 Y-11.1861 I-0.015 J0.0607
X-7.7833 Y-11.2318 I0.015 J-0.0607
G2 X-7.844 Y-11.2793 I-0.0607 J0.015
G1 X-8.5976
G2 X-8.6601 Y-11.2168 J0.0625
G1 Y-9.8385
G2 X-8.5976 Y-9.776 I0.0625
G1 X-7.7226
G3 Y-9.591 J0.0925
G2 X-7.7851 Y-9.5285 J0.0625
G1 Y-8.66
G2 X-7.7226 Y-8.5975 I0.0625
G3 Y-8.4125 J0.0925
G1 X-8.5976
G2 X-8.6601 Y-8.35 J0.0625
G1 Y-6.9814
G2 X-8.5976 Y-6.9189 I0.0625
G1 X-7.7226
G3 Y-6.7339 J0.0925
G2 X-7.7851 Y-6.6714 J0.0625
G1 Z-1.01
Y-5.8028
G2 X-7.7226 Y-5.7403 I0.0625
G3 Y-5.5553 J0.0925
G1 X-8.5976
G2 X-8.6601 Y-5.4928 J0.0625
G1 Y-4.9335
Z-0.9787
Y-4.6835
Z-1.01
Y-4.1243
G2 X-8.5976 Y-4.0618 I0.0625
G1 X-7.7226
G3 Y-3.8767 J0.0925
G2 X-7.7851 Y-3.8142 J0.0625
G1 Y-2.9457
G2 X-7.7226 Y-2.8832 I0.0625
G3 Y-2.6982 J0.0925
G1 X-8.5976
G2 X-8.6601 Y-2.6357 J0.0625
G1 Y-2.0665
Z-0.9787
Y-1.8165
Z-1.01
Y-1.2473
G2 X-8.5976 Y-1.1848 I0.0625
G1 X-8.1896
Z-0.9787
X-7.9396
Z-1.01
X-7.5316
G2 X-6.8532 Y-1.5502 J-0.8125
G3 X-6.601 Y-1.8909 I3.2488 J2.1411
G1 Z-0.9787
G3 X-6.4354 Y-2.0782 I2.9965 J2.4819
G1 Z-1.01
G3 X-5.7909 Y-2.6274 I2.8309 J2.6692
G1 Z-0.9787
G3 X-5.5797 Y-2.7612 I2.1865 J3.2184
G1 Z-1.01
G3 X-4.8078 Y-3.1091 I1.9753 J3.3522
G1 Z-0.9787
G3 X-4.5677 Y-3.1788 I1.2034 J3.7001
G1 Z-1.01
G3 X-3.7294 Y-3.2979 I0.9633 J3.7697
G1 Z-0.9787
G3 X-3.4794 I0.125 J3.8889
G1 Z-1.01
G3 X-2.6412 Y-3.1788 I-0.125 J3.8888
G1 Z-0.9787
G3 X-2.4011 Y-3.1091 I-0.9633 J3.7697
G1 Z-1.01
G3 X-1.6291 Y-2.7612 I-1.2034 J3.7001
G1 Z-0.9787
G3 X-1.4179 Y-2.6274 I-1.9753 J3.3522
G1 Z-1.01
G3 X-0.7735 Y-2.0782 I-2.1865 J3.2184
G1 Z-0.9787
G3 X-0.6079 Y-1.8909 I-2.8309 J2.6692
G1 Z-1.01
G3 X-0.3557 Y-1.5502 I-2.9965 J2.4819
G2 X0.3227 Y-1.1848 I0.6784 J-0.4471
G1 X0.7376
Z-0.9787
X0.9876
Z-1.01
X1.4024
G2 X1.4649 Y-1.2473 J-0.0625
G1 Y-1.8165
Z-0.9787
Y-2.0665
Z-1.01
Y-2.6357
G2 X1.4024 Y-2.6982 I-0.0625
G1 X0.5223
G3 Y-2.8832 J-0.0925
G2 X0.5848 Y-2.9457 J-0.0625
G1 Y-3.8142
G2 X0.5223 Y-3.8767 I-0.0625
G3 Y-4.0618 J-0.0925
G1 X1.4024
G2 X1.4649 Y-4.1243 J-0.0625
G1 Y-4.6835
Z-0.9787
Y-4.9335
Z-1.01
Y-5.4928
G2 X1.4024 Y-5.5553 I-0.0625
G1 X0.5223
G3 Y-5.7403 J-0.0925
G2 X0.5848 Y-5.8028 J-0.0625
G1 Y-6.6714
G2 X0.5223 Y-6.7339 I-0.0625
G3 Y-6.9189 J-0.0925
G1 X1.4024
G2 X1.4649 Y-6.9814 J-0.0625
G1 Y-7.5407
Z-0.9787
Y-7.7907
Z-1.01
Y-8.35
G2 X1.4024 Y-8.4125 I-0.0625
G1 X0.5223
G3 Y-8.5975 J-0.0925
G2 X0.5848 Y-8.66 J-0.0625
G1 Y-9.5285
G2 X0.5223 Y-9.591 I-0.0625
G3 Y-9.776 J-0.0925
G1 X1.4024
G2 X1.4649 Y-9.8385 J-0.0625
G1 Y-10.4026
Z-0.9787
Y-10.6526
Z-1.01
Y-11.2168
G2 X1.4024 Y-11.2793 I-0.0625
G1 X0.6387
G2 X0.578 Y-11.2318 J0.0625
G3 X0.4732 Y-11.2026 I-0.0607 J-0.015
X0.5024 Y-11.3075 I0.0442 J-0.0442
G2 X0.5499 Y-11.3681 I-0.015 J-0.0607
G1 Y-12.1218
G2 X0.4874 Y-12.1843 I-0.0625
G1 X-0.1816
Z-0.9787
X-0.4316
Z-1.01
X-1.1006
G2 X-1.1631 Y-12.1218 J0.0625
G1 Y-11.2468
G3 X-1.3481 I-0.0925
G2 X-1.4106 Y-11.3093 I-0.0625
G1 X-1.8446
Z-0.9787
X-2.0946
Z-1.01
X-2.5286
G2 X-2.5911 Y-11.2468 J0.0625
G3 X-2.7161 I-0.0625
G1 Y-12.1218
G2 X-2.7786 Y-12.1843 I-0.0625
G1 X-3.4626
Z-0.9787
X-3.7126
Z-1.01
X-4.3966
G2 X-4.4591 Y-12.1218 J0.0625
G1 Y-11.2468
G3 X-4.5516 Y-11.1543 I-0.0925
X-4.6441 Y-11.2468 J-0.0925
G2 X-4.7066 Y-11.3093 I-0.0625
G1 X-5.1406
Z-0.9787
X-5.3906
Z-1.01
X-5.8246
G2 X-5.8871 Y-11.2468 J0.0625
G3 X-6.0121 I-0.0625
G1 Y-12.1218
G2 X-6.0746 Y-12.1843 I-0.0625
G1 X-6.7586
Z-0.9787
X-7.0086
Z-1.01
X-7.6926
G2 X-7.7551 Y-12.1218 J0.0625
G1 Y-11.3681
G2 X-7.7076 Y-11.3075 I0.0625
G3 X-7.7376 Y-11.1861 I-0.015 J0.0607
X-7.7833 Y-11.2318 I0.015 J-0.0607
G2 X-7.844 Y-11.2793 I-0.0607 J0.015
G1 X-8.5976
G2 X-8.6601 Y-11.2168 J0.0625
G1 Y-10.6526
Z-0.9787
Y-10.4026
Z-1.01
Y-9.8385
G2 X-8.5976 Y-9.776 I0.0625
G1 X-7.7226
G3 Y-9.591 J0.0925
G2 X-7.7851 Y-9.5285 J0.0625
G1 Y-8.66
G2 X-7.7226 Y-8.5975 I0.0625
G3 Y-8.4125 J0.0925
G1 X-8.5976
G2 X-8.6601 Y-8.35 J0.0625
G1 Y-7.7907
Z-0.9787
Y-7.5407
Z-1.01
Y-6.9814
G2 X-8.5976 Y-6.9189 I0.0625
G1 X-7.7226
G3 Y-6.7339 J0.0925
G2 X-7.7851 Y-6.6714 J0.0625
G0 Z0.2
M9
G28 G91 Z0
G28 X0 Y0
M30
%
