%
(Letterbox text)
(T1  D=0.125 CR=0 - ZMIN=-0.21 - flat end mill)
G90 G94
G17
G20
G28 G91 Z0
G90

(Text)
M9
T1 M6
S10000 M3
G54
M9
G0 X-3.5052 Y-5.4986
Z0.2
G1 Z-0.1 F20
G2 X-3.5673 Y-5.5536 I-0.062 J0.0075
G1 X-4.0593
G2 X-4.1178 Y-5.4691 J0.0625
G1 X-3.8778 Y-4.8304
G2 X-3.8193 Y-4.7899 I0.0585 J-0.022
G1 X-3.8046
G2 X-3.7452 Y-4.833 J-0.0625
G1 X-3.6871 Y-5.0114
X-3.509 Y-5.4684
G2 X-3.5052 Y-5.4986 I-0.0582 J-0.0227
G0 Z0.2
X-3.4926 Y-5.6206
G1 Z-0.1 F20
G2 X-3.4346 Y-5.6598 J-0.0625
G1 X-3.2546 Y-6.1078
G2 X-3.2938 Y-6.1907 I-0.058 J-0.0233
G1 X-3.4603 Y-6.2432
X-2.7629
X-2.8546 Y-6.2064
G2 X-2.8589 Y-6.2044 I0.0233 J0.058
G1 X-2.8608 Y-6.2035
X-2.8609
X-2.8628 Y-6.2025
X-2.8629
X-2.8648 Y-6.2015
G2 X-2.8658 Y-6.201 I0.0278 J0.056
G1 X-2.8677 Y-6.2
X-2.8679 Y-6.1999
X-2.8698 Y-6.199
G2 X-2.8708 Y-6.1984 I0.029 J0.0554
G1 X-2.8727 Y-6.1974
X-2.8729 Y-6.1972
X-2.8748 Y-6.1962
G2 X-2.8759 Y-6.1956 I0.0303 J0.0547
G1 X-2.8778 Y-6.1945
G2 X-2.8789 Y-6.1938 I0.0314 J0.054
G1 X-2.8807 Y-6.1927
G2 X-2.8819 Y-6.1919 I0.0326 J0.0533
G1 X-2.8837 Y-6.1908
G2 X-2.8858 Y-6.1894 I0.0338 J0.0526
G1 X-2.8875 Y-6.1882
G2 X-2.888 Y-6.1879 I0.0359 J0.0512
G1 X-2.8897 Y-6.1866
G2 X-2.891 Y-6.1857 I0.0363 J0.0509
G1 X-2.8926 Y-6.1845
G2 X-2.8945 Y-6.183 I0.0376 J0.0499
G1 X-2.8962 Y-6.1816
G2 X-2.8973 Y-6.1807 I0.0395 J0.0484
G1 X-2.8989 Y-6.1793
G2 X-2.8993 Y-6.1789 I0.0406 J0.0475
G1 X-2.9009 Y-6.1776
G2 X-2.9025 Y-6.1762 I0.041 J0.0471
G1 X-2.904 Y-6.1747
G2 X-2.9044 Y-6.1744 I0.0426 J0.0457
G1 X-2.9059 Y-6.1729
G2 X-2.9062 Y-6.1726 I0.043 J0.0454
G1 X-2.9077 Y-6.1712
G2 X-2.9091 Y-6.1699 I0.0432 J0.0451
G1 X-2.9104 Y-6.1685
X-2.9117 Y-6.1672
G2 X-2.9124 Y-6.1665 I0.0442 J0.0442
G1 X-2.9139 Y-6.1649
X-2.914
X-2.9155 Y-6.1633
G2 X-2.916 Y-6.1628 I0.045 J0.0434
G1 X-2.9175 Y-6.1612
G2 X-2.9205 Y-6.1577 I0.0455 J0.0428
G1 X-2.9233 Y-6.1542
X-2.9234 Y-6.1541
X-2.9248 Y-6.1524
X-2.9249 Y-6.1522
X-2.9263 Y-6.1505
X-2.9265 Y-6.1503
X-2.9279 Y-6.1486
G2 X-2.9285 Y-6.1478 I0.049 J0.0388
G1 X-2.9299 Y-6.146
X-2.9301 Y-6.1457
X-2.9314 Y-6.1439
G2 X-2.9317 Y-6.1436 I0.0498 J0.0377
G1 X-2.933 Y-6.1418
G2 X-2.9333 Y-6.1414 I0.0501 J0.0374
G1 X-2.9346 Y-6.1396
G2 X-2.9354 Y-6.1386 I0.0504 J0.037
G1 X-2.9366 Y-6.1367
G2 X-2.9373 Y-6.1358 I0.0511 J0.0359
G1 X-2.9386 Y-6.1339
G2 X-2.939 Y-6.1332 I0.0518 J0.0349
G1 X-2.9402 Y-6.1314
G2 X-2.9407 Y-6.1307 I0.0523 J0.0343
G1 X-2.9419 Y-6.1288
G2 X-2.9426 Y-6.1277 I0.0527 J0.0335
G1 X-2.9437 Y-6.1258
G2 X-2.9443 Y-6.1247 I0.0534 J0.0324
G1 X-2.9455 Y-6.1228
G2 X-2.9458 Y-6.1222 I0.0541 J0.0313
G1 X-2.9469 Y-6.1203
G2 X-2.9472 Y-6.1198 I0.0544 J0.0308
G1 X-2.9482 Y-6.1178
G2 X-2.9487 Y-6.117 I0.0547 J0.0302
G1 X-2.9498 Y-6.115
G2 X-2.95 Y-6.1146 I0.0552 J0.0294
G1 X-2.951 Y-6.1126
G2 X-2.9512 Y-6.1122 I0.0554 J0.0289
G1 X-2.9522 Y-6.1103
X-2.9523 Y-6.1101
X-2.9533 Y-6.1081
G2 X-2.9537 Y-6.1074 I0.0557 J0.0284
G1 X-2.9547 Y-6.1054
Y-6.1053
X-2.9556 Y-6.1035
X-2.9565 Y-6.1017
G2 X-2.9589 Y-6.0964 I0.0559 J0.028
G1 X-3.5967 Y-4.4536
X-3.7757
X-3.9183 Y-4.7315
X-4.4544 Y-6.0926
G2 X-4.4567 Y-6.0977 I-0.0582 J0.0229
G1 X-4.4587 Y-6.1018
X-4.4589 Y-6.102
X-4.4609 Y-6.106
G2 X-4.4612 Y-6.1067 I-0.0558 J0.0282
G1 X-4.4633 Y-6.1107
G2 X-4.4635 Y-6.1111 I-0.0555 J0.0288
G1 X-4.4657 Y-6.1151
G2 X-4.4664 Y-6.1164 I-0.0552 J0.0292
G1 X-4.4686 Y-6.1204
G2 X-4.4689 Y-6.121 I-0.0545 J0.0305
G1 X-4.4712 Y-6.1249
G2 X-4.472 Y-6.1262 I-0.0542 J0.0312
G1 X-4.4743 Y-6.13
G2 X-4.4752 Y-6.1316 I-0.0534 J0.0325
G1 X-4.4777 Y-6.1353
G2 X-4.4788 Y-6.137 I-0.0524 J0.034
G1 X-4.4813 Y-6.1406
G2 X-4.4827 Y-6.1425 I-0.0513 J0.0357
G1 X-4.4853 Y-6.146
G2 X-4.4868 Y-6.1478 I-0.0499 J0.0376
G1 X-4.4895 Y-6.1512
G2 X-4.4916 Y-6.1537 I-0.0485 J0.0395
G1 X-4.4946 Y-6.1569
G2 X-4.4968 Y-6.1592 I-0.0464 J0.0419
G1 X-4.4998 Y-6.1623
G2 X-4.5013 Y-6.1637 I-0.0442 J0.0442
G1 X-4.5044 Y-6.1667
G2 X-4.5074 Y-6.1693 I-0.0428 J0.0456
G1 X-4.5108 Y-6.1721
G2 X-4.512 Y-6.1731 I-0.0398 J0.0482
G1 X-4.5155 Y-6.1758
G2 X-4.517 Y-6.1769 I-0.0386 J0.0492
G1 X-4.5206 Y-6.1796
G2 X-4.5222 Y-6.1807 I-0.0371 J0.0503
G1 X-4.5259 Y-6.1833
G2 X-4.5274 Y-6.1843 I-0.0354 J0.0515
G1 X-4.5312 Y-6.1867
G2 X-4.5322 Y-6.1874 I-0.0339 J0.0525
G1 X-4.536 Y-6.1897
G2 X-4.5365 Y-6.19 I-0.0329 J0.0532
G1 X-4.5404 Y-6.1924
G2 X-4.5412 Y-6.1929 I-0.0324 J0.0534
G1 X-4.5451 Y-6.1951
G2 X-4.5457 Y-6.1955 I-0.0316 J0.0539
G1 X-4.5496 Y-6.1977
X-4.5535 Y-6.1999
G2 X-4.5599 Y-6.2032 I-0.0311 J0.0542
G1 X-4.6532 Y-6.2432
X-4.1541
X-4.3264 Y-6.1835
G2 X-4.3642 Y-6.1019 I0.0205 J0.059
G1 X-4.1936 Y-5.6605
G2 X-4.1353 Y-5.6206 I0.0583 J-0.0225
G1 X-3.4926
Z-0.155
G2 X-3.4346 Y-5.6598 J-0.0625
G1 X-3.2546 Y-6.1078
G2 X-3.2938 Y-6.1907 I-0.058 J-0.0233
G1 X-3.4603 Y-6.2432
X-2.7629
X-2.8546 Y-6.2064
G2 X-2.8589 Y-6.2044 I0.0233 J0.058
G1 X-2.8608 Y-6.2035
X-2.8609
X-2.8628 Y-6.2025
X-2.8629
X-2.8648 Y-6.2015
G2 X-2.8658 Y-6.201 I0.0278 J0.056
G1 X-2.8677 Y-6.2
X-2.8679 Y-6.1999
X-2.8698 Y-6.199
G2 X-2.8708 Y-6.1984 I0.029 J0.0554
G1 X-2.8727 Y-6.1974
X-2.8729 Y-6.1972
X-2.8748 Y-6.1962
G2 X-2.8759 Y-6.1956 I0.0303 J0.0547
G1 X-2.8778 Y-6.1945
G2 X-2.8789 Y-6.1938 I0.0314 J0.054
G1 X-2.8807 Y-6.1927
G2 X-2.8819 Y-6.1919 I0.0326 J0.0533
G1 X-2.8837 Y-6.1908
G2 X-2.8858 Y-6.1894 I0.0338 J0.0526
G1 X-2.8875 Y-6.1882
G2 X-2.888 Y-6.1879 I0.0359 J0.0512
G1 X-2.8897 Y-6.1866
G2 X-2.891 Y-6.1857 I0.0363 J0.0509
G1 X-2.8926 Y-6.1845
G2 X-2.8945 Y-6.183 I0.0376 J0.0499
G1 X-2.8962 Y-6.1816
G2 X-2.8973 Y-6.1807 I0.0395 J0.0484
G1 X-2.8989 Y-6.1793
G2 X-2.8993 Y-6.1789 I0.0406 J0.0475
G1 X-2.9009 Y-6.1776
G2 X-2.9025 Y-6.1762 I0.041 J0.0471
G1 X-2.904 Y-6.1747
G2 X-2.9044 Y-6.1744 I0.0426 J0.0457
G1 X-2.9059 Y-6.1729
G2 X-2.9062 Y-6.1726 I0.043 J0.0454
G1 X-2.9077 Y-6.1712
G2 X-2.9091 Y-6.1699 I0.0432 J0.0451
G1 X-2.9104 Y-6.1685
X-2.9117 Y-6.1672
G2 X-2.9124 Y-6.1665 I0.0442 J0.0442
G1 X-2.9139 Y-6.1649
X-2.914
X-2.9155 Y-6.1633
G2 X-2.916 Y-6.1628 I0.045 J0.0434
G1 X-2.9175 Y-6.1612
G2 X-2.9205 Y-6.1577 I0.0455 J0.0428
G1 X-2.9233 Y-6.1542
X-2.9234 Y-6.1541
X-2.9248 Y-6.1524
X-2.9249 Y-6.1522
X-2.9263 Y-6.1505
X-2.9265 Y-6.1503
X-2.9279 Y-6.1486
G2 X-2.9285 Y-6.1478 I0.049 J0.0388
G1 X-2.9299 Y-6.146
X-2.9301 Y-6.1457
X-2.9314 Y-6.1439
G2 X-2.9317 Y-6.1436 I0.0498 J0.0377
G1 X-2.933 Y-6.1418
G2 X-2.9333 Y-6.1414 I0.0501 J0.0374
G1 X-2.9346 Y-6.1396
G2 X-2.9354 Y-6.1386 I0.0504 J0.037
G1 X-2.9366 Y-6.1367
G2 X-2.9373 Y-6.1358 I0.0511 J0.0359
G1 X-2.9386 Y-6.1339
G2 X-2.939 Y-6.1332 I0.0518 J0.0349
G1 X-2.9402 Y-6.1314
G2 X-2.9407 Y-6.1307 I0.0523 J0.0343
G1 X-2.9419 Y-6.1288
G2 X-2.9426 Y-6.1277 I0.0527 J0.0335
G1 X-2.9437 Y-6.1258
G2 X-2.9443 Y-6.1247 I0.0534 J0.0324
G1 X-2.9455 Y-6.1228
G2 X-2.9458 Y-6.1222 I0.0541 J0.0313
G1 X-2.9469 Y-6.1203
G2 X-2.9472 Y-6.1198 I0.0544 J0.0308
G1 X-2.9482 Y-6.1178
G2 X-2.9487 Y-6.117 I0.0547 J0.0302
G1 X-2.9498 Y-6.115
G2 X-2.95 Y-6.1146 I0.0552 J0.0294
G1 X-2.951 Y-6.1126
G2 X-2.9512 Y-6.1122 I0.0554 J0.0289
G1 X-2.9522 Y-6.1103
X-2.9523 Y-6.1101
X-2.9533 Y-6.1081
G2 X-2.9537 Y-6.1074 I0.0557 J0.0284
G1 X-2.9547 Y-6.1054
Y-6.1053
X-2.9556 Y-6.1035
X-2.9565 Y-6.1017
G2 X-2.9589 Y-6.0964 I0.0559 J0.028
G1 X-3.5967 Y-4.4536
X-3.7757
X-3.9183 Y-4.7315
X-4.4544 Y-6.0926
G2 X-4.4567 Y-6.0977 I-0.0582 J0.0229
G1 X-4.4587 Y-6.1018
X-4.4589 Y-6.102
X-4.4609 Y-6.106
G2 X-4.4612 Y-6.1067 I-0.0558 J0.0282
G1 X-4.4633 Y-6.1107
G2 X-4.4635 Y-6.1111 I-0.0555 J0.0288
G1 X-4.4657 Y-6.1151
G2 X-4.4664 Y-6.1164 I-0.0552 J0.0292
G1 X-4.4686 Y-6.1204
G2 X-4.4689 Y-6.121 I-0.0545 J0.0305
G1 X-4.4712 Y-6.1249
G2 X-4.472 Y-6.1262 I-0.0542 J0.0312
G1 X-4.4743 Y-6.13
G2 X-4.4752 Y-6.1316 I-0.0534 J0.0325
G1 X-4.4777 Y-6.1353
G2 X-4.4788 Y-6.137 I-0.0524 J0.034
G1 X-4.4813 Y-6.1406
G2 X-4.4827 Y-6.1425 I-0.0513 J0.0357
G1 X-4.4853 Y-6.146
G2 X-4.4868 Y-6.1478 I-0.0499 J0.0376
G1 X-4.4895 Y-6.1512
G2 X-4.4916 Y-6.1537 I-0.0485 J0.0395
G1 X-4.4946 Y-6.1569
G2 X-4.4968 Y-6.1592 I-0.0464 J0.0419
G1 X-4.4998 Y-6.1623
G2 X-4.5013 Y-6.1637 I-0.0442 J0.0442
G1 X-4.5044 Y-6.1667
G2 X-4.5074 Y-6.1693 I-0.0428 J0.0456
G1 X-4.5108 Y-6.1721
G2 X-4.512 Y-6.1731 I-0.0398 J0.0482
G1 X-4.5155 Y-6.1758
G2 X-4.517 Y-6.1769 I-0.0386 J0.0492
G1 X-4.5206 Y-6.1796
G2 X-4.5222 Y-6.1807 I-0.0371 J0.0503
G1 X-4.5259 Y-6.1833
G2 X-4.5274 Y-6.1843 I-0.0354 J0.0515
G1 X-4.5312 Y-6.1867
G2 X-4.5322 Y-6.1874 I-0.0339 J0.0525
G1 X-4.536 Y-6.1897
G2 X-4.5365 Y-6.19 I-0.0329 J0.0532
G1 X-4.5404 Y-6.1924
G2 X-4.5412 Y-6.1929 I-0.0324 J0.0534
G1 X-4.5451 Y-6.1951
G2 X-4.5457 Y-6.1955 I-0.0316 J0.0539
G1 X-4.5496 Y-6.1977
X-4.5535 Y-6.1999
G2 X-4.5599 Y-6.2032 I-0.0311 J0.0542
G1 X-4.6532 Y-6.2432
X-4.1541
X-4.3264 Y-6.1835
G2 X-4.3642 Y-6.1019 I0.0205 J0.059
G1 X-4.1936 Y-5.6605
G2 X-4.1353 Y-5.6206 I0.0583 J-0.0225
G1 X-3.4926
G0 Z0.2
X-3.5052 Y-5.4986
G1 Z0.1 F20
Z-0.155
G2 X-3.5673 Y-5.5536 I-0.062 J0.0075
G1 X-4.0593
G2 X-4.1178 Y-5.4691 J0.0625
G1 X-3.8778 Y-4.8304
G2 X-3.8193 Y-4.7899 I0.0585 J-0.022
G1 X-3.8046
G2 X-3.7452 Y-4.833 J-0.0625
G1 X-3.6871 Y-5.0114
X-3.509 Y-5.4684
G2 X-3.5052 Y-5.4986 I-0.0582 J-0.0227
G1 Z-0.21
G2 X-3.5673 Y-5.5536 I-0.062 J0.0075
G1 X-4.0593
G2 X-4.1178 Y-5.4691 J0.0625
G1 X-3.8778 Y-4.8304
G2 X-3.8193 Y-4.7899 I0.0585 J-0.022
G1 X-3.8046
G2 X-3.7452 Y-4.833 J-0.0625
G1 X-3.6871 Y-5.0114
X-3.509 Y-5.4684
G2 X-3.5052 Y-5.4986 I-0.0582 J-0.0227
G0 Z0.2
X-3.4926 Y-5.6206
G1 Z0.045 F20
Z-0.21
G2 X-3.4346 Y-5.6598 J-0.0625
G1 X-3.2546 Y-6.1078
G2 X-3.2938 Y-6.1907 I-0.058 J-0.0233
G1 X-3.4603 Y-6.2432
X-2.7629
X-2.8546 Y-6.2064
G2 X-2.8589 Y-6.2044 I0.0233 J0.058
G1 X-2.8608 Y-6.2035
X-2.8609
X-2.8628 Y-6.2025
X-2.8629
X-2.8648 Y-6.2015
G2 X-2.8658 Y-6.201 I0.0278 J0.056
G1 X-2.8677 Y-6.2
X-2.8679 Y-6.1999
X-2.8698 Y-6.199
G2 X-2.8708 Y-6.1984 I0.029 J0.0554
G1 X-2.8727 Y-6.1974
X-2.8729 Y-6.1972
X-2.8748 Y-6.1962
G2 X-2.8759 Y-6.1956 I0.0303 J0.0547
G1 X-2.8778 Y-6.1945
G2 X-2.8789 Y-6.1938 I0.0314 J0.054
G1 X-2.8807 Y-6.1927
G2 X-2.8819 Y-6.1919 I0.0326 J0.0533
G1 X-2.8837 Y-6.1908
G2 X-2.8858 Y-6.1894 I0.0338 J0.0526
G1 X-2.8875 Y-6.1882
G2 X-2.888 Y-6.1879 I0.0359 J0.0512
G1 X-2.8897 Y-6.1866
G2 X-2.891 Y-6.1857 I0.0363 J0.0509
G1 X-2.8926 Y-6.1845
G2 X-2.8945 Y-6.183 I0.0376 J0.0499
G1 X-2.8962 Y-6.1816
G2 X-2.8973 Y-6.1807 I0.0395 J0.0484
G1 X-2.8989 Y-6.1793
G2 X-2.8993 Y-6.1789 I0.0406 J0.0475
G1 X-2.9009 Y-6.1776
G2 X-2.9025 Y-6.1762 I0.041 J0.0471
G1 X-2.904 Y-6.1747
G2 X-2.9044 Y-6.1744 I0.0426 J0.0457
G1 X-2.9059 Y-6.1729
G2 X-2.9062 Y-6.1726 I0.043 J0.0454
G1 X-2.9077 Y-6.1712
G2 X-2.9091 Y-6.1699 I0.0432 J0.0451
G1 X-2.9104 Y-6.1685
X-2.9117 Y-6.1672
G2 X-2.9124 Y-6.1665 I0.0442 J0.0442
G1 X-2.9139 Y-6.1649
X-2.914
X-2.9155 Y-6.1633
G2 X-2.916 Y-6.1628 I0.045 J0.0434
G1 X-2.9175 Y-6.1612
G2 X-2.9205 Y-6.1577 I0.0455 J0.0428
G1 X-2.9233 Y-6.1542
X-2.9234 Y-6.1541
X-2.9248 Y-6.1524
X-2.9249 Y-6.1522
X-2.9263 Y-6.1505
X-2.9265 Y-6.1503
X-2.9279 Y-6.1486
G2 X-2.9285 Y-6.1478 I0.049 J0.0388
G1 X-2.9299 Y-6.146
X-2.9301 Y-6.1457
X-2.9314 Y-6.1439
G2 X-2.9317 Y-6.1436 I0.0498 J0.0377
G1 X-2.933 Y-6.1418
G2 X-2.9333 Y-6.1414 I0.0501 J0.0374
G1 X-2.9346 Y-6.1396
G2 X-2.9354 Y-6.1386 I0.0504 J0.037
G1 X-2.9366 Y-6.1367
G2 X-2.9373 Y-6.1358 I0.0511 J0.0359
G1 X-2.9386 Y-6.1339
G2 X-2.939 Y-6.1332 I0.0518 J0.0349
G1 X-2.9402 Y-6.1314
G2 X-2.9407 Y-6.1307 I0.0523 J0.0343
G1 X-2.9419 Y-6.1288
G2 X-2.9426 Y-6.1277 I0.0527 J0.0335
G1 X-2.9437 Y-6.1258
G2 X-2.9443 Y-6.1247 I0.0534 J0.0324
G1 X-2.9455 Y-6.1228
G2 X-2.9458 Y-6.1222 I0.0541 J0.0313
G1 X-2.9469 Y-6.1203
G2 X-2.9472 Y-6.1198 I0.0544 J0.0308
G1 X-2.9482 Y-6.1178
G2 X-2.9487 Y-6.117 I0.0547 J0.0302
G1 X-2.9498 Y-6.115
G2 X-2.95 Y-6.1146 I0.0552 J0.0294
G1 X-2.951 Y-6.1126
G2 X-2.9512 Y-6.1122 I0.0554 J0.0289
G1 X-2.9522 Y-6.1103
X-2.9523 Y-6.1101
X-2.9533 Y-6.1081
G2 X-2.9537 Y-6.1074 I0.0557 J0.0284
G1 X-2.9547 Y-6.1054
Y-6.1053
X-2.9556 Y-6.1035
X-2.9565 Y-6.1017
G2 X-2.9589 Y-6.0964 I0.0559 J0.028
G1 X-3.5967 Y-4.4536
X-3.7757
X-3.9183 Y-4.7315
X-4.4544 Y-6.0926
G2 X-4.4567 Y-6.0977 I-0.0582 J0.0229
G1 X-4.4587 Y-6.1018
X-4.4589 Y-6.102
X-4.4609 Y-6.106
G2 X-4.4612 Y-6.1067 I-0.0558 J0.0282
G1 X-4.4633 Y-6.1107
G2 X-4.4635 Y-6.1111 I-0.0555 J0.0288
G1 X-4.4657 Y-6.1151
G2 X-4.4664 Y-6.1164 I-0.0552 J0.0292
G1 X-4.4686 Y-6.1204
G2 X-4.4689 Y-6.121 I-0.0545 J0.0305
G1 X-4.4712 Y-6.1249
G2 X-4.472 Y-6.1262 I-0.0542 J0.0312
G1 X-4.4743 Y-6.13
G2 X-4.4752 Y-6.1316 I-0.0534 J0.0325
G1 X-4.4777 Y-6.1353
G2 X-4.4788 Y-6.137 I-0.0524 J0.034
G1 X-4.4813 Y-6.1406
G2 X-4.4827 Y-6.1425 I-0.0513 J0.0357
G1 X-4.4853 Y-6.146
G2 X-4.4868 Y-6.1478 I-0.0499 J0.0376
G1 X-4.4895 Y-6.1512
G2 X-4.4916 Y-6.1537 I-0.0485 J0.0395
G1 X-4.4946 Y-6.1569
G2 X-4.4968 Y-6.1592 I-0.0464 J0.0419
G1 X-4.4998 Y-6.1623
G2 X-4.5013 Y-6.1637 I-0.0442 J0.0442
G1 X-4.5044 Y-6.1667
G2 X-4.5074 Y-6.1693 I-0.0428 J0.0456
G1 X-4.5108 Y-6.1721
G2 X-4.512 Y-6.1731 I-0.0398 J0.0482
G1 X-4.5155 Y-6.1758
G2 X-4.517 Y-6.1769 I-0.0386 J0.0492
G1 X-4.5206 Y-6.1796
G2 X-4.5222 Y-6.1807 I-0.0371 J0.0503
G1 X-4.5259 Y-6.1833
G2 X-4.5274 Y-6.1843 I-0.0354 J0.0515
G1 X-4.5312 Y-6.1867
G2 X-4.5322 Y-6.1874 I-0.0339 J0.0525
G1 X-4.536 Y-6.1897
G2 X-4.5365 Y-6.19 I-0.0329 J0.0532
G1 X-4.5404 Y-6.1924
G2 X-4.5412 Y-6.1929 I-0.0324 J0.0534
G1 X-4.5451 Y-6.1951
G2 X-4.5457 Y-6.1955 I-0.0316 J0.0539
G1 X-4.5496 Y-6.1977
X-4.5535 Y-6.1999
G2 X-4.5599 Y-6.2032 I-0.0311 J0.0542
G1 X-4.6532 Y-6.2432
X-4.1541
X-4.3264 Y-6.1835
G2 X-4.3642 Y-6.1019 I0.0205 J0.059
G1 X-4.1936 Y-5.6605
G2 X-4.1353 Y-5.6206 I0.0583 J-0.0225
G1 X-3.4926
G0 Z0.2
X-2.0364 Y-6.0631
G1 Z-0.1 F20
Y-4.6604
G2 X-2.0363 Y-4.6563 I0.0625
G1 X-2.0362 Y-4.6542
Y-4.654
X-2.036 Y-4.6519
G2 Y-4.6514 I0.0624 J-0.0043
G1 X-2.0358 Y-4.6493
G2 Y-4.6486 I0.0623 J-0.0048
G1 X-2.0356 Y-4.6465
G2 X-2.0355 Y-4.6457 I0.0623 J-0.0055
G1 X-2.0353 Y-4.6436
G2 X-2.0351 Y-4.6423 I0.0622 J-0.0063
G1 X-2.0349 Y-4.6403
G2 X-2.0347 Y-4.639 I0.062 J-0.0076
G1 X-2.0344 Y-4.6369
G2 X-2.0341 Y-4.6351 I0.0619 J-0.0089
G1 X-2.0338 Y-4.6331
G2 X-2.0334 Y-4.6314 I0.0616 J-0.0107
G1 X-2.033 Y-4.6294
G2 X-2.0325 Y-4.6271 I0.0612 J-0.0125
G1 X-2.0321 Y-4.6252
G2 X-2.0315 Y-4.623 I0.0607 J-0.0147
G1 X-2.031 Y-4.6211
G2 X-2.03 Y-4.6179 I0.0602 J-0.0169
G1 X-2.0293 Y-4.616
G2 X-2.0285 Y-4.6137 I0.0592 J-0.02
G1 X-2.0278 Y-4.6118
G2 X-2.0266 Y-4.6089 I0.0584 J-0.0224
G1 X-2.0258 Y-4.6071
G2 X-2.0246 Y-4.6045 I0.0572 J-0.0252
G1 X-2.0237 Y-4.6027
G2 X-2.0225 Y-4.6004 I0.056 J-0.0278
G1 X-2.0215 Y-4.5986
G2 X-2.0206 Y-4.5971 I0.0548 J-0.0301
G1 X-2.0196 Y-4.5953
G2 X-2.0185 Y-4.5935 I0.0539 J-0.0316
G1 X-2.0174 Y-4.5918
G2 X-2.0164 Y-4.5903 I0.0528 J-0.0334
G1 X-2.0153 Y-4.5886
G2 X-2.015 Y-4.5882 I0.0518 J-0.0349
G1 X-2.0138 Y-4.5865
G2 X-2.013 Y-4.5853 I0.0516 J-0.0353
G1 X-2.0118 Y-4.5836
G2 X-2.011 Y-4.5825 I0.0508 J-0.0365
G1 X-2.0098 Y-4.581
X-2.0087 Y-4.5794
G2 X-2.0081 Y-4.5787 I0.0501 J-0.0373
G1 X-2.0069 Y-4.5771
G2 X-1.9998 Y-4.5693 I0.0496 J-0.038
G1 X-1.9969 Y-4.5666
G2 X-1.9961 Y-4.5659 I0.0425 J-0.0458
G1 X-1.9947 Y-4.5646
X-1.9945 Y-4.5645
X-1.9931 Y-4.5632
G2 X-1.9922 Y-4.5624 I0.0416 J-0.0466
G1 X-1.9907 Y-4.5611
X-1.9905 Y-4.5609
X-1.989 Y-4.5596
X-1.9888 Y-4.5595
X-1.9873 Y-4.5582
G2 X-1.9854 Y-4.5567 I0.0403 J-0.0478
G1 X-1.9839 Y-4.5555
X-1.9836 Y-4.5553
X-1.982 Y-4.5541
G2 X-1.98 Y-4.5526 I0.038 J-0.0496
G1 X-1.9784 Y-4.5515
G2 X-1.9771 Y-4.5506 I0.036 J-0.0511
G1 X-1.9755 Y-4.5495
G2 X-1.9751 Y-4.5492 I0.0347 J-0.052
G1 X-1.9735 Y-4.5482
G2 X-1.9702 Y-4.5462 I0.0343 J-0.0523
G1 X-1.9686 Y-4.5452
G2 X-1.9681 Y-4.545 I0.031 J-0.0543
G1 X-1.9664 Y-4.544
G2 X-1.9641 Y-4.5428 I0.0306 J-0.0545
G1 X-1.9624 Y-4.5419
G2 X-1.961 Y-4.5412 I0.0282 J-0.0558
G1 X-1.9593 Y-4.5404
X-1.959 Y-4.5403
X-1.9572 Y-4.5395
G2 X-1.9549 Y-4.5384 I0.0266 J-0.0566
G1 X-1.9531 Y-4.5377
X-1.9529 Y-4.5376
X-1.9511 Y-4.5368
G2 X-1.9499 Y-4.5363 I0.024 J-0.0577
G1 X-1.9481 Y-4.5356
X-1.9479
X-1.9461 Y-4.5349
X-1.946 Y-4.5348
X-1.9442 Y-4.5341
G2 X-1.943 Y-4.5337 I0.0226 J-0.0583
G1 X-1.9394 Y-4.5323
G2 X-1.9382 Y-4.5319 I0.0214 J-0.0587
G1 X-1.7949 Y-4.4829
X-2.5716
X-2.4284 Y-4.5319
G2 X-2.4269 Y-4.5325 I-0.0202 J-0.0591
G1 X-2.4256 Y-4.5329
X-2.4244 Y-4.5334
G2 X-2.4232 Y-4.5338 I-0.0206 J-0.059
G1 X-2.4214 Y-4.5345
X-2.4213
X-2.4195 Y-4.5352
G2 X-2.4183 Y-4.5356 I-0.0219 J-0.0585
G1 X-2.4165 Y-4.5363
X-2.4163 Y-4.5364
X-2.4146 Y-4.5371
G2 X-2.4133 Y-4.5377 I-0.0233 J-0.058
G1 X-2.4115 Y-4.5384
G2 X-2.4102 Y-4.539 I-0.0246 J-0.0575
G1 X-2.4085 Y-4.5398
G2 X-2.4072 Y-4.5404 I-0.0259 J-0.0569
G1 X-2.4055 Y-4.5412
X-2.4052 Y-4.5414
X-2.4035 Y-4.5422
G2 X-2.401 Y-4.5435 I-0.0275 J-0.0561
G1 X-2.3994 Y-4.5444
G2 X-2.3979 Y-4.5452 I-0.03 J-0.0548
G1 X-2.3963 Y-4.5461
G2 X-2.3949 Y-4.547 I-0.0314 J-0.054
G1 X-2.3933 Y-4.548
G2 X-2.391 Y-4.5494 I-0.0328 J-0.0532
G1 X-2.3895 Y-4.5505
G2 X-2.3882 Y-4.5514 I-0.0351 J-0.0517
G1 X-2.3866 Y-4.5525
G2 X-2.3863 Y-4.5528 I-0.0364 J-0.0508
G1 X-2.3847 Y-4.5539
G2 X-2.3827 Y-4.5554 I-0.0368 J-0.0505
G1 X-2.3812 Y-4.5566
G2 X-2.3802 Y-4.5574 I-0.0388 J-0.049
G1 X-2.3787 Y-4.5586
G2 X-2.3784 Y-4.5589 I-0.0398 J-0.0482
G1 X-2.3769 Y-4.5601
X-2.3767 Y-4.5603
X-2.3753 Y-4.5615
G2 X-2.3737 Y-4.5629 I-0.0403 J-0.0477
G1 X-2.3725 Y-4.564
X-2.3714 Y-4.565
G2 X-2.3705 Y-4.5657 I-0.0414 J-0.0468
G1 X-2.3677 Y-4.5683
G2 X-2.3596 Y-4.5773 I-0.0422 J-0.0461
G1 X-2.3584 Y-4.579
X-2.3582 Y-4.5792
X-2.357 Y-4.5809
G2 X-2.3564 Y-4.5817 I-0.0505 J-0.0369
G1 X-2.3552 Y-4.5835
G2 X-2.3548 Y-4.5841 I-0.051 J-0.0361
G1 X-2.3536 Y-4.5858
G2 X-2.3531 Y-4.5865 I-0.0515 J-0.0354
G1 X-2.352 Y-4.5882
G2 X-2.3514 Y-4.589 I-0.0519 J-0.0348
G1 X-2.3503 Y-4.5907
G2 X-2.3492 Y-4.5925 I-0.0525 J-0.034
G1 X-2.3481 Y-4.5943
G2 X-2.3471 Y-4.596 I-0.0535 J-0.0322
G1 X-2.3461 Y-4.5978
G2 X-2.3452 Y-4.5995 I-0.0546 J-0.0305
G1 X-2.3443 Y-4.6013
G2 X-2.3431 Y-4.6036 I-0.0555 J-0.0288
G1 X-2.3423 Y-4.6055
G2 X-2.3411 Y-4.6081 I-0.0566 J-0.0265
G1 X-2.3403 Y-4.61
G2 X-2.3394 Y-4.6123 I-0.0578 J-0.0238
G1 X-2.3387 Y-4.6142
G2 X-2.3377 Y-4.6172 I-0.0587 J-0.0215
G1 X-2.3371 Y-4.6192
G2 X-2.3364 Y-4.6217 I-0.0597 J-0.0185
G1 X-2.3358 Y-4.6237
G2 X-2.3353 Y-4.6261 I-0.0604 J-0.016
G1 X-2.3348 Y-4.6281
G2 X-2.3344 Y-4.6301 I-0.061 J-0.0135
G1 X-2.334 Y-4.6321
G2 X-2.3337 Y-4.634 I-0.0614 J-0.0116
G1 X-2.3334 Y-4.6361
G2 X-2.3331 Y-4.6378 I-0.0618 J-0.0096
G1 X-2.3329 Y-4.6398
G2 X-2.3327 Y-4.641 I-0.062 J-0.008
G1 X-2.3325 Y-4.643
G2 X-2.3324 Y-4.6444 I-0.0621 J-0.0068
G1 X-2.3322 Y-4.6465
G2 X-2.3321 Y-4.6473 I-0.0623 J-0.0054
G1 X-2.332 Y-4.6494
G2 X-2.3319 Y-4.6501 I-0.0623 J-0.0047
G1 X-2.3318 Y-4.6523
G2 Y-4.6526 I-0.0624 J-0.0039
G1 X-2.3317 Y-4.6547
X-2.3316 Y-4.655
X-2.3315 Y-4.6572
G2 X-2.3314 Y-4.6604 I-0.0624 J-0.0032
G1 Y-6.0631
G2 X-2.3315 Y-6.0657 I-0.0625
G1 X-2.3316 Y-6.0677
Y-6.0679
X-2.3317 Y-6.07
G2 Y-6.0704 I-0.0624 J0.0028
G1 X-2.3318 Y-6.0725
G2 Y-6.0731 I-0.0624 J0.0032
G1 X-2.332 Y-6.0752
G2 Y-6.076 I-0.0624 J0.0038
G1 X-2.3322 Y-6.0781
G2 X-2.3323 Y-6.079 I-0.0623 J0.0047
G1 X-2.3324 Y-6.0811
G2 X-2.3326 Y-6.0822 I-0.0622 J0.0056
G1 X-2.3328 Y-6.0843
G2 X-2.333 Y-6.0859 I-0.0621 J0.0068
G1 X-2.3332 Y-6.0879
G2 X-2.3335 Y-6.0894 I-0.0619 J0.0084
G1 X-2.3338 Y-6.0914
G2 X-2.3342 Y-6.0934 I-0.0617 J0.0099
G1 X-2.3345 Y-6.0954
G2 X-2.335 Y-6.0974 I-0.0614 J0.0119
G1 X-2.3354 Y-6.0993
G2 X-2.336 Y-6.1017 I-0.0609 J0.0139
G1 X-2.3365 Y-6.1036
G2 X-2.3372 Y-6.1059 I-0.0603 J0.0163
G1 X-2.3378 Y-6.1078
G2 X-2.3387 Y-6.1105 I-0.0597 J0.0185
G1 X-2.3393 Y-6.1124
G2 X-2.3403 Y-6.1149 I-0.0588 J0.0212
G1 X-2.3411 Y-6.1168
G2 X-2.3419 Y-6.1186 I-0.0578 J0.0237
G1 X-2.3427 Y-6.1205
G2 X-2.3436 Y-6.1224 I-0.057 J0.0256
G1 X-2.3445 Y-6.1243
G2 X-2.3455 Y-6.1261 I-0.0561 J0.0276
G1 X-2.3464 Y-6.1279
G2 X-2.3467 Y-6.1285 I-0.0551 J0.0294
G1 X-2.3477 Y-6.1303
G2 X-2.3485 Y-6.1317 I-0.0548 J0.03
G1 X-2.3496 Y-6.1335
G2 X-2.35 Y-6.1342 I-0.054 J0.0314
G1 X-2.3511 Y-6.136
G2 X-2.3516 Y-6.1369 I-0.0536 J0.0322
G1 X-2.3527 Y-6.1386
X-2.3537 Y-6.1403
G2 X-2.3542 Y-6.141 I-0.0531 J0.0329
G1 X-2.3553 Y-6.1428
G2 X-2.3639 Y-6.1534 I-0.0526 J0.0337
G1 X-2.3653 Y-6.1548
G2 X-2.3661 Y-6.1555 I-0.0441 J0.0443
G1 X-2.3675 Y-6.157
X-2.3676
X-2.3691 Y-6.1584
G2 X-2.3698 Y-6.1592 I-0.0433 J0.0451
G1 X-2.3713 Y-6.1605
X-2.3716 Y-6.1608
X-2.3731 Y-6.1621
G2 X-2.3734 Y-6.1624 I-0.0423 J0.046
G1 X-2.3749 Y-6.1638
G2 X-2.3758 Y-6.1646 I-0.042 J0.0463
G1 X-2.3773 Y-6.1659
G2 X-2.3791 Y-6.1674 I-0.0411 J0.0471
G1 X-2.3807 Y-6.1687
G2 X-2.3811 Y-6.169 I-0.0393 J0.0486
G1 X-2.3827 Y-6.1703
G2 X-2.3839 Y-6.1712 I-0.0389 J0.0489
G1 X-2.3855 Y-6.1725
G2 X-2.3876 Y-6.174 I-0.0376 J0.0499
G1 X-2.3892 Y-6.1751
G2 X-2.3906 Y-6.176 I-0.0356 J0.0514
G1 X-2.3923 Y-6.1771
G2 X-2.3945 Y-6.1785 I-0.0342 J0.0523
G1 X-2.3963 Y-6.1795
G2 X-2.3976 Y-6.1803 I-0.032 J0.0537
G1 X-2.3994 Y-6.1813
G2 X-2.3998 Y-6.1815 I-0.0306 J0.0545
G1 X-2.4015 Y-6.1825
G2 X-2.4037 Y-6.1837 I-0.0302 J0.0547
G1 X-2.4056 Y-6.1846
G2 X-2.4068 Y-6.1852 I-0.028 J0.0559
G1 X-2.4087 Y-6.1861
G2 X-2.4099 Y-6.1866 I-0.0267 J0.0565
G1 X-2.4117 Y-6.1875
X-2.412 Y-6.1876
X-2.4138 Y-6.1884
G2 X-2.415 Y-6.1889 I-0.0253 J0.0572
G1 X-2.4169 Y-6.1897
X-2.417
X-2.4189 Y-6.1905
G2 X-2.42 Y-6.191 I-0.024 J0.0577
G1 X-2.4214 Y-6.1915
X-2.4228 Y-6.1921
G2 X-2.4239 Y-6.1925 I-0.0239 J0.0578
G1 X-2.4258 Y-6.1933
G2 X-2.4284 Y-6.1942 I-0.0228 J0.0582
G1 X-2.5716 Y-6.2432
X-1.7949
X-1.9382 Y-6.1942
G2 X-1.9413 Y-6.193 I0.0202 J0.0591
G1 X-1.9426 Y-6.1925
X-1.944 Y-6.192
G2 X-1.9451 Y-6.1915 I0.0223 J0.0584
G1 X-1.947 Y-6.1908
X-1.9489 Y-6.19
X-1.949
X-1.9508 Y-6.1892
G2 X-1.952 Y-6.1887 I0.0236 J0.0579
G1 X-1.9538 Y-6.1879
G2 X-1.9551 Y-6.1874 I0.0248 J0.0574
G1 X-1.9569 Y-6.1866
X-1.9571 Y-6.1865
X-1.9589 Y-6.1856
G2 X-1.9611 Y-6.1845 I0.0263 J0.0567
G1 X-1.9629 Y-6.1836
G2 X-1.9632 Y-6.1834 I0.0285 J0.0556
G1 X-1.965 Y-6.1825
G2 X-1.9662 Y-6.1819 I0.0289 J0.0554
G1 X-1.9679 Y-6.1809
G2 X-1.9694 Y-6.1801 I0.0301 J0.0548
G1 X-1.971 Y-6.1791
G2 X-1.9732 Y-6.1778 I0.0316 J0.0539
G1 X-1.9749 Y-6.1767
G2 X-1.9763 Y-6.1758 I0.0337 J0.0526
G1 X-1.9779 Y-6.1747
G2 X-1.9791 Y-6.1739 I0.0351 J0.0517
G1 X-1.9807 Y-6.1727
G2 X-1.9819 Y-6.1718 I0.0363 J0.0509
G1 X-1.9835 Y-6.1707
X-1.9838 Y-6.1704
X-1.9853 Y-6.1693
G2 X-1.9872 Y-6.1678 I0.0379 J0.0497
G1 X-1.9887 Y-6.1665
X-1.9889 Y-6.1663
X-1.9905 Y-6.1651
G2 X-1.9914 Y-6.1643 I0.04 J0.0481
G1 X-1.9929 Y-6.163
G2 X-1.9937 Y-6.1622 I0.0409 J0.0472
G1 X-1.995 Y-6.1611
X-1.9962 Y-6.1601
G2 X-1.997 Y-6.1594 I0.0412 J0.047
G1 X-1.9999 Y-6.1567
G2 X-2.0089 Y-6.1466 I0.042 J0.0463
G1 X-2.01 Y-6.1451
X-2.0111 Y-6.1436
G2 X-2.0117 Y-6.1427 I0.0506 J0.0367
G1 X-2.0129 Y-6.1409
G2 X-2.0137 Y-6.1398 I0.0513 J0.0358
G1 X-2.0149 Y-6.138
X-2.015 Y-6.1378
X-2.0162 Y-6.136
G2 X-2.017 Y-6.1347 I0.0521 J0.0345
G1 X-2.0182 Y-6.1329
G2 X-2.0189 Y-6.1317 I0.053 J0.0332
G1 X-2.02 Y-6.1299
G2 X-2.0211 Y-6.128 I0.0537 J0.032
G1 X-2.0221 Y-6.1261
G2 X-2.0232 Y-6.124 I0.0548 J0.0301
G1 X-2.0241 Y-6.1221
G2 X-2.025 Y-6.1203 I0.0559 J0.028
G1 X-2.0259 Y-6.1184
G2 X-2.0271 Y-6.1157 I0.0568 J0.0261
G1 X-2.0278 Y-6.1138
G2 X-2.0289 Y-6.1109 I0.0579 J0.0234
G1 X-2.0296 Y-6.1089
G2 X-2.0305 Y-6.1061 I0.059 J0.0205
G1 X-2.0311 Y-6.1041
G2 X-2.0317 Y-6.1019 I0.0599 J0.0177
G1 X-2.0322 Y-6.0999
G2 X-2.0329 Y-6.0972 I0.0605 J0.0155
G1 X-2.0333 Y-6.0951
G2 X-2.0336 Y-6.0934 I0.0612 J0.0128
G1 X-2.034 Y-6.0914
G2 X-2.0343 Y-6.0893 I0.0615 J0.0111
G1 X-2.0347 Y-6.0872
G2 X-2.0348 Y-6.0858 I0.0618 J0.009
G1 X-2.0351 Y-6.0837
G2 X-2.0353 Y-6.0821 I0.062 J0.0077
G1 X-2.0355 Y-6.08
G2 X-2.0356 Y-6.079 I0.0622 J0.0061
G1 X-2.0357 Y-6.0769
G2 X-2.0358 Y-6.0759 I0.0623 J0.0052
G1 X-2.036 Y-6.0738
G2 Y-6.0731 I0.0624 J0.0042
G1 X-2.0361 Y-6.0709
Y-6.0706
X-2.0363 Y-6.0684
Y-6.0682
X-2.0364 Y-6.066
G2 Y-6.0631 I0.0624 J0.003
G1 Z-0.155
Y-4.6604
G2 X-2.0363 Y-4.6563 I0.0625
G1 X-2.0362 Y-4.6542
Y-4.654
X-2.036 Y-4.6519
G2 Y-4.6514 I0.0624 J-0.0043
G1 X-2.0358 Y-4.6493
G2 Y-4.6486 I0.0623 J-0.0048
G1 X-2.0356 Y-4.6465
G2 X-2.0355 Y-4.6457 I0.0623 J-0.0055
G1 X-2.0353 Y-4.6436
G2 X-2.0351 Y-4.6423 I0.0622 J-0.0063
G1 X-2.0349 Y-4.6403
G2 X-2.0347 Y-4.639 I0.062 J-0.0076
G1 X-2.0344 Y-4.6369
G2 X-2.0341 Y-4.6351 I0.0619 J-0.0089
G1 X-2.0338 Y-4.6331
G2 X-2.0334 Y-4.6314 I0.0616 J-0.0107
G1 X-2.033 Y-4.6294
G2 X-2.0325 Y-4.6271 I0.0612 J-0.0125
G1 X-2.0321 Y-4.6252
G2 X-2.0315 Y-4.623 I0.0607 J-0.0147
G1 X-2.031 Y-4.6211
G2 X-2.03 Y-4.6179 I0.0602 J-0.0169
G1 X-2.0293 Y-4.616
G2 X-2.0285 Y-4.6137 I0.0592 J-0.02
G1 X-2.0278 Y-4.6118
G2 X-2.0266 Y-4.6089 I0.0584 J-0.0224
G1 X-2.0258 Y-4.6071
G2 X-2.0246 Y-4.6045 I0.0572 J-0.0252
G1 X-2.0237 Y-4.6027
G2 X-2.0225 Y-4.6004 I0.056 J-0.0278
G1 X-2.0215 Y-4.5986
G2 X-2.0206 Y-4.5971 I0.0548 J-0.0301
G1 X-2.0196 Y-4.5953
G2 X-2.0185 Y-4.5935 I0.0539 J-0.0316
G1 X-2.0174 Y-4.5918
G2 X-2.0164 Y-4.5903 I0.0528 J-0.0334
G1 X-2.0153 Y-4.5886
G2 X-2.015 Y-4.5882 I0.0518 J-0.0349
G1 X-2.0138 Y-4.5865
G2 X-2.013 Y-4.5853 I0.0516 J-0.0353
G1 X-2.0118 Y-4.5836
G2 X-2.011 Y-4.5825 I0.0508 J-0.0365
G1 X-2.0098 Y-4.581
X-2.0087 Y-4.5794
G2 X-2.0081 Y-4.5787 I0.0501 J-0.0373
G1 X-2.0069 Y-4.5771
G2 X-1.9998 Y-4.5693 I0.0496 J-0.038
G1 X-1.9969 Y-4.5666
G2 X-1.9961 Y-4.5659 I0.0425 J-0.0458
G1 X-1.9947 Y-4.5646
X-1.9945 Y-4.5645
X-1.9931 Y-4.5632
G2 X-1.9922 Y-4.5624 I0.0416 J-0.0466
G1 X-1.9907 Y-4.5611
X-1.9905 Y-4.5609
X-1.989 Y-4.5596
X-1.9888 Y-4.5595
X-1.9873 Y-4.5582
G2 X-1.9854 Y-4.5567 I0.0403 J-0.0478
G1 X-1.9839 Y-4.5555
X-1.9836 Y-4.5553
X-1.982 Y-4.5541
G2 X-1.98 Y-4.5526 I0.038 J-0.0496
G1 X-1.9784 Y-4.5515
G2 X-1.9771 Y-4.5506 I0.036 J-0.0511
G1 X-1.9755 Y-4.5495
G2 X-1.9751 Y-4.5492 I0.0347 J-0.052
G1 X-1.9735 Y-4.5482
G2 X-1.9702 Y-4.5462 I0.0343 J-0.0523
G1 X-1.9686 Y-4.5452
G2 X-1.9681 Y-4.545 I0.031 J-0.0543
G1 X-1.9664 Y-4.544
G2 X-1.9641 Y-4.5428 I0.0306 J-0.0545
G1 X-1.9624 Y-4.5419
G2 X-1.961 Y-4.5412 I0.0282 J-0.0558
G1 X-1.9593 Y-4.5404
X-1.959 Y-4.5403
X-1.9572 Y-4.5395
G2 X-1.9549 Y-4.5384 I0.0266 J-0.0566
G1 X-1.9531 Y-4.5377
X-1.9529 Y-4.5376
X-1.9511 Y-4.5368
G2 X-1.9499 Y-4.5363 I0.024 J-0.0577
G1 X-1.9481 Y-4.5356
X-1.9479
X-1.9461 Y-4.5349
X-1.946 Y-4.5348
X-1.9442 Y-4.5341
G2 X-1.943 Y-4.5337 I0.0226 J-0.0583
G1 X-1.9394 Y-4.5323
G2 X-1.9382 Y-4.5319 I0.0214 J-0.0587
G1 X-1.7949 Y-4.4829
X-2.5716
X-2.4284 Y-4.5319
G2 X-2.4269 Y-4.5325 I-0.0202 J-0.0591
G1 X-2.4256 Y-4.5329
X-2.4244 Y-4.5334
G2 X-2.4232 Y-4.5338 I-0.0206 J-0.059
G1 X-2.4214 Y-4.5345
X-2.4213
X-2.4195 Y-4.5352
G2 X-2.4183 Y-4.5356 I-0.0219 J-0.0585
G1 X-2.4165 Y-4.5363
X-2.4163 Y-4.5364
X-2.4146 Y-4.5371
G2 X-2.4133 Y-4.5377 I-0.0233 J-0.058
G1 X-2.4115 Y-4.5384
G2 X-2.4102 Y-4.539 I-0.0246 J-0.0575
G1 X-2.4085 Y-4.5398
G2 X-2.4072 Y-4.5404 I-0.0259 J-0.0569
G1 X-2.4055 Y-4.5412
X-2.4052 Y-4.5414
X-2.4035 Y-4.5422
G2 X-2.401 Y-4.5435 I-0.0275 J-0.0561
G1 X-2.3994 Y-4.5444
G2 X-2.3979 Y-4.5452 I-0.03 J-0.0548
G1 X-2.3963 Y-4.5461
G2 X-2.3949 Y-4.547 I-0.0314 J-0.054
G1 X-2.3933 Y-4.548
G2 X-2.391 Y-4.5494 I-0.0328 J-0.0532
G1 X-2.3895 Y-4.5505
G2 X-2.3882 Y-4.5514 I-0.0351 J-0.0517
G1 X-2.3866 Y-4.5525
G2 X-2.3863 Y-4.5528 I-0.0364 J-0.0508
G1 X-2.3847 Y-4.5539
G2 X-2.3827 Y-4.5554 I-0.0368 J-0.0505
G1 X-2.3812 Y-4.5566
G2 X-2.3802 Y-4.5574 I-0.0388 J-0.049
G1 X-2.3787 Y-4.5586
G2 X-2.3784 Y-4.5589 I-0.0398 J-0.0482
G1 X-2.3769 Y-4.5601
X-2.3767 Y-4.5603
X-2.3753 Y-4.5615
G2 X-2.3737 Y-4.5629 I-0.0403 J-0.0477
G1 X-2.3725 Y-4.564
X-2.3714 Y-4.565
G2 X-2.3705 Y-4.5657 I-0.0414 J-0.0468
G1 X-2.3677 Y-4.5683
G2 X-2.3596 Y-4.5773 I-0.0422 J-0.0461
G1 X-2.3584 Y-4.579
X-2.3582 Y-4.5792
X-2.357 Y-4.5809
G2 X-2.3564 Y-4.5817 I-0.0505 J-0.0369
G1 X-2.3552 Y-4.5835
G2 X-2.3548 Y-4.5841 I-0.051 J-0.0361
G1 X-2.3536 Y-4.5858
G2 X-2.3531 Y-4.5865 I-0.0515 J-0.0354
G1 X-2.352 Y-4.5882
G2 X-2.3514 Y-4.589 I-0.0519 J-0.0348
G1 X-2.3503 Y-4.5907
G2 X-2.3492 Y-4.5925 I-0.0525 J-0.034
G1 X-2.3481 Y-4.5943
G2 X-2.3471 Y-4.596 I-0.0535 J-0.0322
G1 X-2.3461 Y-4.5978
G2 X-2.3452 Y-4.5995 I-0.0546 J-0.0305
G1 X-2.3443 Y-4.6013
G2 X-2.3431 Y-4.6036 I-0.0555 J-0.0288
G1 X-2.3423 Y-4.6055
G2 X-2.3411 Y-4.6081 I-0.0566 J-0.0265
G1 X-2.3403 Y-4.61
G2 X-2.3394 Y-4.6123 I-0.0578 J-0.0238
G1 X-2.3387 Y-4.6142
G2 X-2.3377 Y-4.6172 I-0.0587 J-0.0215
G1 X-2.3371 Y-4.6192
G2 X-2.3364 Y-4.6217 I-0.0597 J-0.0185
G1 X-2.3358 Y-4.6237
G2 X-2.3353 Y-4.6261 I-0.0604 J-0.016
G1 X-2.3348 Y-4.6281
G2 X-2.3344 Y-4.6301 I-0.061 J-0.0135
G1 X-2.334 Y-4.6321
G2 X-2.3337 Y-4.634 I-0.0614 J-0.0116
G1 X-2.3334 Y-4.6361
G2 X-2.3331 Y-4.6378 I-0.0618 J-0.0096
G1 X-2.3329 Y-4.6398
G2 X-2.3327 Y-4.641 I-0.062 J-0.008
G1 X-2.3325 Y-4.643
G2 X-2.3324 Y-4.6444 I-0.0621 J-0.0068
G1 X-2.3322 Y-4.6465
G2 X-2.3321 Y-4.6473 I-0.0623 J-0.0054
G1 X-2.332 Y-4.6494
G2 X-2.3319 Y-4.6501 I-0.0623 J-0.0047
G1 X-2.3318 Y-4.6523
G2 Y-4.6526 I-0.0624 J-0.0039
G1 X-2.3317 Y-4.6547
X-2.3316 Y-4.655
X-2.3315 Y-4.6572
G2 X-2.3314 Y-4.6604 I-0.0624 J-0.0032
G1 Y-6.0631
G2 X-2.3315 Y-6.0657 I-0.0625
G1 X-2.3316 Y-6.0677
Y-6.0679
X-2.3317 Y-6.07
G2 Y-6.0704 I-0.0624 J0.0028
G1 X-2.3318 Y-6.0725
G2 Y-6.0731 I-0.0624 J0.0032
G1 X-2.332 Y-6.0752
G2 Y-6.076 I-0.0624 J0.0038
G1 X-2.3322 Y-6.0781
G2 X-2.3323 Y-6.079 I-0.0623 J0.0047
G1 X-2.3324 Y-6.0811
G2 X-2.3326 Y-6.0822 I-0.0622 J0.0056
G1 X-2.3328 Y-6.0843
G2 X-2.333 Y-6.0859 I-0.0621 J0.0068
G1 X-2.3332 Y-6.0879
G2 X-2.3335 Y-6.0894 I-0.0619 J0.0084
G1 X-2.3338 Y-6.0914
G2 X-2.3342 Y-6.0934 I-0.0617 J0.0099
G1 X-2.3345 Y-6.0954
G2 X-2.335 Y-6.0974 I-0.0614 J0.0119
G1 X-2.3354 Y-6.0993
G2 X-2.336 Y-6.1017 I-0.0609 J0.0139
G1 X-2.3365 Y-6.1036
G2 X-2.3372 Y-6.1059 I-0.0603 J0.0163
G1 X-2.3378 Y-6.1078
G2 X-2.3387 Y-6.1105 I-0.0597 J0.0185
G1 X-2.3393 Y-6.1124
G2 X-2.3403 Y-6.1149 I-0.0588 J0.0212
G1 X-2.3411 Y-6.1168
G2 X-2.3419 Y-6.1186 I-0.0578 J0.0237
G1 X-2.3427 Y-6.1205
G2 X-2.3436 Y-6.1224 I-0.057 J0.0256
G1 X-2.3445 Y-6.1243
G2 X-2.3455 Y-6.1261 I-0.0561 J0.0276
G1 X-2.3464 Y-6.1279
G2 X-2.3467 Y-6.1285 I-0.0551 J0.0294
G1 X-2.3477 Y-6.1303
G2 X-2.3485 Y-6.1317 I-0.0548 J0.03
G1 X-2.3496 Y-6.1335
G2 X-2.35 Y-6.1342 I-0.054 J0.0314
G1 X-2.3511 Y-6.136
G2 X-2.3516 Y-6.1369 I-0.0536 J0.0322
G1 X-2.3527 Y-6.1386
X-2.3537 Y-6.1403
G2 X-2.3542 Y-6.141 I-0.0531 J0.0329
G1 X-2.3553 Y-6.1428
G2 X-2.3639 Y-6.1534 I-0.0526 J0.0337
G1 X-2.3653 Y-6.1548
G2 X-2.3661 Y-6.1555 I-0.0441 J0.0443
G1 X-2.3675 Y-6.157
X-2.3676
X-2.3691 Y-6.1584
G2 X-2.3698 Y-6.1592 I-0.0433 J0.0451
G1 X-2.3713 Y-6.1605
X-2.3716 Y-6.1608
X-2.3731 Y-6.1621
G2 X-2.3734 Y-6.1624 I-0.0423 J0.046
G1 X-2.3749 Y-6.1638
G2 X-2.3758 Y-6.1646 I-0.042 J0.0463
G1 X-2.3773 Y-6.1659
G2 X-2.3791 Y-6.1674 I-0.0411 J0.0471
G1 X-2.3807 Y-6.1687
G2 X-2.3811 Y-6.169 I-0.0393 J0.0486
G1 X-2.3827 Y-6.1703
G2 X-2.3839 Y-6.1712 I-0.0389 J0.0489
G1 X-2.3855 Y-6.1725
G2 X-2.3876 Y-6.174 I-0.0376 J0.0499
G1 X-2.3892 Y-6.1751
G2 X-2.3906 Y-6.176 I-0.0356 J0.0514
G1 X-2.3923 Y-6.1771
G2 X-2.3945 Y-6.1785 I-0.0342 J0.0523
G1 X-2.3963 Y-6.1795
G2 X-2.3976 Y-6.1803 I-0.032 J0.0537
G1 X-2.3994 Y-6.1813
G2 X-2.3998 Y-6.1815 I-0.0306 J0.0545
G1 X-2.4015 Y-6.1825
G2 X-2.4037 Y-6.1837 I-0.0302 J0.0547
G1 X-2.4056 Y-6.1846
G2 X-2.4068 Y-6.1852 I-0.028 J0.0559
G1 X-2.4087 Y-6.1861
G2 X-2.4099 Y-6.1866 I-0.0267 J0.0565
G1 X-2.4117 Y-6.1875
X-2.412 Y-6.1876
X-2.4138 Y-6.1884
G2 X-2.415 Y-6.1889 I-0.0253 J0.0572
G1 X-2.4169 Y-6.1897
X-2.417
X-2.4189 Y-6.1905
G2 X-2.42 Y-6.191 I-0.024 J0.0577
G1 X-2.4214 Y-6.1915
X-2.4228 Y-6.1921
G2 X-2.4239 Y-6.1925 I-0.0239 J0.0578
G1 X-2.4258 Y-6.1933
G2 X-2.4284 Y-6.1942 I-0.0228 J0.0582
G1 X-2.5716 Y-6.2432
X-1.7949
X-1.9382 Y-6.1942
G2 X-1.9413 Y-6.193 I0.0202 J0.0591
G1 X-1.9426 Y-6.1925
X-1.944 Y-6.192
G2 X-1.9451 Y-6.1915 I0.0223 J0.0584
G1 X-1.947 Y-6.1908
X-1.9489 Y-6.19
X-1.949
X-1.9508 Y-6.1892
G2 X-1.952 Y-6.1887 I0.0236 J0.0579
G1 X-1.9538 Y-6.1879
G2 X-1.9551 Y-6.1874 I0.0248 J0.0574
G1 X-1.9569 Y-6.1866
X-1.9571 Y-6.1865
X-1.9589 Y-6.1856
G2 X-1.9611 Y-6.1845 I0.0263 J0.0567
G1 X-1.9629 Y-6.1836
G2 X-1.9632 Y-6.1834 I0.0285 J0.0556
G1 X-1.965 Y-6.1825
G2 X-1.9662 Y-6.1819 I0.0289 J0.0554
G1 X-1.9679 Y-6.1809
G2 X-1.9694 Y-6.1801 I0.0301 J0.0548
G1 X-1.971 Y-6.1791
G2 X-1.9732 Y-6.1778 I0.0316 J0.0539
G1 X-1.9749 Y-6.1767
G2 X-1.9763 Y-6.1758 I0.0337 J0.0526
G1 X-1.9779 Y-6.1747
G2 X-1.9791 Y-6.1739 I0.0351 J0.0517
G1 X-1.9807 Y-6.1727
G2 X-1.9819 Y-6.1718 I0.0363 J0.0509
G1 X-1.9835 Y-6.1707
X-1.9838 Y-6.1704
X-1.9853 Y-6.1693
G2 X-1.9872 Y-6.1678 I0.0379 J0.0497
G1 X-1.9887 Y-6.1665
X-1.9889 Y-6.1663
X-1.9905 Y-6.1651
G2 X-1.9914 Y-6.1643 I0.04 J0.0481
G1 X-1.9929 Y-6.163
G2 X-1.9937 Y-6.1622 I0.0409 J0.0472
G1 X-1.995 Y-6.1611
X-1.9962 Y-6.1601
G2 X-1.997 Y-6.1594 I0.0412 J0.047
G1 X-1.9999 Y-6.1567
G2 X-2.0089 Y-6.1466 I0.042 J0.0463
G1 X-2.01 Y-6.1451
X-2.0111 Y-6.1436
G2 X-2.0117 Y-6.1427 I0.0506 J0.0367
G1 X-2.0129 Y-6.1409
G2 X-2.0137 Y-6.1398 I0.0513 J0.0358
G1 X-2.0149 Y-6.138
X-2.015 Y-6.1378
X-2.0162 Y-6.136
G2 X-2.017 Y-6.1347 I0.0521 J0.0345
G1 X-2.0182 Y-6.1329
G2 X-2.0189 Y-6.1317 I0.053 J0.0332
G1 X-2.02 Y-6.1299
G2 X-2.0211 Y-6.128 I0.0537 J0.032
G1 X-2.0221 Y-6.1261
G2 X-2.0232 Y-6.124 I0.0548 J0.0301
G1 X-2.0241 Y-6.1221
G2 X-2.025 Y-6.1203 I0.0559 J0.028
G1 X-2.0259 Y-6.1184
G2 X-2.0271 Y-6.1157 I0.0568 J0.0261
G1 X-2.0278 Y-6.1138
G2 X-2.0289 Y-6.1109 I0.0579 J0.0234
G1 X-2.0296 Y-6.1089
G2 X-2.0305 Y-6.1061 I0.059 J0.0205
G1 X-2.0311 Y-6.1041
G2 X-2.0317 Y-6.1019 I0.0599 J0.0177
G1 X-2.0322 Y-6.0999
G2 X-2.0329 Y-6.0972 I0.0605 J0.0155
G1 X-2.0333 Y-6.0951
G2 X-2.0336 Y-6.0934 I0.0612 J0.0128
G1 X-2.034 Y-6.0914
G2 X-2.0343 Y-6.0893 I0.0615 J0.0111
G1 X-2.0347 Y-6.0872
G2 X-2.0348 Y-6.0858 I0.0618 J0.009
G1 X-2.0351 Y-6.0837
G2 X-2.0353 Y-6.0821 I0.062 J0.0077
G1 X-2.0355 Y-6.08
G2 X-2.0356 Y-6.079 I0.0622 J0.0061
G1 X-2.0357 Y-6.0769
G2 X-2.0358 Y-6.0759 I0.0623 J0.0052
G1 X-2.036 Y-6.0738
G2 Y-6.0731 I0.0624 J0.0042
G1 X-2.0361 Y-6.0709
Y-6.0706
X-2.0363 Y-6.0684
Y-6.0682
X-2.0364 Y-6.066
G2 Y-6.0631 I0.0624 J0.003
G1 Z-0.21
Y-4.6604
G2 X-2.0363 Y-4.6563 I0.0625
G1 X-2.0362 Y-4.6542
Y-4.654
X-2.036 Y-4.6519
G2 Y-4.6514 I0.0624 J-0.0043
G1 X-2.0358 Y-4.6493
G2 Y-4.6486 I0.0623 J-0.0048
G1 X-2.0356 Y-4.6465
G2 X-2.0355 Y-4.6457 I0.0623 J-0.0055
G1 X-2.0353 Y-4.6436
G2 X-2.0351 Y-4.6423 I0.0622 J-0.0063
G1 X-2.0349 Y-4.6403
G2 X-2.0347 Y-4.639 I0.062 J-0.0076
G1 X-2.0344 Y-4.6369
G2 X-2.0341 Y-4.6351 I0.0619 J-0.0089
G1 X-2.0338 Y-4.6331
G2 X-2.0334 Y-4.6314 I0.0616 J-0.0107
G1 X-2.033 Y-4.6294
G2 X-2.0325 Y-4.6271 I0.0612 J-0.0125
G1 X-2.0321 Y-4.6252
G2 X-2.0315 Y-4.623 I0.0607 J-0.0147
G1 X-2.031 Y-4.6211
G2 X-2.03 Y-4.6179 I0.0602 J-0.0169
G1 X-2.0293 Y-4.616
G2 X-2.0285 Y-4.6137 I0.0592 J-0.02
G1 X-2.0278 Y-4.6118
G2 X-2.0266 Y-4.6089 I0.0584 J-0.0224
G1 X-2.0258 Y-4.6071
G2 X-2.0246 Y-4.6045 I0.0572 J-0.0252
G1 X-2.0237 Y-4.6027
G2 X-2.0225 Y-4.6004 I0.056 J-0.0278
G1 X-2.0215 Y-4.5986
G2 X-2.0206 Y-4.5971 I0.0548 J-0.0301
G1 X-2.0196 Y-4.5953
G2 X-2.0185 Y-4.5935 I0.0539 J-0.0316
G1 X-2.0174 Y-4.5918
G2 X-2.0164 Y-4.5903 I0.0528 J-0.0334
G1 X-2.0153 Y-4.5886
G2 X-2.015 Y-4.5882 I0.0518 J-0.0349
G1 X-2.0138 Y-4.5865
G2 X-2.013 Y-4.5853 I0.0516 J-0.0353
G1 X-2.0118 Y-4.5836
G2 X-2.011 Y-4.5825 I0.0508 J-0.0365
G1 X-2.0098 Y-4.581
X-2.0087 Y-4.5794
G2 X-2.0081 Y-4.5787 I0.0501 J-0.0373
G1 X-2.0069 Y-4.5771
G2 X-1.9998 Y-4.5693 I0.0496 J-0.038
G1 X-1.9969 Y-4.5666
G2 X-1.9961 Y-4.5659 I0.0425 J-0.0458
G1 X-1.9947 Y-4.5646
X-1.9945 Y-4.5645
X-1.9931 Y-4.5632
G2 X-1.9922 Y-4.5624 I0.0416 J-0.0466
G1 X-1.9907 Y-4.5611
X-1.9905 Y-4.5609
X-1.989 Y-4.5596
X-1.9888 Y-4.5595
X-1.9873 Y-4.5582
G2 X-1.9854 Y-4.5567 I0.0403 J-0.0478
G1 X-1.9839 Y-4.5555
X-1.9836 Y-4.5553
X-1.982 Y-4.5541
G2 X-1.98 Y-4.5526 I0.038 J-0.0496
G1 X-1.9784 Y-4.5515
G2 X-1.9771 Y-4.5506 I0.036 J-0.0511
G1 X-1.9755 Y-4.5495
G2 X-1.9751 Y-4.5492 I0.0347 J-0.052
G1 X-1.9735 Y-4.5482
G2 X-1.9702 Y-4.5462 I0.0343 J-0.0523
G1 X-1.9686 Y-4.5452
G2 X-1.9681 Y-4.545 I0.031 J-0.0543
G1 X-1.9664 Y-4.544
G2 X-1.9641 Y-4.5428 I0.0306 J-0.0545
G1 X-1.9624 Y-4.5419
G2 X-1.961 Y-4.5412 I0.0282 J-0.0558
G1 X-1.9593 Y-4.5404
X-1.959 Y-4.5403
X-1.9572 Y-4.5395
G2 X-1.9549 Y-4.5384 I0.0266 J-0.0566
G1 X-1.9531 Y-4.5377
X-1.9529 Y-4.5376
X-1.9511 Y-4.5368
G2 X-1.9499 Y-4.5363 I0.024 J-0.0577
G1 X-1.9481 Y-4.5356
X-1.9479
X-1.9461 Y-4.5349
X-1.946 Y-4.5348
X-1.9442 Y-4.5341
G2 X-1.943 Y-4.5337 I0.0226 J-0.0583
G1 X-1.9394 Y-4.5323
G2 X-1.9382 Y-4.5319 I0.0214 J-0.0587
G1 X-1.7949 Y-4.4829
X-2.5716
X-2.4284 Y-4.5319
G2 X-2.4269 Y-4.5325 I-0.0202 J-0.0591
G1 X-2.4256 Y-4.5329
X-2.4244 Y-4.5334
G2 X-2.4232 Y-4.5338 I-0.0206 J-0.059
G1 X-2.4214 Y-4.5345
X-2.4213
X-2.4195 Y-4.5352
G2 X-2.4183 Y-4.5356 I-0.0219 J-0.0585
G1 X-2.4165 Y-4.5363
X-2.4163 Y-4.5364
X-2.4146 Y-4.5371
G2 X-2.4133 Y-4.5377 I-0.0233 J-0.058
G1 X-2.4115 Y-4.5384
G2 X-2.4102 Y-4.539 I-0.0246 J-0.0575
G1 X-2.4085 Y-4.5398
G2 X-2.4072 Y-4.5404 I-0.0259 J-0.0569
G1 X-2.4055 Y-4.5412
X-2.4052 Y-4.5414
X-2.4035 Y-4.5422
G2 X-2.401 Y-4.5435 I-0.0275 J-0.0561
G1 X-2.3994 Y-4.5444
G2 X-2.3979 Y-4.5452 I-0.03 J-0.0548
G1 X-2.3963 Y-4.5461
G2 X-2.3949 Y-4.547 I-0.0314 J-0.054
G1 X-2.3933 Y-4.548
G2 X-2.391 Y-4.5494 I-0.0328 J-0.0532
G1 X-2.3895 Y-4.5505
G2 X-2.3882 Y-4.5514 I-0.0351 J-0.0517
G1 X-2.3866 Y-4.5525
G2 X-2.3863 Y-4.5528 I-0.0364 J-0.0508
G1 X-2.3847 Y-4.5539
G2 X-2.3827 Y-4.5554 I-0.0368 J-0.0505
G1 X-2.3812 Y-4.5566
G2 X-2.3802 Y-4.5574 I-0.0388 J-0.049
G1 X-2.3787 Y-4.5586
G2 X-2.3784 Y-4.5589 I-0.0398 J-0.0482
G1 X-2.3769 Y-4.5601
X-2.3767 Y-4.5603
X-2.3753 Y-4.5615
G2 X-2.3737 Y-4.5629 I-0.0403 J-0.0477
G1 X-2.3725 Y-4.564
X-2.3714 Y-4.565
G2 X-2.3705 Y-4.5657 I-0.0414 J-0.0468
G1 X-2.3677 Y-4.5683
G2 X-2.3596 Y-4.5773 I-0.0422 J-0.0461
G1 X-2.3584 Y-4.579
X-2.3582 Y-4.5792
X-2.357 Y-4.5809
G2 X-2.3564 Y-4.5817 I-0.0505 J-0.0369
G1 X-2.3552 Y-4.5835
G2 X-2.3548 Y-4.5841 I-0.051 J-0.0361
G1 X-2.3536 Y-4.5858
G2 X-2.3531 Y-4.5865 I-0.0515 J-0.0354
G1 X-2.352 Y-4.5882
G2 X-2.3514 Y-4.589 I-0.0519 J-0.0348
G1 X-2.3503 Y-4.5907
G2 X-2.3492 Y-4.5925 I-0.0525 J-0.034
G1 X-2.3481 Y-4.5943
G2 X-2.3471 Y-4.596 I-0.0535 J-0.0322
G1 X-2.3461 Y-4.5978
G2 X-2.3452 Y-4.5995 I-0.0546 J-0.0305
G1 X-2.3443 Y-4.6013
G2 X-2.3431 Y-4.6036 I-0.0555 J-0.0288
G1 X-2.3423 Y-4.6055
G2 X-2.3411 Y-4.6081 I-0.0566 J-0.0265
G1 X-2.3403 Y-4.61
G2 X-2.3394 Y-4.6123 I-0.0578 J-0.0238
G1 X-2.3387 Y-4.6142
G2 X-2.3377 Y-4.6172 I-0.0587 J-0.0215
G1 X-2.3371 Y-4.6192
G2 X-2.3364 Y-4.6217 I-0.0597 J-0.0185
G1 X-2.3358 Y-4.6237
G2 X-2.3353 Y-4.6261 I-0.0604 J-0.016
G1 X-2.3348 Y-4.6281
G2 X-2.3344 Y-4.6301 I-0.061 J-0.0135
G1 X-2.334 Y-4.6321
G2 X-2.3337 Y-4.634 I-0.0614 J-0.0116
G1 X-2.3334 Y-4.6361
G2 X-2.3331 Y-4.6378 I-0.0618 J-0.0096
G1 X-2.3329 Y-4.6398
G2 X-2.3327 Y-4.641 I-0.062 J-0.008
G1 X-2.3325 Y-4.643
G2 X-2.3324 Y-4.6444 I-0.0621 J-0.0068
G1 X-2.3322 Y-4.6465
G2 X-2.3321 Y-4.6473 I-0.0623 J-0.0054
G1 X-2.332 Y-4.6494
G2 X-2.3319 Y-4.6501 I-0.0623 J-0.0047
G1 X-2.3318 Y-4.6523
G2 Y-4.6526 I-0.0624 J-0.0039
G1 X-2.3317 Y-4.6547
X-2.3316 Y-4.655
X-2.3315 Y-4.6572
G2 X-2.3314 Y-4.6604 I-0.0624 J-0.0032
G1 Y-6.0631
G2 X-2.3315 Y-6.0657 I-0.0625
G1 X-2.3316 Y-6.0677
Y-6.0679
X-2.3317 Y-6.07
G2 Y-6.0704 I-0.0624 J0.0028
G1 X-2.3318 Y-6.0725
G2 Y-6.0731 I-0.0624 J0.0032
G1 X-2.332 Y-6.0752
G2 Y-6.076 I-0.0624 J0.0038
G1 X-2.3322 Y-6.0781
G2 X-2.3323 Y-6.079 I-0.0623 J0.0047
G1 X-2.3324 Y-6.0811
G2 X-2.3326 Y-6.0822 I-0.0622 J0.0056
G1 X-2.3328 Y-6.0843
G2 X-2.333 Y-6.0859 I-0.0621 J0.0068
G1 X-2.3332 Y-6.0879
G2 X-2.3335 Y-6.0894 I-0.0619 J0.0084
G1 X-2.3338 Y-6.0914
G2 X-2.3342 Y-6.0934 I-0.0617 J0.0099
G1 X-2.3345 Y-6.0954
G2 X-2.335 Y-6.0974 I-0.0614 J0.0119
G1 X-2.3354 Y-6.0993
G2 X-2.336 Y-6.1017 I-0.0609 J0.0139
G1 X-2.3365 Y-6.1036
G2 X-2.3372 Y-6.1059 I-0.0603 J0.0163
G1 X-2.3378 Y-6.1078
G2 X-2.3387 Y-6.1105 I-0.0597 J0.0185
G1 X-2.3393 Y-6.1124
G2 X-2.3403 Y-6.1149 I-0.0588 J0.0212
G1 X-2.3411 Y-6.1168
G2 X-2.3419 Y-6.1186 I-0.0578 J0.0237
G1 X-2.3427 Y-6.1205
G2 X-2.3436 Y-6.1224 I-0.057 J0.0256
G1 X-2.3445 Y-6.1243
G2 X-2.3455 Y-6.1261 I-0.0561 J0.0276
G1 X-2.3464 Y-6.1279
G2 X-2.3467 Y-6.1285 I-0.0551 J0.0294
G1 X-2.3477 Y-6.1303
G2 X-2.3485 Y-6.1317 I-0.0548 J0.03
G1 X-2.3496 Y-6.1335
G2 X-2.35 Y-6.1342 I-0.054 J0.0314
G1 X-2.3511 Y-6.136
G2 X-2.3516 Y-6.1369 I-0.0536 J0.0322
G1 X-2.3527 Y-6.1386
X-2.3537 Y-6.1403
G2 X-2.3542 Y-6.141 I-0.0531 J0.0329
G1 X-2.3553 Y-6.1428
G2 X-2.3639 Y-6.1534 I-0.0526 J0.0337
G1 X-2.3653 Y-6.1548
G2 X-2.3661 Y-6.1555 I-0.0441 J0.0443
G1 X-2.3675 Y-6.157
X-2.3676
X-2.3691 Y-6.1584
G2 X-2.3698 Y-6.1592 I-0.0433 J0.0451
G1 X-2.3713 Y-6.1605
X-2.3716 Y-6.1608
X-2.3731 Y-6.1621
G2 X-2.3734 Y-6.1624 I-0.0423 J0.046
G1 X-2.3749 Y-6.1638
G2 X-2.3758 Y-6.1646 I-0.042 J0.0463
G1 X-2.3773 Y-6.1659
G2 X-2.3791 Y-6.1674 I-0.0411 J0.0471
G1 X-2.3807 Y-6.1687
G2 X-2.3811 Y-6.169 I-0.0393 J0.0486
G1 X-2.3827 Y-6.1703
G2 X-2.3839 Y-6.1712 I-0.0389 J0.0489
G1 X-2.3855 Y-6.1725
G2 X-2.3876 Y-6.174 I-0.0376 J0.0499
G1 X-2.3892 Y-6.1751
G2 X-2.3906 Y-6.176 I-0.0356 J0.0514
G1 X-2.3923 Y-6.1771
G2 X-2.3945 Y-6.1785 I-0.0342 J0.0523
G1 X-2.3963 Y-6.1795
G2 X-2.3976 Y-6.1803 I-0.032 J0.0537
G1 X-2.3994 Y-6.1813
G2 X-2.3998 Y-6.1815 I-0.0306 J0.0545
G1 X-2.4015 Y-6.1825
G2 X-2.4037 Y-6.1837 I-0.0302 J0.0547
G1 X-2.4056 Y-6.1846
G2 X-2.4068 Y-6.1852 I-0.028 J0.0559
G1 X-2.4087 Y-6.1861
G2 X-2.4099 Y-6.1866 I-0.0267 J0.0565
G1 X-2.4117 Y-6.1875
X-2.412 Y-6.1876
X-2.4138 Y-6.1884
G2 X-2.415 Y-6.1889 I-0.0253 J0.0572
G1 X-2.4169 Y-6.1897
X-2.417
X-2.4189 Y-6.1905
G2 X-2.42 Y-6.191 I-0.024 J0.0577
G1 X-2.4214 Y-6.1915
X-2.4228 Y-6.1921
G2 X-2.4239 Y-6.1925 I-0.0239 J0.0578
G1 X-2.4258 Y-6.1933
G2 X-2.4284 Y-6.1942 I-0.0228 J0.0582
G1 X-2.5716 Y-6.2432
X-1.7949
X-1.9382 Y-6.1942
G2 X-1.9413 Y-6.193 I0.0202 J0.0591
G1 X-1.9426 Y-6.1925
X-1.944 Y-6.192
G2 X-1.9451 Y-6.1915 I0.0223 J0.0584
G1 X-1.947 Y-6.1908
X-1.9489 Y-6.19
X-1.949
X-1.9508 Y-6.1892
G2 X-1.952 Y-6.1887 I0.0236 J0.0579
G1 X-1.9538 Y-6.1879
G2 X-1.9551 Y-6.1874 I0.0248 J0.0574
G1 X-1.9569 Y-6.1866
X-1.9571 Y-6.1865
X-1.9589 Y-6.1856
G2 X-1.9611 Y-6.1845 I0.0263 J0.0567
G1 X-1.9629 Y-6.1836
G2 X-1.9632 Y-6.1834 I0.0285 J0.0556
G1 X-1.965 Y-6.1825
G2 X-1.9662 Y-6.1819 I0.0289 J0.0554
G1 X-1.9679 Y-6.1809
G2 X-1.9694 Y-6.1801 I0.0301 J0.0548
G1 X-1.971 Y-6.1791
G2 X-1.9732 Y-6.1778 I0.0316 J0.0539
G1 X-1.9749 Y-6.1767
G2 X-1.9763 Y-6.1758 I0.0337 J0.0526
G1 X-1.9779 Y-6.1747
G2 X-1.9791 Y-6.1739 I0.0351 J0.0517
G1 X-1.9807 Y-6.1727
G2 X-1.9819 Y-6.1718 I0.0363 J0.0509
G1 X-1.9835 Y-6.1707
X-1.9838 Y-6.1704
X-1.9853 Y-6.1693
G2 X-1.9872 Y-6.1678 I0.0379 J0.0497
G1 X-1.9887 Y-6.1665
X-1.9889 Y-6.1663
X-1.9905 Y-6.1651
G2 X-1.9914 Y-6.1643 I0.04 J0.0481
G1 X-1.9929 Y-6.163
G2 X-1.9937 Y-6.1622 I0.0409 J0.0472
G1 X-1.995 Y-6.1611
X-1.9962 Y-6.1601
G2 X-1.997 Y-6.1594 I0.0412 J0.047
G1 X-1.9999 Y-6.1567
G2 X-2.0089 Y-6.1466 I0.042 J0.0463
G1 X-2.01 Y-6.1451
X-2.0111 Y-6.1436
G2 X-2.0117 Y-6.1427 I0.0506 J0.0367
G1 X-2.0129 Y-6.1409
G2 X-2.0137 Y-6.1398 I0.0513 J0.0358
G1 X-2.0149 Y-6.138
X-2.015 Y-6.1378
X-2.0162 Y-6.136
G2 X-2.017 Y-6.1347 I0.0521 J0.0345
G1 X-2.0182 Y-6.1329
G2 X-2.0189 Y-6.1317 I0.053 J0.0332
G1 X-2.02 Y-6.1299
G2 X-2.0211 Y-6.128 I0.0537 J0.032
G1 X-2.0221 Y-6.1261
G2 X-2.0232 Y-6.124 I0.0548 J0.0301
G1 X-2.0241 Y-6.1221
G2 X-2.025 Y-6.1203 I0.0559 J0.028
G1 X-2.0259 Y-6.1184
G2 X-2.0271 Y-6.1157 I0.0568 J0.0261
G1 X-2.0278 Y-6.1138
G2 X-2.0289 Y-6.1109 I0.0579 J0.0234
G1 X-2.0296 Y-6.1089
G2 X-2.0305 Y-6.1061 I0.059 J0.0205
G1 X-2.0311 Y-6.1041
G2 X-2.0317 Y-6.1019 I0.0599 J0.0177
G1 X-2.0322 Y-6.0999
G2 X-2.0329 Y-6.0972 I0.0605 J0.0155
G1 X-2.0333 Y-6.0951
G2 X-2.0336 Y-6.0934 I0.0612 J0.0128
G1 X-2.034 Y-6.0914
G2 X-2.0343 Y-6.0893 I0.0615 J0.0111
G1 X-2.0347 Y-6.0872
G2 X-2.0348 Y-6.0858 I0.0618 J0.009
G1 X-2.0351 Y-6.0837
G2 X-2.0353 Y-6.0821 I0.062 J0.0077
G1 X-2.0355 Y-6.08
G2 X-2.0356 Y-6.079 I0.0622 J0.0061
G1 X-2.0357 Y-6.0769
G2 X-2.0358 Y-6.0759 I0.0623 J0.0052
G1 X-2.036 Y-6.0738
G2 Y-6.0731 I0.0624 J0.0042
G1 X-2.0361 Y-6.0709
Y-6.0706
X-2.0363 Y-6.0684
Y-6.0682
X-2.0364 Y-6.066
G2 Y-6.0631 I0.0624 J0.003
G0 Z0.2
X-0.9178 Y-6.0949
G1 Z-0.1 F20
Y-4.6604
G2 X-0.9177 Y-4.6565 I0.0625
G1 X-0.9175 Y-4.6544
G2 Y-4.654 I0.0624 J-0.0039
G1 X-0.9174 Y-4.6519
X-0.9173 Y-4.6517
X-0.9172 Y-4.6496
G2 X-0.9171 Y-4.6487 I0.0623 J-0.0046
G1 X-0.9169 Y-4.6466
G2 X-0.9168 Y-4.6458 I0.0623 J-0.0055
G1 X-0.9166 Y-4.6437
G2 X-0.9165 Y-4.6427 I0.0622 J-0.0063
G1 X-0.9163 Y-4.6406
G2 X-0.9161 Y-4.6391 I0.0621 J-0.0074
G1 X-0.9158 Y-4.637
G2 X-0.9155 Y-4.6354 I0.0619 J-0.009
G1 X-0.9152 Y-4.6334
G2 X-0.9148 Y-4.6314 I0.0616 J-0.0106
G1 X-0.9144 Y-4.6294
G2 X-0.9139 Y-4.6272 I0.0612 J-0.0126
G1 X-0.9134 Y-4.6253
G2 X-0.9128 Y-4.6229 I0.0607 J-0.0149
G1 X-0.9122 Y-4.621
G2 X-0.9114 Y-4.6183 I0.0601 J-0.0172
G1 X-0.9108 Y-4.6164
G2 X-0.9098 Y-4.6136 I0.0593 J-0.0199
G1 X-0.909 Y-4.6118
G2 X-0.9077 Y-4.6087 I0.0582 J-0.0227
G1 X-0.9069 Y-4.6069
G2 X-0.9057 Y-4.6044 I0.0569 J-0.0258
G1 X-0.9048 Y-4.6026
G2 X-0.9039 Y-4.6008 I0.0558 J-0.0282
G1 X-0.9029 Y-4.599
G2 X-0.9016 Y-4.5968 I0.0548 J-0.0301
G1 X-0.9006 Y-4.5951
G2 X-0.8995 Y-4.5933 I0.0535 J-0.0322
G1 X-0.8984 Y-4.5917
G2 X-0.8977 Y-4.5906 I0.0524 J-0.034
G1 X-0.8965 Y-4.5889
G2 X-0.8956 Y-4.5875 I0.0517 J-0.0351
G1 X-0.8944 Y-4.5858
G2 X-0.8939 Y-4.5851 I0.0507 J-0.0365
G1 X-0.8926 Y-4.5835
G2 X-0.8922 Y-4.5829 I0.0502 J-0.0372
G1 X-0.891 Y-4.5813
X-0.8908 Y-4.5811
X-0.8895 Y-4.5794
G2 X-0.8889 Y-4.5786 I0.0497 J-0.038
G1 X-0.8876 Y-4.577
G2 X-0.8808 Y-4.5696 I0.049 J-0.0388
G1 X-0.8793 Y-4.5683
G2 X-0.8786 Y-4.5677 I0.0422 J-0.0461
G1 X-0.8772 Y-4.5664
X-0.877 Y-4.5662
X-0.8756 Y-4.5649
G2 X-0.8747 Y-4.5642 I0.0414 J-0.0469
G1 X-0.8732 Y-4.563
X-0.8731 Y-4.5628
X-0.8716 Y-4.5616
X-0.8714 Y-4.5614
X-0.8699 Y-4.5602
G2 X-0.8689 Y-4.5594 I0.0402 J-0.0479
G1 X-0.8674 Y-4.5581
X-0.8672 Y-4.5579
X-0.8656 Y-4.5567
G2 X-0.8637 Y-4.5553 I0.039 J-0.0489
G1 X-0.8622 Y-4.5541
G2 X-0.8618 Y-4.5538 I0.037 J-0.0503
G1 X-0.8602 Y-4.5527
G2 X-0.859 Y-4.5519 I0.0367 J-0.0506
G1 X-0.8574 Y-4.5508
G2 X-0.8553 Y-4.5493 I0.0355 J-0.0515
G1 X-0.8536 Y-4.5483
G2 X-0.8532 Y-4.548 I0.0333 J-0.0529
G1 X-0.8516 Y-4.547
G2 X-0.8493 Y-4.5457 I0.0329 J-0.0531
G1 X-0.8476 Y-4.5447
X-0.8474 Y-4.5446
X-0.8457 Y-4.5436
G2 X-0.8433 Y-4.5424 I0.0304 J-0.0546
G1 X-0.8416 Y-4.5415
X-0.8414 Y-4.5414
X-0.8396 Y-4.5406
G2 X-0.8384 Y-4.5399 I0.0278 J-0.056
G1 X-0.8366 Y-4.5391
X-0.8364 Y-4.539
X-0.8347 Y-4.5382
G2 X-0.8334 Y-4.5377 I0.0264 J-0.0567
G1 X-0.8317 Y-4.5369
G2 X-0.8305 Y-4.5364 I0.0252 J-0.0572
G1 X-0.8292 Y-4.5358
X-0.8279 Y-4.5353
G2 X-0.8268 Y-4.5348 I0.025 J-0.0573
G1 X-0.8249 Y-4.534
X-0.8231 Y-4.5333
G2 X-0.8198 Y-4.532 I0.0238 J-0.0578
G1 X-0.6782 Y-4.4829
X-1.4482
X-1.3091 Y-4.5321
G2 X-1.3082 Y-4.5325 I-0.0209 J-0.0589
G1 X-1.307 Y-4.5329
X-1.3057 Y-4.5334
G2 X-1.3045 Y-4.5338 I-0.0207 J-0.059
G1 X-1.3027 Y-4.5345
X-1.3026
X-1.3008 Y-4.5352
G2 X-1.2996 Y-4.5357 I-0.0219 J-0.0585
G1 X-1.2978 Y-4.5364
X-1.2977
X-1.2959 Y-4.5371
G2 X-1.2946 Y-4.5377 I-0.0233 J-0.058
G1 X-1.2929 Y-4.5384
G2 X-1.2916 Y-4.539 I-0.0246 J-0.0575
G1 X-1.2899 Y-4.5398
G2 X-1.2885 Y-4.5404 I-0.0259 J-0.0569
G1 X-1.2868 Y-4.5412
G2 X-1.2864 Y-4.5414 I-0.0272 J-0.0563
G1 X-1.2848 Y-4.5422
G2 X-1.2824 Y-4.5435 I-0.0276 J-0.0561
G1 X-1.2807 Y-4.5444
G2 X-1.2793 Y-4.5452 I-0.03 J-0.0548
G1 X-1.2777 Y-4.5461
G2 X-1.2763 Y-4.5469 I-0.0314 J-0.054
G1 X-1.2747 Y-4.5479
G2 X-1.2724 Y-4.5494 I-0.0328 J-0.0532
G1 X-1.2708 Y-4.5505
G2 X-1.2695 Y-4.5514 I-0.0351 J-0.0517
G1 X-1.268 Y-4.5525
G2 X-1.2675 Y-4.5528 I-0.0364 J-0.0508
G1 X-1.266 Y-4.5539
G2 X-1.2641 Y-4.5554 I-0.0368 J-0.0505
G1 X-1.2626 Y-4.5565
G2 X-1.2615 Y-4.5575 I-0.0387 J-0.0491
G1 X-1.26 Y-4.5587
X-1.2597 Y-4.5589
X-1.2583 Y-4.5601
X-1.2581 Y-4.5603
X-1.2566 Y-4.5615
G2 X-1.255 Y-4.5629 I-0.0403 J-0.0477
G1 X-1.2538 Y-4.564
X-1.2527 Y-4.565
G2 X-1.2519 Y-4.5657 I-0.0414 J-0.0468
G1 X-1.2505 Y-4.567
X-1.249 Y-4.5683
G2 X-1.2409 Y-4.5774 I-0.0422 J-0.0461
G1 X-1.2397 Y-4.5791
X-1.2396 Y-4.5792
X-1.2384 Y-4.5809
G2 X-1.2377 Y-4.5818 I-0.0504 J-0.0369
G1 X-1.2365 Y-4.5835
G2 X-1.2361 Y-4.584 I-0.0511 J-0.036
G1 X-1.2349 Y-4.5857
G2 X-1.2345 Y-4.5865 I-0.0514 J-0.0355
G1 X-1.2333 Y-4.5882
G2 X-1.2327 Y-4.5891 I-0.0519 J-0.0348
G1 X-1.2316 Y-4.5908
G2 X-1.2306 Y-4.5924 I-0.0525 J-0.0339
G1 X-1.2295 Y-4.5942
G2 X-1.2284 Y-4.5961 I-0.0535 J-0.0323
G1 X-1.2274 Y-4.5979
G2 X-1.2266 Y-4.5994 I-0.0546 J-0.0304
G1 X-1.2257 Y-4.6012
G2 X-1.2244 Y-4.6037 I-0.0554 J-0.0289
G1 X-1.2236 Y-4.6056
G2 X-1.2225 Y-4.608 I-0.0567 J-0.0264
G1 X-1.2217 Y-4.6099
G2 X-1.2207 Y-4.6125 I-0.0577 J-0.0239
G1 X-1.22 Y-4.6143
G2 X-1.2191 Y-4.6171 I-0.0587 J-0.0214
G1 X-1.2185 Y-4.619
G2 X-1.2177 Y-4.6218 I-0.0597 J-0.0186
G1 X-1.2172 Y-4.6238
G2 X-1.2166 Y-4.626 I-0.0605 J-0.0158
G1 X-1.2162 Y-4.628
G2 X-1.2157 Y-4.6301 I-0.061 J-0.0136
G1 X-1.2154 Y-4.6321
G2 X-1.215 Y-4.634 I-0.0614 J-0.0116
G1 X-1.2147 Y-4.6361
G2 X-1.2145 Y-4.6378 I-0.0618 J-0.0096
G1 X-1.2142 Y-4.6398
G2 X-1.2141 Y-4.6411 I-0.062 J-0.008
G1 X-1.2138 Y-4.6432
G2 X-1.2137 Y-4.6444 I-0.0621 J-0.0067
G1 X-1.2135 Y-4.6465
G2 Y-4.6473 I-0.0623 J-0.0054
G1 X-1.2133 Y-4.6494
G2 Y-4.6501 I-0.0623 J-0.0047
G1 X-1.2131 Y-4.6523
G2 Y-4.6526 I-0.0624 J-0.0039
G1 X-1.213 Y-4.6547
Y-4.6549
X-1.2129 Y-4.657
G2 X-1.2128 Y-4.6604 I-0.0624 J-0.0034
G1 Y-6.0631
G2 X-1.2129 Y-6.0663 I-0.0625
G1 X-1.213 Y-6.0684
Y-6.0685
X-1.2131 Y-6.0707
G2 Y-6.0711 I-0.0624 J0.0034
G1 X-1.2132 Y-6.0733
G2 X-1.2133 Y-6.0739 I-0.0624 J0.0038
G1 X-1.2134 Y-6.076
G2 X-1.2135 Y-6.0768 I-0.0623 J0.0045
G1 X-1.2137 Y-6.079
G2 X-1.2138 Y-6.08 I-0.0623 J0.0053
G1 X-1.214 Y-6.0821
G2 X-1.2142 Y-6.0835 I-0.0622 J0.0063
G1 X-1.2144 Y-6.0855
G2 X-1.2146 Y-6.0869 I-0.062 J0.0078
G1 X-1.2149 Y-6.089
G2 X-1.2152 Y-6.091 I-0.0618 J0.0091
G1 X-1.2156 Y-6.093
G2 X-1.2159 Y-6.0947 I-0.0615 J0.0111
G1 X-1.2164 Y-6.0968
G2 X-1.2169 Y-6.0993 I-0.0612 J0.0128
G1 X-1.2174 Y-6.1013
G2 X-1.218 Y-6.1034 I-0.0606 J0.0154
G1 X-1.2186 Y-6.1054
G2 X-1.2195 Y-6.1081 I-0.06 J0.0175
G1 X-1.2201 Y-6.1101
G2 X-1.221 Y-6.1124 I-0.0591 J0.0203
G1 X-1.2217 Y-6.1143
G2 X-1.2228 Y-6.1169 I-0.0583 J0.0226
G1 X-1.2236 Y-6.1188
G2 X-1.2247 Y-6.121 I-0.0572 J0.0252
G1 X-1.2256 Y-6.1228
G2 X-1.2266 Y-6.1249 I-0.0562 J0.0274
G1 X-1.2276 Y-6.1268
G2 X-1.2282 Y-6.1279 I-0.0551 J0.0295
G1 X-1.2293 Y-6.1298
G2 X-1.23 Y-6.131 I-0.0545 J0.0307
G1 X-1.2311 Y-6.1328
G2 X-1.2318 Y-6.1341 I-0.0537 J0.0319
G1 X-1.233 Y-6.1359
G2 X-1.2334 Y-6.1366 I-0.053 J0.0332
G1 X-1.2346 Y-6.1384
G2 X-1.2349 Y-6.1389 I-0.0525 J0.0339
G1 X-1.2361 Y-6.1406
X-1.2363 Y-6.141
X-1.2375 Y-6.1427
G2 X-1.2379 Y-6.1434 I-0.0519 J0.0347
G1 X-1.2391 Y-6.1452
G2 X-1.2472 Y-6.1547 I-0.0515 J0.0354
G1 X-1.25 Y-6.1574
X-1.2501 Y-6.1575
X-1.2516 Y-6.1589
X-1.2518 Y-6.1591
X-1.2532 Y-6.1605
G2 X-1.254 Y-6.1612 I-0.0431 J0.0452
G1 X-1.2554 Y-6.1625
G2 X-1.2564 Y-6.1634 I-0.0424 J0.046
G1 X-1.2579 Y-6.1647
X-1.2582 Y-6.165
X-1.2596 Y-6.1663
G2 X-1.2607 Y-6.1671 I-0.0411 J0.0471
G1 X-1.2622 Y-6.1684
G2 X-1.2634 Y-6.1694 I-0.0401 J0.048
G1 X-1.2649 Y-6.1706
G2 X-1.2661 Y-6.1715 I-0.0389 J0.0489
G1 X-1.2676 Y-6.1727
G2 X-1.2697 Y-6.1742 I-0.0377 J0.0498
G1 X-1.2713 Y-6.1753
G2 X-1.2719 Y-6.1757 I-0.0356 J0.0514
G1 X-1.2735 Y-6.1768
G2 X-1.2757 Y-6.1782 I-0.0351 J0.0517
G1 X-1.2774 Y-6.1792
G2 X-1.2798 Y-6.1806 I-0.0328 J0.0532
G1 X-1.2815 Y-6.1816
G2 X-1.2818 Y-6.1818 I-0.0305 J0.0546
G1 X-1.2836 Y-6.1827
G2 X-1.2848 Y-6.1834 I-0.0301 J0.0548
G1 X-1.2866 Y-6.1843
G2 X-1.2889 Y-6.1855 I-0.0288 J0.0555
G1 X-1.2907 Y-6.1863
X-1.291 Y-6.1864
X-1.2927 Y-6.1873
X-1.2929
X-1.2947 Y-6.1882
G2 X-1.297 Y-6.1891 I-0.026 J0.0568
G1 X-1.2984 Y-6.1897
X-1.2998 Y-6.1903
G2 X-1.302 Y-6.1912 I-0.0246 J0.0574
G1 X-1.3033 Y-6.1917
X-1.3046 Y-6.1923
X-1.3047
X-1.3065 Y-6.193
G2 X-1.3091 Y-6.194 I-0.0234 J0.0579
G1 X-1.4482 Y-6.2432
X0.0182
Y-5.7309
X-0.0185
X-0.1012 Y-6.0619
X-0.1014 Y-6.0627
G2 X-0.1016 Y-6.0633 I-0.0608 J0.0146
G1 X-0.1018 Y-6.064
X-0.1019 Y-6.0648
X-0.102 Y-6.0649
X-0.1022 Y-6.0659
G2 X-0.1024 Y-6.0667 I-0.0607 J0.015
G1 X-0.1027 Y-6.0677
Y-6.0679
X-0.103 Y-6.0688
X-0.1032 Y-6.0696
G2 X-0.1035 Y-6.0706 I-0.0605 J0.0158
G1 X-0.1037 Y-6.0716
G2 X-0.1038 Y-6.072 I-0.0602 J0.0168
G1 X-0.1041 Y-6.0729
X-0.1044 Y-6.0738
G2 X-0.1047 Y-6.075 I-0.0601 J0.0171
G1 X-0.105 Y-6.0759
G2 X-0.1052 Y-6.0765 I-0.0598 J0.0183
G1 X-0.1055 Y-6.0775
G2 X-0.1057 Y-6.0781 I-0.0596 J0.0189
G1 X-0.106 Y-6.079
G2 X-0.1062 Y-6.0796 I-0.0594 J0.0195
G1 X-0.1065 Y-6.0806
G2 X-0.107 Y-6.0819 I-0.0592 J0.0201
G1 X-0.1073 Y-6.0827
X-0.1075 Y-6.0835
G2 X-0.1077 Y-6.0839 I-0.0588 J0.0211
G1 X-0.108 Y-6.0848
G2 X-0.1085 Y-6.086 I-0.0587 J0.0216
G1 X-0.1088 Y-6.0867
X-0.109 Y-6.0874
G2 X-0.1094 Y-6.0885 I-0.0584 J0.0223
G1 X-0.1097 Y-6.0891
X-0.1099 Y-6.0897
G2 X-0.1103 Y-6.0907 I-0.0582 J0.0227
G1 X-0.1105 Y-6.0912
X-0.1108 Y-6.0918
G2 X-0.1111 Y-6.0927 I-0.0581 J0.023
G1 X-0.1115 Y-6.0936
G2 X-0.1128 Y-6.0966 I-0.0577 J0.0239
G1 X-0.1133 Y-6.0974
Y-6.0975
X-0.1137 Y-6.0984
X-0.1138 Y-6.0985
X-0.1142 Y-6.0994
G2 X-0.1148 Y-6.1006 I-0.0563 J0.027
G1 X-0.115 Y-6.101
X-0.1152 Y-6.1015
X-0.1154 Y-6.1018
X-0.1158 Y-6.1027
G2 X-0.1166 Y-6.1041 I-0.056 J0.0278
G1 X-0.117 Y-6.105
G2 X-0.1172 Y-6.1054 I-0.0552 J0.0292
G1 X-0.1177 Y-6.1062
G2 X-0.1179 Y-6.1067 I-0.055 J0.0297
G1 X-0.1184 Y-6.1075
G2 X-0.1187 Y-6.1081 I-0.0547 J0.0302
G1 X-0.1192 Y-6.1089
G2 X-0.1195 Y-6.1095 I-0.0544 J0.0307
G1 X-0.12 Y-6.1104
G2 X-0.1204 Y-6.111 I-0.0541 J0.0313
G1 X-0.1209 Y-6.1118
G2 X-0.122 Y-6.1137 I-0.0537 J0.032
G1 X-0.1225 Y-6.1145
G2 X-0.1229 Y-6.1151 I-0.0526 J0.0338
G1 X-0.1235 Y-6.1159
G2 X-0.1238 Y-6.1164 I-0.0521 J0.0345
G1 X-0.1244 Y-6.1172
G2 X-0.1247 Y-6.1177 I-0.0518 J0.035
G1 X-0.1252 Y-6.1185
G2 X-0.1255 Y-6.1189 I-0.0514 J0.0355
G1 X-0.1261 Y-6.1197
G2 X-0.1273 Y-6.1213 I-0.0511 J0.0359
G1 X-0.1278 Y-6.1221
X-0.1281 Y-6.1224
X-0.1283 Y-6.1227
X-0.1285 Y-6.123
G2 X-0.1296 Y-6.1244 I-0.0504 J0.0369
G1 X-0.1301 Y-6.1251
X-0.1303 Y-6.1253
X-0.1309 Y-6.126
Y-6.1261
X-0.1315 Y-6.1269
X-0.1316
X-0.1321 Y-6.1277
G2 X-0.1348 Y-6.1309 I-0.0491 J0.0386
G1 X-0.1355 Y-6.1316
G2 X-0.1367 Y-6.133 I-0.0464 J0.0418
G1 X-0.1374 Y-6.1336
X-0.1375 Y-6.1337
Y-6.1338
X-0.1376 Y-6.1339
G2 X-0.139 Y-6.1354 I-0.0462 J0.0421
G1 X-0.1397 Y-6.136
X-0.1399 Y-6.1362
X-0.1405 Y-6.1369
G2 X-0.1421 Y-6.1385 I-0.0446 J0.0437
G1 X-0.1422 Y-6.1386
X-0.1423 Y-6.1387
G2 X-0.144 Y-6.1403 I-0.0441 J0.0442
G1 X-0.1447 Y-6.141
G2 X-0.1451 Y-6.1413 I-0.0424 J0.0459
G1 X-0.1457 Y-6.1419
G2 X-0.1476 Y-6.1436 I-0.0421 J0.0462
G1 X-0.1483 Y-6.1441
G2 X-0.1488 Y-6.1445 I-0.0402 J0.0478
G1 X-0.1495 Y-6.1451
G2 X-0.1499 Y-6.1455 I-0.0398 J0.0482
G1 X-0.1507 Y-6.146
G2 X-0.1527 Y-6.1476 I-0.0393 J0.0486
G1 X-0.1535 Y-6.1482
G2 X-0.1538 Y-6.1485 I-0.0373 J0.0502
G1 X-0.1546 Y-6.149
G2 X-0.1567 Y-6.1505 I-0.0369 J0.0504
G1 X-0.1575 Y-6.151
X-0.1578 Y-6.1512
X-0.1585 Y-6.1517
X-0.1588 Y-6.1519
X-0.1596 Y-6.1524
X-0.1598 Y-6.1525
X-0.1606 Y-6.153
X-0.1608 Y-6.1532
X-0.1615 Y-6.1537
G2 X-0.1636 Y-6.1549 I-0.0338 J0.0525
G1 X-0.1644 Y-6.1554
G2 X-0.1662 Y-6.1565 I-0.0334 J0.0528
G1 X-0.167 Y-6.157
G2 X-0.1735 Y-6.1603 I-0.0316 J0.0539
G1 X-0.1741 Y-6.1606
G2 X-0.1764 Y-6.1616 I-0.027 J0.0564
G1 X-0.1772 Y-6.162
X-0.1781 Y-6.1624
X-0.179 Y-6.1627
X-0.1791 Y-6.1628
X-0.1799 Y-6.1631
G2 X-0.1823 Y-6.1641 I-0.0245 J0.0575
G1 X-0.1832 Y-6.1644
G2 X-0.1854 Y-6.1652 I-0.022 J0.0585
X-0.1902 Y-6.1668 I-0.0215 J0.0587
G1 X-0.191 Y-6.167
X-0.1912
X-0.192 Y-6.1673
X-0.1921
X-0.193 Y-6.1675
G2 X-0.1979 Y-6.1687 I-0.0165 J0.0603
X-0.2029 Y-6.1695 I-0.0133 J0.0611
G1 X-0.2038 Y-6.1697
X-0.2047 Y-6.1698
X-0.2057 Y-6.1699
G2 X-0.2079 Y-6.1702 I-0.0082 J0.062
X-0.2124 Y-6.1706 I-0.0077 J0.062
G1 X-0.2129
G2 X-0.2156 Y-6.1708 I-0.0054 J0.0623
G1 X-0.2165
G2 X-0.2193 Y-6.1709 I-0.0027 J0.0624
G1 X-0.8553
G2 X-0.9178 Y-6.1084 J0.0625
G1 Y-6.0949
Z-0.155
Y-4.6604
G2 X-0.9177 Y-4.6565 I0.0625
G1 X-0.9175 Y-4.6544
G2 Y-4.654 I0.0624 J-0.0039
G1 X-0.9174 Y-4.6519
X-0.9173 Y-4.6517
X-0.9172 Y-4.6496
G2 X-0.9171 Y-4.6487 I0.0623 J-0.0046
G1 X-0.9169 Y-4.6466
G2 X-0.9168 Y-4.6458 I0.0623 J-0.0055
G1 X-0.9166 Y-4.6437
G2 X-0.9165 Y-4.6427 I0.0622 J-0.0063
G1 X-0.9163 Y-4.6406
G2 X-0.9161 Y-4.6391 I0.0621 J-0.0074
G1 X-0.9158 Y-4.637
G2 X-0.9155 Y-4.6354 I0.0619 J-0.009
G1 X-0.9152 Y-4.6334
G2 X-0.9148 Y-4.6314 I0.0616 J-0.0106
G1 X-0.9144 Y-4.6294
G2 X-0.9139 Y-4.6272 I0.0612 J-0.0126
G1 X-0.9134 Y-4.6253
G2 X-0.9128 Y-4.6229 I0.0607 J-0.0149
G1 X-0.9122 Y-4.621
G2 X-0.9114 Y-4.6183 I0.0601 J-0.0172
G1 X-0.9108 Y-4.6164
G2 X-0.9098 Y-4.6136 I0.0593 J-0.0199
G1 X-0.909 Y-4.6118
G2 X-0.9077 Y-4.6087 I0.0582 J-0.0227
G1 X-0.9069 Y-4.6069
G2 X-0.9057 Y-4.6044 I0.0569 J-0.0258
G1 X-0.9048 Y-4.6026
G2 X-0.9039 Y-4.6008 I0.0558 J-0.0282
G1 X-0.9029 Y-4.599
G2 X-0.9016 Y-4.5968 I0.0548 J-0.0301
G1 X-0.9006 Y-4.5951
G2 X-0.8995 Y-4.5933 I0.0535 J-0.0322
G1 X-0.8984 Y-4.5917
G2 X-0.8977 Y-4.5906 I0.0524 J-0.034
G1 X-0.8965 Y-4.5889
G2 X-0.8956 Y-4.5875 I0.0517 J-0.0351
G1 X-0.8944 Y-4.5858
G2 X-0.8939 Y-4.5851 I0.0507 J-0.0365
G1 X-0.8926 Y-4.5835
G2 X-0.8922 Y-4.5829 I0.0502 J-0.0372
G1 X-0.891 Y-4.5813
X-0.8908 Y-4.5811
X-0.8895 Y-4.5794
G2 X-0.8889 Y-4.5786 I0.0497 J-0.038
G1 X-0.8876 Y-4.577
G2 X-0.8808 Y-4.5696 I0.049 J-0.0388
G1 X-0.8793 Y-4.5683
G2 X-0.8786 Y-4.5677 I0.0422 J-0.0461
G1 X-0.8772 Y-4.5664
X-0.877 Y-4.5662
X-0.8756 Y-4.5649
G2 X-0.8747 Y-4.5642 I0.0414 J-0.0469
G1 X-0.8732 Y-4.563
X-0.8731 Y-4.5628
X-0.8716 Y-4.5616
X-0.8714 Y-4.5614
X-0.8699 Y-4.5602
G2 X-0.8689 Y-4.5594 I0.0402 J-0.0479
G1 X-0.8674 Y-4.5581
X-0.8672 Y-4.5579
X-0.8656 Y-4.5567
G2 X-0.8637 Y-4.5553 I0.039 J-0.0489
G1 X-0.8622 Y-4.5541
G2 X-0.8618 Y-4.5538 I0.037 J-0.0503
G1 X-0.8602 Y-4.5527
G2 X-0.859 Y-4.5519 I0.0367 J-0.0506
G1 X-0.8574 Y-4.5508
G2 X-0.8553 Y-4.5493 I0.0355 J-0.0515
G1 X-0.8536 Y-4.5483
G2 X-0.8532 Y-4.548 I0.0333 J-0.0529
G1 X-0.8516 Y-4.547
G2 X-0.8493 Y-4.5457 I0.0329 J-0.0531
G1 X-0.8476 Y-4.5447
X-0.8474 Y-4.5446
X-0.8457 Y-4.5436
G2 X-0.8433 Y-4.5424 I0.0304 J-0.0546
G1 X-0.8416 Y-4.5415
X-0.8414 Y-4.5414
X-0.8396 Y-4.5406
G2 X-0.8384 Y-4.5399 I0.0278 J-0.056
G1 X-0.8366 Y-4.5391
X-0.8364 Y-4.539
X-0.8347 Y-4.5382
G2 X-0.8334 Y-4.5377 I0.0264 J-0.0567
G1 X-0.8317 Y-4.5369
G2 X-0.8305 Y-4.5364 I0.0252 J-0.0572
G1 X-0.8292 Y-4.5358
X-0.8279 Y-4.5353
G2 X-0.8268 Y-4.5348 I0.025 J-0.0573
G1 X-0.8249 Y-4.534
X-0.8231 Y-4.5333
G2 X-0.8198 Y-4.532 I0.0238 J-0.0578
G1 X-0.6782 Y-4.4829
X-1.4482
X-1.3091 Y-4.5321
G2 X-1.3082 Y-4.5325 I-0.0209 J-0.0589
G1 X-1.307 Y-4.5329
X-1.3057 Y-4.5334
G2 X-1.3045 Y-4.5338 I-0.0207 J-0.059
G1 X-1.3027 Y-4.5345
X-1.3026
X-1.3008 Y-4.5352
G2 X-1.2996 Y-4.5357 I-0.0219 J-0.0585
G1 X-1.2978 Y-4.5364
X-1.2977
X-1.2959 Y-4.5371
G2 X-1.2946 Y-4.5377 I-0.0233 J-0.058
G1 X-1.2929 Y-4.5384
G2 X-1.2916 Y-4.539 I-0.0246 J-0.0575
G1 X-1.2899 Y-4.5398
G2 X-1.2885 Y-4.5404 I-0.0259 J-0.0569
G1 X-1.2868 Y-4.5412
G2 X-1.2864 Y-4.5414 I-0.0272 J-0.0563
G1 X-1.2848 Y-4.5422
G2 X-1.2824 Y-4.5435 I-0.0276 J-0.0561
G1 X-1.2807 Y-4.5444
G2 X-1.2793 Y-4.5452 I-0.03 J-0.0548
G1 X-1.2777 Y-4.5461
G2 X-1.2763 Y-4.5469 I-0.0314 J-0.054
G1 X-1.2747 Y-4.5479
G2 X-1.2724 Y-4.5494 I-0.0328 J-0.0532
G1 X-1.2708 Y-4.5505
G2 X-1.2695 Y-4.5514 I-0.0351 J-0.0517
G1 X-1.268 Y-4.5525
G2 X-1.2675 Y-4.5528 I-0.0364 J-0.0508
G1 X-1.266 Y-4.5539
G2 X-1.2641 Y-4.5554 I-0.0368 J-0.0505
G1 X-1.2626 Y-4.5565
G2 X-1.2615 Y-4.5575 I-0.0387 J-0.0491
G1 X-1.26 Y-4.5587
X-1.2597 Y-4.5589
X-1.2583 Y-4.5601
X-1.2581 Y-4.5603
X-1.2566 Y-4.5615
G2 X-1.255 Y-4.5629 I-0.0403 J-0.0477
G1 X-1.2538 Y-4.564
X-1.2527 Y-4.565
G2 X-1.2519 Y-4.5657 I-0.0414 J-0.0468
G1 X-1.2505 Y-4.567
X-1.249 Y-4.5683
G2 X-1.2409 Y-4.5774 I-0.0422 J-0.0461
G1 X-1.2397 Y-4.5791
X-1.2396 Y-4.5792
X-1.2384 Y-4.5809
G2 X-1.2377 Y-4.5818 I-0.0504 J-0.0369
G1 X-1.2365 Y-4.5835
G2 X-1.2361 Y-4.584 I-0.0511 J-0.036
G1 X-1.2349 Y-4.5857
G2 X-1.2345 Y-4.5865 I-0.0514 J-0.0355
G1 X-1.2333 Y-4.5882
G2 X-1.2327 Y-4.5891 I-0.0519 J-0.0348
G1 X-1.2316 Y-4.5908
G2 X-1.2306 Y-4.5924 I-0.0525 J-0.0339
G1 X-1.2295 Y-4.5942
G2 X-1.2284 Y-4.5961 I-0.0535 J-0.0323
G1 X-1.2274 Y-4.5979
G2 X-1.2266 Y-4.5994 I-0.0546 J-0.0304
G1 X-1.2257 Y-4.6012
G2 X-1.2244 Y-4.6037 I-0.0554 J-0.0289
G1 X-1.2236 Y-4.6056
G2 X-1.2225 Y-4.608 I-0.0567 J-0.0264
G1 X-1.2217 Y-4.6099
G2 X-1.2207 Y-4.6125 I-0.0577 J-0.0239
G1 X-1.22 Y-4.6143
G2 X-1.2191 Y-4.6171 I-0.0587 J-0.0214
G1 X-1.2185 Y-4.619
G2 X-1.2177 Y-4.6218 I-0.0597 J-0.0186
G1 X-1.2172 Y-4.6238
G2 X-1.2166 Y-4.626 I-0.0605 J-0.0158
G1 X-1.2162 Y-4.628
G2 X-1.2157 Y-4.6301 I-0.061 J-0.0136
G1 X-1.2154 Y-4.6321
G2 X-1.215 Y-4.634 I-0.0614 J-0.0116
G1 X-1.2147 Y-4.6361
G2 X-1.2145 Y-4.6378 I-0.0618 J-0.0096
G1 X-1.2142 Y-4.6398
G2 X-1.2141 Y-4.6411 I-0.062 J-0.008
G1 X-1.2138 Y-4.6432
G2 X-1.2137 Y-4.6444 I-0.0621 J-0.0067
G1 X-1.2135 Y-4.6465
G2 Y-4.6473 I-0.0623 J-0.0054
G1 X-1.2133 Y-4.6494
G2 Y-4.6501 I-0.0623 J-0.0047
G1 X-1.2131 Y-4.6523
G2 Y-4.6526 I-0.0624 J-0.0039
G1 X-1.213 Y-4.6547
Y-4.6549
X-1.2129 Y-4.657
G2 X-1.2128 Y-4.6604 I-0.0624 J-0.0034
G1 Y-6.0631
G2 X-1.2129 Y-6.0663 I-0.0625
G1 X-1.213 Y-6.0684
Y-6.0685
X-1.2131 Y-6.0707
G2 Y-6.0711 I-0.0624 J0.0034
G1 X-1.2132 Y-6.0733
G2 X-1.2133 Y-6.0739 I-0.0624 J0.0038
G1 X-1.2134 Y-6.076
G2 X-1.2135 Y-6.0768 I-0.0623 J0.0045
G1 X-1.2137 Y-6.079
G2 X-1.2138 Y-6.08 I-0.0623 J0.0053
G1 X-1.214 Y-6.0821
G2 X-1.2142 Y-6.0835 I-0.0622 J0.0063
G1 X-1.2144 Y-6.0855
G2 X-1.2146 Y-6.0869 I-0.062 J0.0078
G1 X-1.2149 Y-6.089
G2 X-1.2152 Y-6.091 I-0.0618 J0.0091
G1 X-1.2156 Y-6.093
G2 X-1.2159 Y-6.0947 I-0.0615 J0.0111
G1 X-1.2164 Y-6.0968
G2 X-1.2169 Y-6.0993 I-0.0612 J0.0128
G1 X-1.2174 Y-6.1013
G2 X-1.218 Y-6.1034 I-0.0606 J0.0154
G1 X-1.2186 Y-6.1054
G2 X-1.2195 Y-6.1081 I-0.06 J0.0175
G1 X-1.2201 Y-6.1101
G2 X-1.221 Y-6.1124 I-0.0591 J0.0203
G1 X-1.2217 Y-6.1143
G2 X-1.2228 Y-6.1169 I-0.0583 J0.0226
G1 X-1.2236 Y-6.1188
G2 X-1.2247 Y-6.121 I-0.0572 J0.0252
G1 X-1.2256 Y-6.1228
G2 X-1.2266 Y-6.1249 I-0.0562 J0.0274
G1 X-1.2276 Y-6.1268
G2 X-1.2282 Y-6.1279 I-0.0551 J0.0295
G1 X-1.2293 Y-6.1298
G2 X-1.23 Y-6.131 I-0.0545 J0.0307
G1 X-1.2311 Y-6.1328
G2 X-1.2318 Y-6.1341 I-0.0537 J0.0319
G1 X-1.233 Y-6.1359
G2 X-1.2334 Y-6.1366 I-0.053 J0.0332
G1 X-1.2346 Y-6.1384
G2 X-1.2349 Y-6.1389 I-0.0525 J0.0339
G1 X-1.2361 Y-6.1406
X-1.2363 Y-6.141
X-1.2375 Y-6.1427
G2 X-1.2379 Y-6.1434 I-0.0519 J0.0347
G1 X-1.2391 Y-6.1452
G2 X-1.2472 Y-6.1547 I-0.0515 J0.0354
G1 X-1.25 Y-6.1574
X-1.2501 Y-6.1575
X-1.2516 Y-6.1589
X-1.2518 Y-6.1591
X-1.2532 Y-6.1605
G2 X-1.254 Y-6.1612 I-0.0431 J0.0452
G1 X-1.2554 Y-6.1625
G2 X-1.2564 Y-6.1634 I-0.0424 J0.046
G1 X-1.2579 Y-6.1647
X-1.2582 Y-6.165
X-1.2596 Y-6.1663
G2 X-1.2607 Y-6.1671 I-0.0411 J0.0471
G1 X-1.2622 Y-6.1684
G2 X-1.2634 Y-6.1694 I-0.0401 J0.048
G1 X-1.2649 Y-6.1706
G2 X-1.2661 Y-6.1715 I-0.0389 J0.0489
G1 X-1.2676 Y-6.1727
G2 X-1.2697 Y-6.1742 I-0.0377 J0.0498
G1 X-1.2713 Y-6.1753
G2 X-1.2719 Y-6.1757 I-0.0356 J0.0514
G1 X-1.2735 Y-6.1768
G2 X-1.2757 Y-6.1782 I-0.0351 J0.0517
G1 X-1.2774 Y-6.1792
G2 X-1.2798 Y-6.1806 I-0.0328 J0.0532
G1 X-1.2815 Y-6.1816
G2 X-1.2818 Y-6.1818 I-0.0305 J0.0546
G1 X-1.2836 Y-6.1827
G2 X-1.2848 Y-6.1834 I-0.0301 J0.0548
G1 X-1.2866 Y-6.1843
G2 X-1.2889 Y-6.1855 I-0.0288 J0.0555
G1 X-1.2907 Y-6.1863
X-1.291 Y-6.1864
X-1.2927 Y-6.1873
X-1.2929
X-1.2947 Y-6.1882
G2 X-1.297 Y-6.1891 I-0.026 J0.0568
G1 X-1.2984 Y-6.1897
X-1.2998 Y-6.1903
G2 X-1.302 Y-6.1912 I-0.0246 J0.0574
G1 X-1.3033 Y-6.1917
X-1.3046 Y-6.1923
X-1.3047
X-1.3065 Y-6.193
G2 X-1.3091 Y-6.194 I-0.0234 J0.0579
G1 X-1.4482 Y-6.2432
X0.0182
Y-5.7309
X-0.0185
X-0.1012 Y-6.0619
X-0.1014 Y-6.0627
G2 X-0.1016 Y-6.0633 I-0.0608 J0.0146
G1 X-0.1018 Y-6.064
X-0.1019 Y-6.0648
X-0.102 Y-6.0649
X-0.1022 Y-6.0659
G2 X-0.1024 Y-6.0667 I-0.0607 J0.015
G1 X-0.1027 Y-6.0677
Y-6.0679
X-0.103 Y-6.0688
X-0.1032 Y-6.0696
G2 X-0.1035 Y-6.0706 I-0.0605 J0.0158
G1 X-0.1037 Y-6.0716
G2 X-0.1038 Y-6.072 I-0.0602 J0.0168
G1 X-0.1041 Y-6.0729
X-0.1044 Y-6.0738
G2 X-0.1047 Y-6.075 I-0.0601 J0.0171
G1 X-0.105 Y-6.0759
G2 X-0.1052 Y-6.0765 I-0.0598 J0.0183
G1 X-0.1055 Y-6.0775
G2 X-0.1057 Y-6.0781 I-0.0596 J0.0189
G1 X-0.106 Y-6.079
G2 X-0.1062 Y-6.0796 I-0.0594 J0.0195
G1 X-0.1065 Y-6.0806
G2 X-0.107 Y-6.0819 I-0.0592 J0.0201
G1 X-0.1073 Y-6.0827
X-0.1075 Y-6.0835
G2 X-0.1077 Y-6.0839 I-0.0588 J0.0211
G1 X-0.108 Y-6.0848
G2 X-0.1085 Y-6.086 I-0.0587 J0.0216
G1 X-0.1088 Y-6.0867
X-0.109 Y-6.0874
G2 X-0.1094 Y-6.0885 I-0.0584 J0.0223
G1 X-0.1097 Y-6.0891
X-0.1099 Y-6.0897
G2 X-0.1103 Y-6.0907 I-0.0582 J0.0227
G1 X-0.1105 Y-6.0912
X-0.1108 Y-6.0918
G2 X-0.1111 Y-6.0927 I-0.0581 J0.023
G1 X-0.1115 Y-6.0936
G2 X-0.1128 Y-6.0966 I-0.0577 J0.0239
G1 X-0.1133 Y-6.0974
Y-6.0975
X-0.1137 Y-6.0984
X-0.1138 Y-6.0985
X-0.1142 Y-6.0994
G2 X-0.1148 Y-6.1006 I-0.0563 J0.027
G1 X-0.115 Y-6.101
X-0.1152 Y-6.1015
X-0.1154 Y-6.1018
X-0.1158 Y-6.1027
G2 X-0.1166 Y-6.1041 I-0.056 J0.0278
G1 X-0.117 Y-6.105
G2 X-0.1172 Y-6.1054 I-0.0552 J0.0292
G1 X-0.1177 Y-6.1062
G2 X-0.1179 Y-6.1067 I-0.055 J0.0297
G1 X-0.1184 Y-6.1075
G2 X-0.1187 Y-6.1081 I-0.0547 J0.0302
G1 X-0.1192 Y-6.1089
G2 X-0.1195 Y-6.1095 I-0.0544 J0.0307
G1 X-0.12 Y-6.1104
G2 X-0.1204 Y-6.111 I-0.0541 J0.0313
G1 X-0.1209 Y-6.1118
G2 X-0.122 Y-6.1137 I-0.0537 J0.032
G1 X-0.1225 Y-6.1145
G2 X-0.1229 Y-6.1151 I-0.0526 J0.0338
G1 X-0.1235 Y-6.1159
G2 X-0.1238 Y-6.1164 I-0.0521 J0.0345
G1 X-0.1244 Y-6.1172
G2 X-0.1247 Y-6.1177 I-0.0518 J0.035
G1 X-0.1252 Y-6.1185
G2 X-0.1255 Y-6.1189 I-0.0514 J0.0355
G1 X-0.1261 Y-6.1197
G2 X-0.1273 Y-6.1213 I-0.0511 J0.0359
G1 X-0.1278 Y-6.1221
X-0.1281 Y-6.1224
X-0.1283 Y-6.1227
X-0.1285 Y-6.123
G2 X-0.1296 Y-6.1244 I-0.0504 J0.0369
G1 X-0.1301 Y-6.1251
X-0.1303 Y-6.1253
X-0.1309 Y-6.126
Y-6.1261
X-0.1315 Y-6.1269
X-0.1316
X-0.1321 Y-6.1277
G2 X-0.1348 Y-6.1309 I-0.0491 J0.0386
G1 X-0.1355 Y-6.1316
G2 X-0.1367 Y-6.133 I-0.0464 J0.0418
G1 X-0.1374 Y-6.1336
X-0.1375 Y-6.1337
Y-6.1338
X-0.1376 Y-6.1339
G2 X-0.139 Y-6.1354 I-0.0462 J0.0421
G1 X-0.1397 Y-6.136
X-0.1399 Y-6.1362
X-0.1405 Y-6.1369
G2 X-0.1421 Y-6.1385 I-0.0446 J0.0437
G1 X-0.1422 Y-6.1386
X-0.1423 Y-6.1387
G2 X-0.144 Y-6.1403 I-0.0441 J0.0442
G1 X-0.1447 Y-6.141
G2 X-0.1451 Y-6.1413 I-0.0424 J0.0459
G1 X-0.1457 Y-6.1419
G2 X-0.1476 Y-6.1436 I-0.0421 J0.0462
G1 X-0.1483 Y-6.1441
G2 X-0.1488 Y-6.1445 I-0.0402 J0.0478
G1 X-0.1495 Y-6.1451
G2 X-0.1499 Y-6.1455 I-0.0398 J0.0482
G1 X-0.1507 Y-6.146
G2 X-0.1527 Y-6.1476 I-0.0393 J0.0486
G1 X-0.1535 Y-6.1482
G2 X-0.1538 Y-6.1485 I-0.0373 J0.0502
G1 X-0.1546 Y-6.149
G2 X-0.1567 Y-6.1505 I-0.0369 J0.0504
G1 X-0.1575 Y-6.151
X-0.1578 Y-6.1512
X-0.1585 Y-6.1517
X-0.1588 Y-6.1519
X-0.1596 Y-6.1524
X-0.1598 Y-6.1525
X-0.1606 Y-6.153
X-0.1608 Y-6.1532
X-0.1615 Y-6.1537
G2 X-0.1636 Y-6.1549 I-0.0338 J0.0525
G1 X-0.1644 Y-6.1554
G2 X-0.1662 Y-6.1565 I-0.0334 J0.0528
G1 X-0.167 Y-6.157
G2 X-0.1735 Y-6.1603 I-0.0316 J0.0539
G1 X-0.1741 Y-6.1606
G2 X-0.1764 Y-6.1616 I-0.027 J0.0564
G1 X-0.1772 Y-6.162
X-0.1781 Y-6.1624
X-0.179 Y-6.1627
X-0.1791 Y-6.1628
X-0.1799 Y-6.1631
G2 X-0.1823 Y-6.1641 I-0.0245 J0.0575
G1 X-0.1832 Y-6.1644
G2 X-0.1854 Y-6.1652 I-0.022 J0.0585
X-0.1902 Y-6.1668 I-0.0215 J0.0587
G1 X-0.191 Y-6.167
X-0.1912
X-0.192 Y-6.1673
X-0.1921
X-0.193 Y-6.1675
G2 X-0.1979 Y-6.1687 I-0.0165 J0.0603
X-0.2029 Y-6.1695 I-0.0133 J0.0611
G1 X-0.2038 Y-6.1697
X-0.2047 Y-6.1698
X-0.2057 Y-6.1699
G2 X-0.2079 Y-6.1702 I-0.0082 J0.062
X-0.2124 Y-6.1706 I-0.0077 J0.062
G1 X-0.2129
G2 X-0.2156 Y-6.1708 I-0.0054 J0.0623
G1 X-0.2165
G2 X-0.2193 Y-6.1709 I-0.0027 J0.0624
G1 X-0.8553
G2 X-0.9178 Y-6.1084 J0.0625
G1 Y-6.0949
Z-0.21
Y-4.6604
G2 X-0.9177 Y-4.6565 I0.0625
G1 X-0.9175 Y-4.6544
G2 Y-4.654 I0.0624 J-0.0039
G1 X-0.9174 Y-4.6519
X-0.9173 Y-4.6517
X-0.9172 Y-4.6496
G2 X-0.9171 Y-4.6487 I0.0623 J-0.0046
G1 X-0.9169 Y-4.6466
G2 X-0.9168 Y-4.6458 I0.0623 J-0.0055
G1 X-0.9166 Y-4.6437
G2 X-0.9165 Y-4.6427 I0.0622 J-0.0063
G1 X-0.9163 Y-4.6406
G2 X-0.9161 Y-4.6391 I0.0621 J-0.0074
G1 X-0.9158 Y-4.637
G2 X-0.9155 Y-4.6354 I0.0619 J-0.009
G1 X-0.9152 Y-4.6334
G2 X-0.9148 Y-4.6314 I0.0616 J-0.0106
G1 X-0.9144 Y-4.6294
G2 X-0.9139 Y-4.6272 I0.0612 J-0.0126
G1 X-0.9134 Y-4.6253
G2 X-0.9128 Y-4.6229 I0.0607 J-0.0149
G1 X-0.9122 Y-4.621
G2 X-0.9114 Y-4.6183 I0.0601 J-0.0172
G1 X-0.9108 Y-4.6164
G2 X-0.9098 Y-4.6136 I0.0593 J-0.0199
G1 X-0.909 Y-4.6118
G2 X-0.9077 Y-4.6087 I0.0582 J-0.0227
G1 X-0.9069 Y-4.6069
G2 X-0.9057 Y-4.6044 I0.0569 J-0.0258
G1 X-0.9048 Y-4.6026
G2 X-0.9039 Y-4.6008 I0.0558 J-0.0282
G1 X-0.9029 Y-4.599
G2 X-0.9016 Y-4.5968 I0.0548 J-0.0301
G1 X-0.9006 Y-4.5951
G2 X-0.8995 Y-4.5933 I0.0535 J-0.0322
G1 X-0.8984 Y-4.5917
G2 X-0.8977 Y-4.5906 I0.0524 J-0.034
G1 X-0.8965 Y-4.5889
G2 X-0.8956 Y-4.5875 I0.0517 J-0.0351
G1 X-0.8944 Y-4.5858
G2 X-0.8939 Y-4.5851 I0.0507 J-0.0365
G1 X-0.8926 Y-4.5835
G2 X-0.8922 Y-4.5829 I0.0502 J-0.0372
G1 X-0.891 Y-4.5813
X-0.8908 Y-4.5811
X-0.8895 Y-4.5794
G2 X-0.8889 Y-4.5786 I0.0497 J-0.038
G1 X-0.8876 Y-4.577
G2 X-0.8808 Y-4.5696 I0.049 J-0.0388
G1 X-0.8793 Y-4.5683
G2 X-0.8786 Y-4.5677 I0.0422 J-0.0461
G1 X-0.8772 Y-4.5664
X-0.877 Y-4.5662
X-0.8756 Y-4.5649
G2 X-0.8747 Y-4.5642 I0.0414 J-0.0469
G1 X-0.8732 Y-4.563
X-0.8731 Y-4.5628
X-0.8716 Y-4.5616
X-0.8714 Y-4.5614
X-0.8699 Y-4.5602
G2 X-0.8689 Y-4.5594 I0.0402 J-0.0479
G1 X-0.8674 Y-4.5581
X-0.8672 Y-4.5579
X-0.8656 Y-4.5567
G2 X-0.8637 Y-4.5553 I0.039 J-0.0489
G1 X-0.8622 Y-4.5541
G2 X-0.8618 Y-4.5538 I0.037 J-0.0503
G1 X-0.8602 Y-4.5527
G2 X-0.859 Y-4.5519 I0.0367 J-0.0506
G1 X-0.8574 Y-4.5508
G2 X-0.8553 Y-4.5493 I0.0355 J-0.0515
G1 X-0.8536 Y-4.5483
G2 X-0.8532 Y-4.548 I0.0333 J-0.0529
G1 X-0.8516 Y-4.547
G2 X-0.8493 Y-4.5457 I0.0329 J-0.0531
G1 X-0.8476 Y-4.5447
X-0.8474 Y-4.5446
X-0.8457 Y-4.5436
G2 X-0.8433 Y-4.5424 I0.0304 J-0.0546
G1 X-0.8416 Y-4.5415
X-0.8414 Y-4.5414
X-0.8396 Y-4.5406
G2 X-0.8384 Y-4.5399 I0.0278 J-0.056
G1 X-0.8366 Y-4.5391
X-0.8364 Y-4.539
X-0.8347 Y-4.5382
G2 X-0.8334 Y-4.5377 I0.0264 J-0.0567
G1 X-0.8317 Y-4.5369
G2 X-0.8305 Y-4.5364 I0.0252 J-0.0572
G1 X-0.8292 Y-4.5358
X-0.8279 Y-4.5353
G2 X-0.8268 Y-4.5348 I0.025 J-0.0573
G1 X-0.8249 Y-4.534
X-0.8231 Y-4.5333
G2 X-0.8198 Y-4.532 I0.0238 J-0.0578
G1 X-0.6782 Y-4.4829
X-1.4482
X-1.3091 Y-4.5321
G2 X-1.3082 Y-4.5325 I-0.0209 J-0.0589
G1 X-1.307 Y-4.5329
X-1.3057 Y-4.5334
G2 X-1.3045 Y-4.5338 I-0.0207 J-0.059
G1 X-1.3027 Y-4.5345
X-1.3026
X-1.3008 Y-4.5352
G2 X-1.2996 Y-4.5357 I-0.0219 J-0.0585
G1 X-1.2978 Y-4.5364
X-1.2977
X-1.2959 Y-4.5371
G2 X-1.2946 Y-4.5377 I-0.0233 J-0.058
G1 X-1.2929 Y-4.5384
G2 X-1.2916 Y-4.539 I-0.0246 J-0.0575
G1 X-1.2899 Y-4.5398
G2 X-1.2885 Y-4.5404 I-0.0259 J-0.0569
G1 X-1.2868 Y-4.5412
G2 X-1.2864 Y-4.5414 I-0.0272 J-0.0563
G1 X-1.2848 Y-4.5422
G2 X-1.2824 Y-4.5435 I-0.0276 J-0.0561
G1 X-1.2807 Y-4.5444
G2 X-1.2793 Y-4.5452 I-0.03 J-0.0548
G1 X-1.2777 Y-4.5461
G2 X-1.2763 Y-4.5469 I-0.0314 J-0.054
G1 X-1.2747 Y-4.5479
G2 X-1.2724 Y-4.5494 I-0.0328 J-0.0532
G1 X-1.2708 Y-4.5505
G2 X-1.2695 Y-4.5514 I-0.0351 J-0.0517
G1 X-1.268 Y-4.5525
G2 X-1.2675 Y-4.5528 I-0.0364 J-0.0508
G1 X-1.266 Y-4.5539
G2 X-1.2641 Y-4.5554 I-0.0368 J-0.0505
G1 X-1.2626 Y-4.5565
G2 X-1.2615 Y-4.5575 I-0.0387 J-0.0491
G1 X-1.26 Y-4.5587
X-1.2597 Y-4.5589
X-1.2583 Y-4.5601
X-1.2581 Y-4.5603
X-1.2566 Y-4.5615
G2 X-1.255 Y-4.5629 I-0.0403 J-0.0477
G1 X-1.2538 Y-4.564
X-1.2527 Y-4.565
G2 X-1.2519 Y-4.5657 I-0.0414 J-0.0468
G1 X-1.2505 Y-4.567
X-1.249 Y-4.5683
G2 X-1.2409 Y-4.5774 I-0.0422 J-0.0461
G1 X-1.2397 Y-4.5791
X-1.2396 Y-4.5792
X-1.2384 Y-4.5809
G2 X-1.2377 Y-4.5818 I-0.0504 J-0.0369
G1 X-1.2365 Y-4.5835
G2 X-1.2361 Y-4.584 I-0.0511 J-0.036
G1 X-1.2349 Y-4.5857
G2 X-1.2345 Y-4.5865 I-0.0514 J-0.0355
G1 X-1.2333 Y-4.5882
G2 X-1.2327 Y-4.5891 I-0.0519 J-0.0348
G1 X-1.2316 Y-4.5908
G2 X-1.2306 Y-4.5924 I-0.0525 J-0.0339
G1 X-1.2295 Y-4.5942
G2 X-1.2284 Y-4.5961 I-0.0535 J-0.0323
G1 X-1.2274 Y-4.5979
G2 X-1.2266 Y-4.5994 I-0.0546 J-0.0304
G1 X-1.2257 Y-4.6012
G2 X-1.2244 Y-4.6037 I-0.0554 J-0.0289
G1 X-1.2236 Y-4.6056
G2 X-1.2225 Y-4.608 I-0.0567 J-0.0264
G1 X-1.2217 Y-4.6099
G2 X-1.2207 Y-4.6125 I-0.0577 J-0.0239
G1 X-1.22 Y-4.6143
G2 X-1.2191 Y-4.6171 I-0.0587 J-0.0214
G1 X-1.2185 Y-4.619
G2 X-1.2177 Y-4.6218 I-0.0597 J-0.0186
G1 X-1.2172 Y-4.6238
G2 X-1.2166 Y-4.626 I-0.0605 J-0.0158
G1 X-1.2162 Y-4.628
G2 X-1.2157 Y-4.6301 I-0.061 J-0.0136
G1 X-1.2154 Y-4.6321
G2 X-1.215 Y-4.634 I-0.0614 J-0.0116
G1 X-1.2147 Y-4.6361
G2 X-1.2145 Y-4.6378 I-0.0618 J-0.0096
G1 X-1.2142 Y-4.6398
G2 X-1.2141 Y-4.6411 I-0.062 J-0.008
G1 X-1.2138 Y-4.6432
G2 X-1.2137 Y-4.6444 I-0.0621 J-0.0067
G1 X-1.2135 Y-4.6465
G2 Y-4.6473 I-0.0623 J-0.0054
G1 X-1.2133 Y-4.6494
G2 Y-4.6501 I-0.0623 J-0.0047
G1 X-1.2131 Y-4.6523
G2 Y-4.6526 I-0.0624 J-0.0039
G1 X-1.213 Y-4.6547
Y-4.6549
X-1.2129 Y-4.657
G2 X-1.2128 Y-4.6604 I-0.0624 J-0.0034
G1 Y-6.0631
G2 X-1.2129 Y-6.0663 I-0.0625
G1 X-1.213 Y-6.0684
Y-6.0685
X-1.2131 Y-6.0707
G2 Y-6.0711 I-0.0624 J0.0034
G1 X-1.2132 Y-6.0733
G2 X-1.2133 Y-6.0739 I-0.0624 J0.0038
G1 X-1.2134 Y-6.076
G2 X-1.2135 Y-6.0768 I-0.0623 J0.0045
G1 X-1.2137 Y-6.079
G2 X-1.2138 Y-6.08 I-0.0623 J0.0053
G1 X-1.214 Y-6.0821
G2 X-1.2142 Y-6.0835 I-0.0622 J0.0063
G1 X-1.2144 Y-6.0855
G2 X-1.2146 Y-6.0869 I-0.062 J0.0078
G1 X-1.2149 Y-6.089
G2 X-1.2152 Y-6.091 I-0.0618 J0.0091
G1 X-1.2156 Y-6.093
G2 X-1.2159 Y-6.0947 I-0.0615 J0.0111
G1 X-1.2164 Y-6.0968
G2 X-1.2169 Y-6.0993 I-0.0612 J0.0128
G1 X-1.2174 Y-6.1013
G2 X-1.218 Y-6.1034 I-0.0606 J0.0154
G1 X-1.2186 Y-6.1054
G2 X-1.2195 Y-6.1081 I-0.06 J0.0175
G1 X-1.2201 Y-6.1101
G2 X-1.221 Y-6.1124 I-0.0591 J0.0203
G1 X-1.2217 Y-6.1143
G2 X-1.2228 Y-6.1169 I-0.0583 J0.0226
G1 X-1.2236 Y-6.1188
G2 X-1.2247 Y-6.121 I-0.0572 J0.0252
G1 X-1.2256 Y-6.1228
G2 X-1.2266 Y-6.1249 I-0.0562 J0.0274
G1 X-1.2276 Y-6.1268
G2 X-1.2282 Y-6.1279 I-0.0551 J0.0295
G1 X-1.2293 Y-6.1298
G2 X-1.23 Y-6.131 I-0.0545 J0.0307
G1 X-1.2311 Y-6.1328
G2 X-1.2318 Y-6.1341 I-0.0537 J0.0319
G1 X-1.233 Y-6.1359
G2 X-1.2334 Y-6.1366 I-0.053 J0.0332
G1 X-1.2346 Y-6.1384
G2 X-1.2349 Y-6.1389 I-0.0525 J0.0339
G1 X-1.2361 Y-6.1406
X-1.2363 Y-6.141
X-1.2375 Y-6.1427
G2 X-1.2379 Y-6.1434 I-0.0519 J0.0347
G1 X-1.2391 Y-6.1452
G2 X-1.2472 Y-6.1547 I-0.0515 J0.0354
G1 X-1.25 Y-6.1574
X-1.2501 Y-6.1575
X-1.2516 Y-6.1589
X-1.2518 Y-6.1591
X-1.2532 Y-6.1605
G2 X-1.254 Y-6.1612 I-0.0431 J0.0452
G1 X-1.2554 Y-6.1625
G2 X-1.2564 Y-6.1634 I-0.0424 J0.046
G1 X-1.2579 Y-6.1647
X-1.2582 Y-6.165
X-1.2596 Y-6.1663
G2 X-1.2607 Y-6.1671 I-0.0411 J0.0471
G1 X-1.2622 Y-6.1684
G2 X-1.2634 Y-6.1694 I-0.0401 J0.048
G1 X-1.2649 Y-6.1706
G2 X-1.2661 Y-6.1715 I-0.0389 J0.0489
G1 X-1.2676 Y-6.1727
G2 X-1.2697 Y-6.1742 I-0.0377 J0.0498
G1 X-1.2713 Y-6.1753
G2 X-1.2719 Y-6.1757 I-0.0356 J0.0514
G1 X-1.2735 Y-6.1768
G2 X-1.2757 Y-6.1782 I-0.0351 J0.0517
G1 X-1.2774 Y-6.1792
G2 X-1.2798 Y-6.1806 I-0.0328 J0.0532
G1 X-1.2815 Y-6.1816
G2 X-1.2818 Y-6.1818 I-0.0305 J0.0546
G1 X-1.2836 Y-6.1827
G2 X-1.2848 Y-6.1834 I-0.0301 J0.0548
G1 X-1.2866 Y-6.1843
G2 X-1.2889 Y-6.1855 I-0.0288 J0.0555
G1 X-1.2907 Y-6.1863
X-1.291 Y-6.1864
X-1.2927 Y-6.1873
X-1.2929
X-1.2947 Y-6.1882
G2 X-1.297 Y-6.1891 I-0.026 J0.0568
G1 X-1.2984 Y-6.1897
X-1.2998 Y-6.1903
G2 X-1.302 Y-6.1912 I-0.0246 J0.0574
G1 X-1.3033 Y-6.1917
X-1.3046 Y-6.1923
X-1.3047
X-1.3065 Y-6.193
G2 X-1.3091 Y-6.194 I-0.0234 J0.0579
G1 X-1.4482 Y-6.2432
X0.0182
Y-5.7309
X-0.0185
X-0.1012 Y-6.0619
X-0.1014 Y-6.0627
G2 X-0.1016 Y-6.0633 I-0.0608 J0.0146
G1 X-0.1018 Y-6.064
X-0.1019 Y-6.0648
X-0.102 Y-6.0649
X-0.1022 Y-6.0659
G2 X-0.1024 Y-6.0667 I-0.0607 J0.015
G1 X-0.1027 Y-6.0677
Y-6.0679
X-0.103 Y-6.0688
X-0.1032 Y-6.0696
G2 X-0.1035 Y-6.0706 I-0.0605 J0.0158
G1 X-0.1037 Y-6.0716
G2 X-0.1038 Y-6.072 I-0.0602 J0.0168
G1 X-0.1041 Y-6.0729
X-0.1044 Y-6.0738
G2 X-0.1047 Y-6.075 I-0.0601 J0.0171
G1 X-0.105 Y-6.0759
G2 X-0.1052 Y-6.0765 I-0.0598 J0.0183
G1 X-0.1055 Y-6.0775
G2 X-0.1057 Y-6.0781 I-0.0596 J0.0189
G1 X-0.106 Y-6.079
G2 X-0.1062 Y-6.0796 I-0.0594 J0.0195
G1 X-0.1065 Y-6.0806
G2 X-0.107 Y-6.0819 I-0.0592 J0.0201
G1 X-0.1073 Y-6.0827
X-0.1075 Y-6.0835
G2 X-0.1077 Y-6.0839 I-0.0588 J0.0211
G1 X-0.108 Y-6.0848
G2 X-0.1085 Y-6.086 I-0.0587 J0.0216
G1 X-0.1088 Y-6.0867
X-0.109 Y-6.0874
G2 X-0.1094 Y-6.0885 I-0.0584 J0.0223
G1 X-0.1097 Y-6.0891
X-0.1099 Y-6.0897
G2 X-0.1103 Y-6.0907 I-0.0582 J0.0227
G1 X-0.1105 Y-6.0912
X-0.1108 Y-6.0918
G2 X-0.1111 Y-6.0927 I-0.0581 J0.023
G1 X-0.1115 Y-6.0936
G2 X-0.1128 Y-6.0966 I-0.0577 J0.0239
G1 X-0.1133 Y-6.0974
Y-6.0975
X-0.1137 Y-6.0984
X-0.1138 Y-6.0985
X-0.1142 Y-6.0994
G2 X-0.1148 Y-6.1006 I-0.0563 J0.027
G1 X-0.115 Y-6.101
X-0.1152 Y-6.1015
X-0.1154 Y-6.1018
X-0.1158 Y-6.1027
G2 X-0.1166 Y-6.1041 I-0.056 J0.0278
G1 X-0.117 Y-6.105
G2 X-0.1172 Y-6.1054 I-0.0552 J0.0292
G1 X-0.1177 Y-6.1062
G2 X-0.1179 Y-6.1067 I-0.055 J0.0297
G1 X-0.1184 Y-6.1075
G2 X-0.1187 Y-6.1081 I-0.0547 J0.0302
G1 X-0.1192 Y-6.1089
G2 X-0.1195 Y-6.1095 I-0.0544 J0.0307
G1 X-0.12 Y-6.1104
G2 X-0.1204 Y-6.111 I-0.0541 J0.0313
G1 X-0.1209 Y-6.1118
G2 X-0.122 Y-6.1137 I-0.0537 J0.032
G1 X-0.1225 Y-6.1145
G2 X-0.1229 Y-6.1151 I-0.0526 J0.0338
G1 X-0.1235 Y-6.1159
G2 X-0.1238 Y-6.1164 I-0.0521 J0.0345
G1 X-0.1244 Y-6.1172
G2 X-0.1247 Y-6.1177 I-0.0518 J0.035
G1 X-0.1252 Y-6.1185
G2 X-0.1255 Y-6.1189 I-0.0514 J0.0355
G1 X-0.1261 Y-6.1197
G2 X-0.1273 Y-6.1213 I-0.0511 J0.0359
G1 X-0.1278 Y-6.1221
X-0.1281 Y-6.1224
X-0.1283 Y-6.1227
X-0.1285 Y-6.123
G2 X-0.1296 Y-6.1244 I-0.0504 J0.0369
G1 X-0.1301 Y-6.1251
X-0.1303 Y-6.1253
X-0.1309 Y-6.126
Y-6.1261
X-0.1315 Y-6.1269
X-0.1316
X-0.1321 Y-6.1277
G2 X-0.1348 Y-6.1309 I-0.0491 J0.0386
G1 X-0.1355 Y-6.1316
G2 X-0.1367 Y-6.133 I-0.0464 J0.0418
G1 X-0.1374 Y-6.1336
X-0.1375 Y-6.1337
Y-6.1338
X-0.1376 Y-6.1339
G2 X-0.139 Y-6.1354 I-0.0462 J0.0421
G1 X-0.1397 Y-6.136
X-0.1399 Y-6.1362
X-0.1405 Y-6.1369
G2 X-0.1421 Y-6.1385 I-0.0446 J0.0437
G1 X-0.1422 Y-6.1386
X-0.1423 Y-6.1387
G2 X-0.144 Y-6.1403 I-0.0441 J0.0442
G1 X-0.1447 Y-6.141
G2 X-0.1451 Y-6.1413 I-0.0424 J0.0459
G1 X-0.1457 Y-6.1419
G2 X-0.1476 Y-6.1436 I-0.0421 J0.0462
G1 X-0.1483 Y-6.1441
G2 X-0.1488 Y-6.1445 I-0.0402 J0.0478
G1 X-0.1495 Y-6.1451
G2 X-0.1499 Y-6.1455 I-0.0398 J0.0482
G1 X-0.1507 Y-6.146
G2 X-0.1527 Y-6.1476 I-0.0393 J0.0486
G1 X-0.1535 Y-6.1482
G2 X-0.1538 Y-6.1485 I-0.0373 J0.0502
G1 X-0.1546 Y-6.149
G2 X-0.1567 Y-6.1505 I-0.0369 J0.0504
G1 X-0.1575 Y-6.151
X-0.1578 Y-6.1512
X-0.1585 Y-6.1517
X-0.1588 Y-6.1519
X-0.1596 Y-6.1524
X-0.1598 Y-6.1525
X-0.1606 Y-6.153
X-0.1608 Y-6.1532
X-0.1615 Y-6.1537
G2 X-0.1636 Y-6.1549 I-0.0338 J0.0525
G1 X-0.1644 Y-6.1554
G2 X-0.1662 Y-6.1565 I-0.0334 J0.0528
G1 X-0.167 Y-6.157
G2 X-0.1735 Y-6.1603 I-0.0316 J0.0539
G1 X-0.1741 Y-6.1606
G2 X-0.1764 Y-6.1616 I-0.027 J0.0564
G1 X-0.1772 Y-6.162
X-0.1781 Y-6.1624
X-0.179 Y-6.1627
X-0.1791 Y-6.1628
X-0.1799 Y-6.1631
G2 X-0.1823 Y-6.1641 I-0.0245 J0.0575
G1 X-0.1832 Y-6.1644
G2 X-0.1854 Y-6.1652 I-0.022 J0.0585
X-0.1902 Y-6.1668 I-0.0215 J0.0587
G1 X-0.191 Y-6.167
X-0.1912
X-0.192 Y-6.1673
X-0.1921
X-0.193 Y-6.1675
G2 X-0.1979 Y-6.1687 I-0.0165 J0.0603
X-0.2029 Y-6.1695 I-0.0133 J0.0611
G1 X-0.2038 Y-6.1697
X-0.2047 Y-6.1698
X-0.2057 Y-6.1699
G2 X-0.2079 Y-6.1702 I-0.0082 J0.062
X-0.2124 Y-6.1706 I-0.0077 J0.062
G1 X-0.2129
G2 X-0.2156 Y-6.1708 I-0.0054 J0.0623
G1 X-0.2165
G2 X-0.2193 Y-6.1709 I-0.0027 J0.0624
G1 X-0.8553
G2 X-0.9178 Y-6.1084 J0.0625
G1 Y-6.0949
G0 Z0.2
X-5.0739 Y-6.082
G1 Z-0.1 F20
Y-6.0818
X-5.0743 Y-6.0774
G2 X-5.0744 Y-6.0763 I0.0622 J0.0057
G1 X-5.0746 Y-6.0741
G2 X-5.0747 Y-6.073 I0.0623 J0.0045
G1 X-5.0748 Y-6.0708
X-5.0749 Y-6.0686
X-5.075 Y-6.0665
G2 X-5.0751 Y-6.0631 I0.0624 J0.0034
G1 Y-4.6604
G2 X-5.075 Y-4.6569 I0.0625
G1 X-5.0749 Y-4.6548
G2 X-5.0748 Y-4.6535 I0.0624 J-0.0035
G1 X-5.0746 Y-4.6515
X-5.0745 Y-4.6495
Y-4.6494
X-5.0743 Y-4.6473
G2 X-5.0742 Y-4.6461 I0.0623 J-0.0048
G1 X-5.074 Y-4.6441
G2 X-5.0738 Y-4.6417 I0.0622 J-0.006
G1 X-5.0735 Y-4.6397
Y-4.6395
X-5.0732 Y-4.6375
G2 X-5.0728 Y-4.6352 I0.0619 J-0.0085
G1 X-5.0725 Y-4.6332
G2 X-5.0722 Y-4.6318 I0.0615 J-0.0109
G1 X-5.0718 Y-4.6298
G2 X-5.0712 Y-4.6272 I0.0613 J-0.0123
G1 X-5.0707 Y-4.6253
G2 X-5.0701 Y-4.6229 I0.0607 J-0.0149
G1 X-5.0696 Y-4.621
G2 X-5.0688 Y-4.6184 I0.0601 J-0.0172
G1 X-5.0682 Y-4.6165
G2 X-5.0668 Y-4.6129 I0.0593 J-0.0198
G1 X-5.0661 Y-4.611
G2 X-5.0654 Y-4.6095 I0.0579 J-0.0234
G1 X-5.0646 Y-4.6077
G2 X-5.063 Y-4.6042 I0.0573 J-0.0249
G1 X-5.0621 Y-4.6024
G2 X-5.0611 Y-4.6005 I0.0557 J-0.0284
G1 X-5.0601 Y-4.5987
G2 X-5.0592 Y-4.5973 I0.0546 J-0.0304
G1 X-5.0582 Y-4.5956
G2 X-5.0568 Y-4.5933 I0.0538 J-0.0318
G1 X-5.0557 Y-4.5916
G2 X-5.0551 Y-4.5907 I0.0524 J-0.0341
G1 X-5.054 Y-4.589
G2 X-5.0525 Y-4.5869 I0.0518 J-0.0349
G1 X-5.05 Y-4.5836
G2 X-5.0494 Y-4.5828 I0.0503 J-0.0371
G1 X-5.0469 Y-4.5795
G2 X-5.0465 Y-4.5789 I0.0497 J-0.0379
G1 X-5.0452 Y-4.5773
G2 X-5.037 Y-4.5686 I0.0493 J-0.0385
G1 X-5.0358 Y-4.5676
X-5.0346 Y-4.5665
G2 X-5.0333 Y-4.5654 I0.0417 J-0.0466
G1 X-5.0321 Y-4.5643
X-5.0309 Y-4.5633
G2 X-5.0303 Y-4.5628 I0.041 J-0.0472
G1 X-5.0287 Y-4.5615
G2 X-5.0274 Y-4.5604 I0.0404 J-0.0477
G1 X-5.0242 Y-4.5578
G2 X-5.0227 Y-4.5567 I0.039 J-0.0488
G1 X-5.0195 Y-4.5543
G2 X-5.0176 Y-4.5529 I0.0375 J-0.05
G1 X-5.0159 Y-4.5517
G2 X-5.0151 Y-4.5511 I0.0355 J-0.0514
G1 X-5.0134 Y-4.55
G2 X-5.012 Y-4.5491 I0.0347 J-0.052
G1 X-5.0103 Y-4.5481
G2 X-5.0085 Y-4.547 I0.0332 J-0.0529
G1 X-5.0068 Y-4.546
G2 X-5.0053 Y-4.5451 I0.0314 J-0.054
G1 X-5.0036 Y-4.5442
G2 X-5.0021 Y-4.5434 I0.0299 J-0.0549
G1 X-5.0003 Y-4.5425
X-4.9985 Y-4.5416
G2 X-4.996 Y-4.5404 I0.0284 J-0.0557
G1 X-4.9924 Y-4.5387
G2 X-4.9909 Y-4.5381 I0.026 J-0.0569
G1 X-4.9872 Y-4.5365
G2 X-4.9862 Y-4.5361 I0.0245 J-0.0575
G1 X-4.9843 Y-4.5353
G2 X-4.9839 Y-4.5352 I0.0234 J-0.0579
G1 X-4.982 Y-4.5344
G2 X-4.9814 Y-4.5342 I0.023 J-0.0581
G1 X-4.9798 Y-4.5336
X-4.9783 Y-4.533
G2 X-4.9763 Y-4.5322 I0.023 J-0.0581
G1 X-4.838 Y-4.4829
X-5.5028
X-5.9442 Y-5.7582
G2 X-6.0033 Y-5.8002 I-0.0591 J0.0204
G1 X-6.018
G2 X-6.0778 Y-5.7558 J0.0625
G1 X-6.152 Y-5.5105
X-6.5142 Y-4.4829
X-7.1882
X-7.0491 Y-4.5321
G2 X-7.0478 Y-4.5326 I-0.0209 J-0.0589
G1 X-7.0468 Y-4.533
X-7.0458 Y-4.5333
G2 X-7.0447 Y-4.5337 I-0.0205 J-0.059
G1 X-7.0429 Y-4.5344
G2 X-7.0424 Y-4.5346 I-0.0217 J-0.0586
G1 X-7.0407 Y-4.5352
G2 X-7.0395 Y-4.5357 I-0.0221 J-0.0585
G1 X-7.036 Y-4.5371
G2 X-7.0349 Y-4.5375 I-0.0232 J-0.058
G1 X-7.0331 Y-4.5383
G2 X-7.0311 Y-4.5392 I-0.0243 J-0.0576
G1 X-7.0294 Y-4.54
G2 X-7.0288 Y-4.5402 I-0.0264 J-0.0567
G1 X-7.0271 Y-4.5411
G2 X-7.0266 Y-4.5413 I-0.0269 J-0.0564
G1 X-7.0249 Y-4.5421
G2 X-7.0223 Y-4.5435 I-0.0274 J-0.0562
G1 X-7.0206 Y-4.5444
G2 X-7.0191 Y-4.5453 I-0.03 J-0.0548
G1 X-7.0175 Y-4.5462
G2 X-7.0165 Y-4.5468 I-0.0316 J-0.0539
G1 X-7.0149 Y-4.5478
G2 X-7.0119 Y-4.5498 I-0.0325 J-0.0534
G1 X-7.0103 Y-4.5508
G2 X-7.0095 Y-4.5514 I-0.0356 J-0.0514
G1 X-7.0064 Y-4.5536
G2 X-7.0041 Y-4.5554 I-0.0365 J-0.0508
G1 X-7.0026 Y-4.5565
G2 X-7.0012 Y-4.5577 I-0.0387 J-0.0491
G1 X-6.9983 Y-4.5601
X-6.9968 Y-4.5613
G2 X-6.9947 Y-4.5632 I-0.0401 J-0.0479
G1 X-6.994 Y-4.5639
X-6.9932 Y-4.5645
G2 X-6.9919 Y-4.5657 I-0.0409 J-0.0473
G1 X-6.9904 Y-4.567
X-6.989 Y-4.5683
G2 X-6.9806 Y-4.5779 I-0.0422 J-0.0461
G1 X-6.9796 Y-4.5792
X-6.9786 Y-4.5805
G2 X-6.9777 Y-4.5818 I-0.0501 J-0.0373
G1 X-6.9765 Y-4.5835
G2 X-6.9759 Y-4.5843 I-0.0511 J-0.036
G1 X-6.9736 Y-4.5878
G2 X-6.9725 Y-4.5894 I-0.0516 J-0.0352
G1 X-6.9714 Y-4.5912
G2 X-6.9705 Y-4.5926 I-0.0527 J-0.0336
G1 X-6.9694 Y-4.5943
G2 X-6.9686 Y-4.5957 I-0.0536 J-0.0322
G1 X-6.9676 Y-4.5976
G2 X-6.9666 Y-4.5994 I-0.0544 J-0.0308
G1 X-6.9657 Y-4.6012
G2 X-6.9645 Y-4.6036 I-0.0554 J-0.0289
G1 X-6.9636 Y-4.6055
G2 X-6.9625 Y-4.6079 I-0.0566 J-0.0265
G1 X-6.9617 Y-4.6098
G2 X-6.9605 Y-4.613 I-0.0577 J-0.024
G1 X-6.9598 Y-4.6149
G2 X-6.959 Y-4.6175 I-0.0589 J-0.0209
G1 X-6.9584 Y-4.6194
G2 X-6.958 Y-4.6208 I-0.0598 J-0.0183
G1 X-6.9574 Y-4.6228
G2 X-6.9565 Y-4.6265 I-0.0602 J-0.0169
G1 X-6.9561 Y-4.6285
G2 X-6.9558 Y-4.6296 I-0.0611 J-0.0132
G1 X-6.9554 Y-4.6316
G2 X-6.955 Y-4.6342 I-0.0613 J-0.012
G1 X-6.9547 Y-4.6362
G2 X-6.9544 Y-4.6387 I-0.0618 J-0.0095
G1 X-6.9541 Y-4.6407
X-6.9539 Y-4.6427
G2 X-6.9538 Y-4.6441 I-0.0621 J-0.0072
G1 X-6.9536 Y-4.6462
G2 X-6.9535 Y-4.6473 I-0.0622 J-0.0058
G1 X-6.9533 Y-4.6494
G2 X-6.9532 Y-4.6506 I-0.0623 J-0.0047
G1 X-6.9531 Y-4.6527
X-6.953 Y-4.6547
Y-4.6548
X-6.9529 Y-4.6569
G2 X-6.9528 Y-4.6604 I-0.0624 J-0.0035
G1 Y-6.0551
G2 X-6.9529 Y-6.0586 I-0.0625
G1 X-6.953 Y-6.0607
X-6.9532 Y-6.0649
G2 X-6.9533 Y-6.066 I-0.0624 J0.0035
G1 X-6.9535 Y-6.0681
Y-6.0682
X-6.9536 Y-6.0703
G2 X-6.9538 Y-6.0725 I-0.0623 J0.0048
G1 X-6.9541 Y-6.0746
Y-6.0749
X-6.9543 Y-6.0769
G2 X-6.9546 Y-6.0791 I-0.0621 J0.0073
G1 X-6.955 Y-6.0811
G2 X-6.9554 Y-6.0839 I-0.0618 J0.0095
G1 X-6.9558 Y-6.0858
G2 X-6.9561 Y-6.087 I-0.0613 J0.0123
G1 X-6.9565 Y-6.089
G2 X-6.9571 Y-6.0913 I-0.061 J0.0134
G1 X-6.9576 Y-6.0932
G2 X-6.9584 Y-6.0962 I-0.0605 J0.0157
G1 X-6.959 Y-6.0981
G2 X-6.9601 Y-6.1014 I-0.0597 J0.0186
G1 X-6.9608 Y-6.1032
G2 X-6.9619 Y-6.1058 I-0.0585 J0.0219
G1 X-6.9626 Y-6.1076
G2 X-6.9638 Y-6.1101 I-0.0575 J0.0245
G1 X-6.9646 Y-6.1119
G2 X-6.9656 Y-6.1139 I-0.0564 J0.027
G1 X-6.9666 Y-6.1157
G2 X-6.9682 Y-6.1186 I-0.0554 J0.0289
G1 X-6.9692 Y-6.1203
G2 X-6.9697 Y-6.1212 I-0.0538 J0.0318
G1 X-6.9708 Y-6.1229
G2 X-6.9713 Y-6.1238 I-0.0533 J0.0327
G1 X-6.9724 Y-6.1255
G2 X-6.9739 Y-6.1277 I-0.0527 J0.0336
G1 X-6.9751 Y-6.1294
G2 X-6.9756 Y-6.1302 I-0.0513 J0.0358
G1 X-6.9793 Y-6.1353
G2 X-6.9803 Y-6.1366 I-0.0507 J0.0366
G1 X-6.9815 Y-6.1383
G2 X-6.9897 Y-6.147 I-0.0497 J0.0379
G1 X-6.9926 Y-6.1496
X-6.994 Y-6.1509
G2 X-6.9947 Y-6.1516 I-0.0416 J0.0466
G1 X-6.9962 Y-6.1528
G2 X-6.9968 Y-6.1534 I-0.0409 J0.0473
G1 X-6.9998 Y-6.1559
G2 X-7.0006 Y-6.1565 I-0.0403 J0.0478
G1 X-7.0021 Y-6.1577
G2 X-7.0028 Y-6.1583 I-0.0395 J0.0484
G1 X-7.0043 Y-6.1595
G2 X-7.005 Y-6.16 I-0.0387 J0.0491
G1 X-7.0065 Y-6.1612
G2 X-7.0079 Y-6.1623 I-0.0381 J0.0495
G1 X-7.0095 Y-6.1634
X-7.0111 Y-6.1645
G2 X-7.0128 Y-6.1657 I-0.0367 J0.0506
G1 X-7.0144 Y-6.1668
G2 X-7.0159 Y-6.1678 I-0.035 J0.0518
G1 X-7.0175 Y-6.1688
G2 X-7.019 Y-6.1697 I-0.0335 J0.0528
G1 X-7.0206 Y-6.1707
G2 X-7.0212 Y-6.171 I-0.032 J0.0537
G1 X-7.0229 Y-6.172
G2 X-7.0238 Y-6.1726 I-0.0314 J0.054
G1 X-7.0255 Y-6.1735
G2 X-7.0265 Y-6.174 I-0.0305 J0.0546
G1 X-7.0282 Y-6.175
G2 X-7.0297 Y-6.1757 I-0.0295 J0.0551
G1 X-7.0332 Y-6.1775
X-7.0349 Y-6.1783
G2 X-7.0364 Y-6.1791 I-0.028 J0.0559
G1 X-7.04 Y-6.1807
X-7.0415 Y-6.1814
X-7.043 Y-6.1822
G2 X-7.0466 Y-6.1837 I-0.0269 J0.0564
G1 X-7.1944 Y-6.2432
X-6.6172
X-6.7641 Y-6.1837
G2 X-6.7655 Y-6.1831 I0.0235 J0.0579
G1 X-6.7691 Y-6.1815
G2 X-6.7696 Y-6.1813 I0.0249 J0.0573
G1 X-6.7711 Y-6.1806
X-6.7727 Y-6.1799
G2 X-6.7742 Y-6.1792 I0.0249 J0.0573
G1 X-6.776 Y-6.1784
X-6.7778 Y-6.1776
G2 X-6.7783 Y-6.1774 I0.0264 J0.0566
G1 X-6.78 Y-6.1765
G2 X-6.781 Y-6.176 I0.0269 J0.0564
G1 X-6.7828 Y-6.1752
G2 X-6.7838 Y-6.1746 I0.028 J0.0559
G1 X-6.7855 Y-6.1737
G2 X-6.787 Y-6.1729 I0.029 J0.0554
G1 X-6.7887 Y-6.172
X-6.7904 Y-6.171
G2 X-6.7928 Y-6.1696 I0.0305 J0.0546
G1 X-6.7945 Y-6.1686
G2 X-6.795 Y-6.1682 I0.0329 J0.0531
G1 X-6.7967 Y-6.1672
G2 X-6.7984 Y-6.166 I0.0335 J0.0528
G1 X-6.8001 Y-6.1649
G2 X-6.8006 Y-6.1645 I0.0352 J0.0516
G1 X-6.8022 Y-6.1634
G2 X-6.8031 Y-6.1628 I0.0358 J0.0512
G1 X-6.8046 Y-6.1617
G2 X-6.8061 Y-6.1606 I0.0367 J0.0506
G1 X-6.8076 Y-6.1594
G2 X-6.8084 Y-6.1588 I0.0381 J0.0495
G1 X-6.8099 Y-6.1576
G2 X-6.8105 Y-6.1571 I0.0389 J0.0489
G1 X-6.812 Y-6.1559
G2 X-6.8128 Y-6.1552 I0.0395 J0.0484
G1 X-6.8158 Y-6.1527
G2 X-6.8171 Y-6.1516 I0.0403 J0.0478
G1 X-6.8179 Y-6.1509
X-6.8187 Y-6.1502
G2 X-6.8201 Y-6.149 I0.0403 J0.0478
G1 X-6.8215 Y-6.1477
G2 X-6.8301 Y-6.1384 I0.0416 J0.0466
G1 X-6.8313 Y-6.1367
G2 X-6.8323 Y-6.1354 I0.0501 J0.0373
G1 X-6.8335 Y-6.1336
X-6.8337 Y-6.1334
X-6.8348 Y-6.1317
G2 X-6.8352 Y-6.1312 I0.0513 J0.0358
G1 X-6.8364 Y-6.1294
G2 X-6.8369 Y-6.1286 I0.0516 J0.0352
G1 X-6.8381 Y-6.1269
G2 X-6.839 Y-6.1255 I0.0522 J0.0344
G1 X-6.8401 Y-6.1237
G2 X-6.8406 Y-6.1229 I0.0531 J0.033
G1 X-6.8417 Y-6.1211
G2 X-6.8427 Y-6.1193 I0.0536 J0.0322
G1 X-6.8437 Y-6.1175
G2 X-6.8452 Y-6.1146 I0.0546 J0.0304
G1 X-6.8461 Y-6.1128
G2 X-6.847 Y-6.1108 I0.0561 J0.0275
G1 X-6.8479 Y-6.109
G2 X-6.8487 Y-6.1069 I0.0571 J0.0255
G1 X-6.8495 Y-6.105
G2 X-6.8506 Y-6.1021 I0.0579 J0.0234
G1 X-6.8513 Y-6.1002
G2 X-6.8523 Y-6.0969 I0.059 J0.0205
G1 X-6.8529 Y-6.0949
G2 X-6.8535 Y-6.0923 I0.0601 J0.0172
G1 X-6.854 Y-6.0904
G2 X-6.8543 Y-6.089 I0.0608 J0.0146
G1 X-6.8548 Y-6.087
G2 X-6.8552 Y-6.0846 I0.0611 J0.0132
G1 X-6.8556 Y-6.0826
G2 X-6.856 Y-6.0801 I0.0615 J0.0109
G1 X-6.8562 Y-6.0781
G2 X-6.8564 Y-6.0769 I0.0619 J0.0083
G1 X-6.8566 Y-6.0748
G2 X-6.8568 Y-6.0735 I0.0621 J0.0072
G1 X-6.8569 Y-6.0715
G2 X-6.857 Y-6.0703 I0.0622 J0.0059
G1 X-6.8572 Y-6.0682
G2 X-6.8573 Y-6.067 I0.0623 J0.0047
G1 X-6.8574 Y-6.0649
X-6.8575 Y-6.0628
G2 X-6.8576 Y-6.0616 I0.0624 J0.0035
G1 X-6.8577 Y-6.0595
Y-6.0574
G2 X-6.8578 Y-6.0551 I0.0625 J0.0024
G1 Y-4.7217
G2 X-6.7953 Y-4.6592 I0.0625
G1 X-6.7806
G2 X-6.721 Y-4.7028 J-0.0625
G1 X-6.6506 Y-4.9246
X-6.1857 Y-6.2432
X-6.0641
X-5.9508 Y-5.9841
X-5.5758 Y-4.9243
X-5.504 Y-4.7037
G2 X-5.4446 Y-4.6606 I0.0594 J-0.0193
G1 X-5.4286
G2 X-5.3661 Y-4.7231 J-0.0625
G1 Y-6.0631
G2 X-5.3662 Y-6.0654 I-0.0625
G1 Y-6.0675
G2 X-5.3663 Y-6.0687 I-0.0625 J0.0023
G1 X-5.3664 Y-6.0708
G2 X-5.3665 Y-6.0719 I-0.0624 J0.0035
G1 X-5.3666 Y-6.074
X-5.3667 Y-6.0741
X-5.3668 Y-6.0762
G2 X-5.3669 Y-6.0774 I-0.0623 J0.0047
G1 X-5.3673 Y-6.0815
G2 X-5.3676 Y-6.0839 I-0.0622 J0.0059
G1 X-5.3678 Y-6.0859
G2 X-5.3681 Y-6.0874 I-0.062 J0.0082
G1 X-5.3684 Y-6.0894
G2 X-5.3687 Y-6.0916 I-0.0617 J0.0097
G1 X-5.3691 Y-6.0936
G2 X-5.3695 Y-6.0952 I-0.0614 J0.0118
G1 X-5.3699 Y-6.0972
G2 X-5.3704 Y-6.0992 I-0.061 J0.0134
G1 X-5.3709 Y-6.1012
G2 X-5.3717 Y-6.1041 I-0.0606 J0.0154
G1 X-5.3723 Y-6.106
G2 X-5.3735 Y-6.1097 I-0.0598 J0.0183
G1 X-5.3742 Y-6.1116
G2 X-5.3751 Y-6.1136 I-0.0585 J0.0219
G1 X-5.3759 Y-6.1155
G2 X-5.3769 Y-6.118 I-0.0577 J0.024
G1 X-5.3778 Y-6.1198
G2 X-5.379 Y-6.1223 I-0.0566 J0.0265
G1 X-5.3799 Y-6.1241
G2 X-5.3807 Y-6.1255 I-0.0554 J0.0289
G1 X-5.3817 Y-6.1273
G2 X-5.3833 Y-6.1299 I-0.0546 J0.0304
G1 X-5.3855 Y-6.1335
G2 X-5.3864 Y-6.1349 I-0.0531 J0.033
G1 X-5.3875 Y-6.1366
G2 X-5.3886 Y-6.1382 I-0.0522 J0.0344
G1 X-5.3898 Y-6.1399
G2 X-5.3902 Y-6.1405 I-0.0511 J0.036
G1 X-5.3912 Y-6.1419
X-5.3923 Y-6.1434
G2 X-5.3932 Y-6.1447 I-0.0511 J0.036
G1 X-5.3945 Y-6.1464
G2 X-5.4029 Y-6.1556 I-0.0501 J0.0373
G1 X-5.4059 Y-6.1583
X-5.4075 Y-6.1597
G2 X-5.4081 Y-6.1603 I-0.0417 J0.0465
G1 X-5.4096 Y-6.1616
X-5.4112 Y-6.1629
G2 X-5.4125 Y-6.1641 I-0.0412 J0.047
G1 X-5.4157 Y-6.1667
G2 X-5.417 Y-6.1678 I-0.0398 J0.0482
G1 X-5.4186 Y-6.169
G2 X-5.42 Y-6.17 I-0.0385 J0.0493
G1 X-5.4216 Y-6.1713
G2 X-5.4224 Y-6.1718 I-0.0371 J0.0503
G1 X-5.4241 Y-6.173
G2 X-5.4249 Y-6.1736 I-0.0363 J0.0509
G1 X-5.4265 Y-6.1747
G2 X-5.4285 Y-6.176 I-0.0355 J0.0514
G1 X-5.4302 Y-6.1771
G2 X-5.4311 Y-6.1777 I-0.0336 J0.0527
G1 X-5.4328 Y-6.1787
G2 X-5.4342 Y-6.1796 I-0.0327 J0.0533
G1 X-5.436 Y-6.1806
G2 X-5.4384 Y-6.1819 I-0.0313 J0.0541
G1 X-5.442 Y-6.1838
G2 X-5.443 Y-6.1843 I-0.0289 J0.0554
G1 X-5.4448 Y-6.1852
G2 X-5.4462 Y-6.1859 I-0.028 J0.0559
G1 X-5.4481 Y-6.1868
G2 X-5.4485 Y-6.187 I-0.0265 J0.0566
G1 X-5.4504 Y-6.1878
G2 X-5.4514 Y-6.1883 I-0.026 J0.0568
G1 X-5.4533 Y-6.1891
X-5.4552 Y-6.1899
G2 X-5.4562 Y-6.1904 I-0.0251 J0.0573
G1 X-5.4581 Y-6.1912
X-5.4597 Y-6.1918
X-5.4613 Y-6.1925
G2 X-5.465 Y-6.1939 I-0.0246 J0.0574
G1 X-5.6032 Y-6.2432
X-4.838
X-4.9763 Y-6.1939
G2 X-4.9783 Y-6.1932 I0.021 J0.0589
G1 X-4.9802 Y-6.1924
G2 X-4.9806 Y-6.1923 I0.023 J0.0581
G1 X-4.9822 Y-6.1916
X-4.9839 Y-6.1909
G2 X-4.9843 Y-6.1908 I0.023 J0.0581
G1 X-4.988 Y-6.1893
G2 X-4.9891 Y-6.1888 I0.0234 J0.0579
G1 X-4.9909 Y-6.1881
G2 X-4.9924 Y-6.1874 I0.0245 J0.0575
G1 X-4.9942 Y-6.1866
G2 X-4.9952 Y-6.1861 I0.026 J0.0569
G1 X-4.997 Y-6.1852
G2 X-4.9975 Y-6.185 I0.027 J0.0564
G1 X-4.9993 Y-6.1841
G2 X-5.0003 Y-6.1836 I0.0275 J0.0561
G1 X-5.0021 Y-6.1827
G2 X-5.0036 Y-6.182 I0.0284 J0.0557
G1 X-5.0053 Y-6.181
G2 X-5.0077 Y-6.1796 I0.0299 J0.0549
G1 X-5.0094 Y-6.1786
G2 X-5.0103 Y-6.178 I0.0323 J0.0535
G1 X-5.012 Y-6.177
G2 X-5.0125 Y-6.1766 I0.0332 J0.0529
G1 X-5.0142 Y-6.1756
G2 X-5.0159 Y-6.1744 I0.0338 J0.0526
G1 X-5.0176 Y-6.1733
G2 X-5.0195 Y-6.1719 I0.0355 J0.0514
G1 X-5.0211 Y-6.1707
G2 X-5.0219 Y-6.1701 I0.0375 J0.05
G1 X-5.0235 Y-6.1688
X-5.0251 Y-6.1676
G2 X-5.0258 Y-6.167 I0.0383 J0.0494
G1 X-5.0274 Y-6.1658
G2 X-5.0287 Y-6.1647 I0.039 J0.0488
G1 X-5.0303 Y-6.1634
G2 X-5.0309 Y-6.1629 I0.0404 J0.0477
G1 X-5.0324 Y-6.1616
Y-6.1615
X-5.0339 Y-6.1602
X-5.0354 Y-6.1589
X-5.0355 Y-6.1588
X-5.037 Y-6.1575
G2 X-5.0459 Y-6.1479 I0.0411 J0.0471
G1 X-5.0472 Y-6.1462
G2 X-5.0476 Y-6.1456 I0.05 J0.0375
G1 X-5.0487 Y-6.1441
X-5.0498 Y-6.1427
G2 X-5.0513 Y-6.1406 I0.05 J0.0375
G1 X-5.0538 Y-6.1371
G2 X-5.0546 Y-6.1358 I0.0515 J0.0355
G1 X-5.0558 Y-6.1339
G2 X-5.0563 Y-6.1331 I0.0524 J0.0341
G1 X-5.0575 Y-6.1313
G2 X-5.0593 Y-6.1282 I0.0529 J0.0333
G1 X-5.0603 Y-6.1264
G2 X-5.0608 Y-6.1255 I0.0547 J0.0303
G1 X-5.0618 Y-6.1236
G2 X-5.063 Y-6.1213 I0.0552 J0.0294
G1 X-5.0639 Y-6.1194
G2 X-5.065 Y-6.117 I0.0564 J0.027
G1 X-5.0658 Y-6.1151
G2 X-5.0672 Y-6.1116 I0.0574 J0.0246
G1 X-5.0679 Y-6.1097
G2 X-5.0687 Y-6.1072 I0.0588 J0.0212
G1 X-5.0693 Y-6.1052
G2 X-5.07 Y-6.1027 I0.0596 J0.0187
G1 X-5.0706 Y-6.1007
G2 X-5.0714 Y-6.0974 I0.0604 J0.0162
G1 X-5.0718 Y-6.0953
G2 X-5.0721 Y-6.094 I0.0611 J0.0129
G1 X-5.0725 Y-6.0919
G2 X-5.0727 Y-6.0908 I0.0614 J0.0116
G1 X-5.073 Y-6.0887
G2 X-5.0734 Y-6.0863 I0.0616 J0.0105
G1 X-5.0737 Y-6.0841
G2 X-5.0739 Y-6.082 I0.062 J0.008
G0 Z0.2
X-5.0751 Y-6.0654
G1 Z0.1 F20
Z-0.155
G2 Y-6.0631 I0.0625 J0.0023
G1 Y-4.6604
G2 X-5.075 Y-4.6569 I0.0625
G1 X-5.0749 Y-4.6548
G2 X-5.0748 Y-4.6535 I0.0624 J-0.0035
G1 X-5.0746 Y-4.6515
X-5.0745 Y-4.6495
Y-4.6494
X-5.0743 Y-4.6473
G2 X-5.0742 Y-4.6461 I0.0623 J-0.0048
G1 X-5.074 Y-4.6441
G2 X-5.0738 Y-4.6417 I0.0622 J-0.006
G1 X-5.0735 Y-4.6397
Y-4.6395
X-5.0732 Y-4.6375
G2 X-5.0728 Y-4.6352 I0.0619 J-0.0085
G1 X-5.0725 Y-4.6332
G2 X-5.0722 Y-4.6318 I0.0615 J-0.0109
G1 X-5.0718 Y-4.6298
G2 X-5.0712 Y-4.6272 I0.0613 J-0.0123
G1 X-5.0707 Y-4.6253
G2 X-5.0701 Y-4.6229 I0.0607 J-0.0149
G1 X-5.0696 Y-4.621
G2 X-5.0688 Y-4.6184 I0.0601 J-0.0172
G1 X-5.0682 Y-4.6165
G2 X-5.0668 Y-4.6129 I0.0593 J-0.0198
G1 X-5.0661 Y-4.611
G2 X-5.0654 Y-4.6095 I0.0579 J-0.0234
G1 X-5.0646 Y-4.6077
G2 X-5.063 Y-4.6042 I0.0573 J-0.0249
G1 X-5.0621 Y-4.6024
G2 X-5.0611 Y-4.6005 I0.0557 J-0.0284
G1 X-5.0601 Y-4.5987
G2 X-5.0592 Y-4.5973 I0.0546 J-0.0304
G1 X-5.0582 Y-4.5956
G2 X-5.0568 Y-4.5933 I0.0538 J-0.0318
G1 X-5.0557 Y-4.5916
G2 X-5.0551 Y-4.5907 I0.0524 J-0.0341
G1 X-5.054 Y-4.589
G2 X-5.0525 Y-4.5869 I0.0518 J-0.0349
G1 X-5.05 Y-4.5836
G2 X-5.0494 Y-4.5828 I0.0503 J-0.0371
G1 X-5.0469 Y-4.5795
G2 X-5.0465 Y-4.5789 I0.0497 J-0.0379
G1 X-5.0452 Y-4.5773
G2 X-5.037 Y-4.5686 I0.0493 J-0.0385
G1 X-5.0358 Y-4.5676
X-5.0346 Y-4.5665
G2 X-5.0333 Y-4.5654 I0.0417 J-0.0466
G1 X-5.0321 Y-4.5643
X-5.0309 Y-4.5633
G2 X-5.0303 Y-4.5628 I0.041 J-0.0472
G1 X-5.0287 Y-4.5615
G2 X-5.0274 Y-4.5604 I0.0404 J-0.0477
G1 X-5.0242 Y-4.5578
G2 X-5.0227 Y-4.5567 I0.039 J-0.0488
G1 X-5.0195 Y-4.5543
G2 X-5.0176 Y-4.5529 I0.0375 J-0.05
G1 X-5.0159 Y-4.5517
G2 X-5.0151 Y-4.5511 I0.0355 J-0.0514
G1 X-5.0134 Y-4.55
G2 X-5.012 Y-4.5491 I0.0347 J-0.052
G1 X-5.0103 Y-4.5481
G2 X-5.0085 Y-4.547 I0.0332 J-0.0529
G1 X-5.0068 Y-4.546
G2 X-5.0053 Y-4.5451 I0.0314 J-0.054
G1 X-5.0036 Y-4.5442
G2 X-5.0021 Y-4.5434 I0.0299 J-0.0549
G1 X-5.0003 Y-4.5425
X-4.9985 Y-4.5416
G2 X-4.996 Y-4.5404 I0.0284 J-0.0557
G1 X-4.9924 Y-4.5387
G2 X-4.9909 Y-4.5381 I0.026 J-0.0569
G1 X-4.9872 Y-4.5365
G2 X-4.9862 Y-4.5361 I0.0245 J-0.0575
G1 X-4.9843 Y-4.5353
G2 X-4.9839 Y-4.5352 I0.0234 J-0.0579
G1 X-4.982 Y-4.5344
G2 X-4.9814 Y-4.5342 I0.023 J-0.0581
G1 X-4.9798 Y-4.5336
X-4.9783 Y-4.533
G2 X-4.9763 Y-4.5322 I0.023 J-0.0581
G1 X-4.838 Y-4.4829
X-5.5028
X-5.9442 Y-5.7582
G2 X-6.0033 Y-5.8002 I-0.0591 J0.0204
G1 X-6.018
G2 X-6.0778 Y-5.7558 J0.0625
G1 X-6.152 Y-5.5105
X-6.5142 Y-4.4829
X-7.1882
X-7.0491 Y-4.5321
G2 X-7.0478 Y-4.5326 I-0.0209 J-0.0589
G1 X-7.0468 Y-4.533
X-7.0458 Y-4.5333
G2 X-7.0447 Y-4.5337 I-0.0205 J-0.059
G1 X-7.0429 Y-4.5344
G2 X-7.0424 Y-4.5346 I-0.0217 J-0.0586
G1 X-7.0407 Y-4.5352
G2 X-7.0395 Y-4.5357 I-0.0221 J-0.0585
G1 X-7.036 Y-4.5371
G2 X-7.0349 Y-4.5375 I-0.0232 J-0.058
G1 X-7.0331 Y-4.5383
G2 X-7.0311 Y-4.5392 I-0.0243 J-0.0576
G1 X-7.0294 Y-4.54
G2 X-7.0288 Y-4.5402 I-0.0264 J-0.0567
G1 X-7.0271 Y-4.5411
G2 X-7.0266 Y-4.5413 I-0.0269 J-0.0564
G1 X-7.0249 Y-4.5421
G2 X-7.0223 Y-4.5435 I-0.0274 J-0.0562
G1 X-7.0206 Y-4.5444
G2 X-7.0191 Y-4.5453 I-0.03 J-0.0548
G1 X-7.0175 Y-4.5462
G2 X-7.0165 Y-4.5468 I-0.0316 J-0.0539
G1 X-7.0149 Y-4.5478
G2 X-7.0119 Y-4.5498 I-0.0325 J-0.0534
G1 X-7.0103 Y-4.5508
G2 X-7.0095 Y-4.5514 I-0.0356 J-0.0514
G1 X-7.0064 Y-4.5536
G2 X-7.0041 Y-4.5554 I-0.0365 J-0.0508
G1 X-7.0026 Y-4.5565
G2 X-7.0012 Y-4.5577 I-0.0387 J-0.0491
G1 X-6.9983 Y-4.5601
X-6.9968 Y-4.5613
G2 X-6.9947 Y-4.5632 I-0.0401 J-0.0479
G1 X-6.994 Y-4.5639
X-6.9932 Y-4.5645
G2 X-6.9919 Y-4.5657 I-0.0409 J-0.0473
G1 X-6.9904 Y-4.567
X-6.989 Y-4.5683
G2 X-6.9806 Y-4.5779 I-0.0422 J-0.0461
G1 X-6.9796 Y-4.5792
X-6.9786 Y-4.5805
G2 X-6.9777 Y-4.5818 I-0.0501 J-0.0373
G1 X-6.9765 Y-4.5835
G2 X-6.9759 Y-4.5843 I-0.0511 J-0.036
G1 X-6.9736 Y-4.5878
G2 X-6.9725 Y-4.5894 I-0.0516 J-0.0352
G1 X-6.9714 Y-4.5912
G2 X-6.9705 Y-4.5926 I-0.0527 J-0.0336
G1 X-6.9694 Y-4.5943
G2 X-6.9686 Y-4.5957 I-0.0536 J-0.0322
G1 X-6.9676 Y-4.5976
G2 X-6.9666 Y-4.5994 I-0.0544 J-0.0308
G1 X-6.9657 Y-4.6012
G2 X-6.9645 Y-4.6036 I-0.0554 J-0.0289
G1 X-6.9636 Y-4.6055
G2 X-6.9625 Y-4.6079 I-0.0566 J-0.0265
G1 X-6.9617 Y-4.6098
G2 X-6.9605 Y-4.613 I-0.0577 J-0.024
G1 X-6.9598 Y-4.6149
G2 X-6.959 Y-4.6175 I-0.0589 J-0.0209
G1 X-6.9584 Y-4.6194
G2 X-6.958 Y-4.6208 I-0.0598 J-0.0183
G1 X-6.9574 Y-4.6228
G2 X-6.9565 Y-4.6265 I-0.0602 J-0.0169
G1 X-6.9561 Y-4.6285
G2 X-6.9558 Y-4.6296 I-0.0611 J-0.0132
G1 X-6.9554 Y-4.6316
G2 X-6.955 Y-4.6342 I-0.0613 J-0.012
G1 X-6.9547 Y-4.6362
G2 X-6.9544 Y-4.6387 I-0.0618 J-0.0095
G1 X-6.9541 Y-4.6407
X-6.9539 Y-4.6427
G2 X-6.9538 Y-4.6441 I-0.0621 J-0.0072
G1 X-6.9536 Y-4.6462
G2 X-6.9535 Y-4.6473 I-0.0622 J-0.0058
G1 X-6.9533 Y-4.6494
G2 X-6.9532 Y-4.6506 I-0.0623 J-0.0047
G1 X-6.9531 Y-4.6527
X-6.953 Y-4.6547
Y-4.6548
X-6.9529 Y-4.6569
G2 X-6.9528 Y-4.6604 I-0.0624 J-0.0035
G1 Y-6.0551
G2 X-6.9529 Y-6.0586 I-0.0625
G1 X-6.953 Y-6.0607
X-6.9532 Y-6.0649
G2 X-6.9533 Y-6.066 I-0.0624 J0.0035
G1 X-6.9535 Y-6.0681
Y-6.0682
X-6.9536 Y-6.0703
G2 X-6.9538 Y-6.0725 I-0.0623 J0.0048
G1 X-6.9541 Y-6.0746
Y-6.0749
X-6.9543 Y-6.0769
G2 X-6.9546 Y-6.0791 I-0.0621 J0.0073
G1 X-6.955 Y-6.0811
G2 X-6.9554 Y-6.0839 I-0.0618 J0.0095
G1 X-6.9558 Y-6.0858
G2 X-6.9561 Y-6.087 I-0.0613 J0.0123
G1 X-6.9565 Y-6.089
G2 X-6.9571 Y-6.0913 I-0.061 J0.0134
G1 X-6.9576 Y-6.0932
G2 X-6.9584 Y-6.0962 I-0.0605 J0.0157
G1 X-6.959 Y-6.0981
G2 X-6.9601 Y-6.1014 I-0.0597 J0.0186
G1 X-6.9608 Y-6.1032
G2 X-6.9619 Y-6.1058 I-0.0585 J0.0219
G1 X-6.9626 Y-6.1076
G2 X-6.9638 Y-6.1101 I-0.0575 J0.0245
G1 X-6.9646 Y-6.1119
G2 X-6.9656 Y-6.1139 I-0.0564 J0.027
G1 X-6.9666 Y-6.1157
G2 X-6.9682 Y-6.1186 I-0.0554 J0.0289
G1 X-6.9692 Y-6.1203
G2 X-6.9697 Y-6.1212 I-0.0538 J0.0318
G1 X-6.9708 Y-6.1229
G2 X-6.9713 Y-6.1238 I-0.0533 J0.0327
G1 X-6.9724 Y-6.1255
G2 X-6.9739 Y-6.1277 I-0.0527 J0.0336
G1 X-6.9751 Y-6.1294
G2 X-6.9756 Y-6.1302 I-0.0513 J0.0358
G1 X-6.9793 Y-6.1353
G2 X-6.9803 Y-6.1366 I-0.0507 J0.0366
G1 X-6.9815 Y-6.1383
G2 X-6.9897 Y-6.147 I-0.0497 J0.0379
G1 X-6.9926 Y-6.1496
X-6.994 Y-6.1509
G2 X-6.9947 Y-6.1516 I-0.0416 J0.0466
G1 X-6.9962 Y-6.1528
G2 X-6.9968 Y-6.1534 I-0.0409 J0.0473
G1 X-6.9998 Y-6.1559
G2 X-7.0006 Y-6.1565 I-0.0403 J0.0478
G1 X-7.0021 Y-6.1577
G2 X-7.0028 Y-6.1583 I-0.0395 J0.0484
G1 X-7.0043 Y-6.1595
G2 X-7.005 Y-6.16 I-0.0387 J0.0491
G1 X-7.0065 Y-6.1612
G2 X-7.0079 Y-6.1623 I-0.0381 J0.0495
G1 X-7.0095 Y-6.1634
X-7.0111 Y-6.1645
G2 X-7.0128 Y-6.1657 I-0.0367 J0.0506
G1 X-7.0144 Y-6.1668
G2 X-7.0159 Y-6.1678 I-0.035 J0.0518
G1 X-7.0175 Y-6.1688
G2 X-7.019 Y-6.1697 I-0.0335 J0.0528
G1 X-7.0206 Y-6.1707
G2 X-7.0212 Y-6.171 I-0.032 J0.0537
G1 X-7.0229 Y-6.172
G2 X-7.0238 Y-6.1726 I-0.0314 J0.054
G1 X-7.0255 Y-6.1735
G2 X-7.0265 Y-6.174 I-0.0305 J0.0546
G1 X-7.0282 Y-6.175
G2 X-7.0297 Y-6.1757 I-0.0295 J0.0551
G1 X-7.0332 Y-6.1775
X-7.0349 Y-6.1783
G2 X-7.0364 Y-6.1791 I-0.028 J0.0559
G1 X-7.04 Y-6.1807
X-7.0415 Y-6.1814
X-7.043 Y-6.1822
G2 X-7.0466 Y-6.1837 I-0.0269 J0.0564
G1 X-7.1944 Y-6.2432
X-6.6172
X-6.7641 Y-6.1837
